(Cloud CAM Generated for Job 52450538-fe91-48a1-a0fb-3517f554dd7b)
(Model: 556.3 x 110.0 x 20.0 mm)
(Params: step_down=2.0 spindle=4000 feed=800.0)
(Strategy: stock_aware_fallback)
G21 (metric)
G90 (absolute)
S4000 M3
G0 Z5.0
G0 X1.000 Y1.000 Z5.000
G1 Z1.000 F400
G1 X555.350 Y1.000 F800
G0 Z5.000
G0 X555.350 Y4.200 Z5.000
G1 Z1.000 F400
G1 X1.000 Y4.200 F800
G0 Z5.000
G0 X1.000 Y7.400 Z5.000
G1 Z1.000 F400
G1 X555.350 Y7.400 F800
G0 Z5.000
G0 X555.350 Y10.600 Z5.000
G1 Z1.000 F400
G1 X1.000 Y10.600 F800
G0 Z5.000
G0 X1.000 Y13.800 Z5.000
G1 Z1.000 F400
G1 X555.350 Y13.800 F800
G0 Z5.000
G0 X555.350 Y17.000 Z5.000
G1 Z1.000 F400
G1 X1.000 Y17.000 F800
G0 Z5.000
G0 X1.000 Y20.200 Z5.000
G1 Z1.000 F400
G1 X555.350 Y20.200 F800
G0 Z5.000
G0 X555.350 Y23.400 Z5.000
G1 Z1.000 F400
G1 X1.000 Y23.400 F800
G0 Z5.000
G0 X1.000 Y26.600 Z5.000
G1 Z1.000 F400
G1 X555.350 Y26.600 F800
G0 Z5.000
G0 X555.350 Y29.800 Z5.000
G1 Z1.000 F400
G1 X1.000 Y29.800 F800
G0 Z5.000
G0 X1.000 Y33.000 Z5.000
G1 Z1.000 F400
G1 X555.350 Y33.000 F800
G0 Z5.000
G0 X555.350 Y36.200 Z5.000
G1 Z1.000 F400
G1 X1.000 Y36.200 F800
G0 Z5.000
G0 X1.000 Y39.400 Z5.000
G1 Z1.000 F400
G1 X555.350 Y39.400 F800
G0 Z5.000
G0 X555.350 Y42.600 Z5.000
G1 Z1.000 F400
G1 X1.000 Y42.600 F800
G0 Z5.000
G0 X1.000 Y45.800 Z5.000
G1 Z1.000 F400
G1 X555.350 Y45.800 F800
G0 Z5.000
G0 X555.350 Y49.000 Z5.000
G1 Z1.000 F400
G1 X1.000 Y49.000 F800
G0 Z5.000
G0 X1.000 Y52.200 Z5.000
G1 Z1.000 F400
G1 X555.350 Y52.200 F800
G0 Z5.000
G0 X555.350 Y55.400 Z5.000
G1 Z1.000 F400
G1 X1.000 Y55.400 F800
G0 Z5.000
G0 X1.000 Y58.600 Z5.000
G1 Z1.000 F400
G1 X555.350 Y58.600 F800
G0 Z5.000
G0 X555.350 Y61.800 Z5.000
G1 Z1.000 F400
G1 X1.000 Y61.800 F800
G0 Z5.000
G0 X1.000 Y65.000 Z5.000
G1 Z1.000 F400
G1 X555.350 Y65.000 F800
G0 Z5.000
G0 X555.350 Y68.200 Z5.000
G1 Z1.000 F400
G1 X1.000 Y68.200 F800
G0 Z5.000
G0 X1.000 Y71.400 Z5.000
G1 Z1.000 F400
G1 X555.350 Y71.400 F800
G0 Z5.000
G0 X555.350 Y74.600 Z5.000
G1 Z1.000 F400
G1 X1.000 Y74.600 F800
G0 Z5.000
G0 X1.000 Y77.800 Z5.000
G1 Z1.000 F400
G1 X555.350 Y77.800 F800
G0 Z5.000
G0 X555.350 Y81.000 Z5.000
G1 Z1.000 F400
G1 X1.000 Y81.000 F800
G0 Z5.000
G0 X1.000 Y84.200 Z5.000
G1 Z1.000 F400
G1 X555.350 Y84.200 F800
G0 Z5.000
G0 X555.350 Y87.400 Z5.000
G1 Z1.000 F400
G1 X1.000 Y87.400 F800
G0 Z5.000
G0 X1.000 Y90.600 Z5.000
G1 Z1.000 F400
G1 X555.350 Y90.600 F800
G0 Z5.000
G0 X555.350 Y93.800 Z5.000
G1 Z1.000 F400
G1 X1.000 Y93.800 F800
G0 Z5.000
G0 X1.000 Y97.000 Z5.000
G1 Z1.000 F400
G1 X555.350 Y97.000 F800
G0 Z5.000
G0 X555.350 Y100.200 Z5.000
G1 Z1.000 F400
G1 X1.000 Y100.200 F800
G0 Z5.000
G0 X1.000 Y103.400 Z5.000
G1 Z1.000 F400
G1 X555.350 Y103.400 F800
G0 Z5.000
G0 X555.350 Y106.600 Z5.000
G1 Z1.000 F400
G1 X1.000 Y106.600 F800
G0 Z5.000
G0 X291.474 Y39.060 Z5.000
G1 Z-1.000 F400
G1 X310.210 Y39.060 F800
G0 Z5.000
G0 X314.242 Y42.260 Z5.000
G1 Z-1.000 F400
G1 X287.442 Y42.260 F800
G0 Z5.000
G0 X43.516 Y45.460 Z5.000
G1 Z-1.000 F400
G1 X228.066 Y45.460 F800
G0 Z5.000
G0 X285.005 Y45.460 Z5.000
G1 Z-1.000 F400
G1 X316.679 Y45.460 F800
G0 Z5.000
G0 X372.085 Y45.460 Z5.000
G1 Z-1.000 F400
G1 X511.635 Y45.460 F800
G0 Z5.000
G0 X514.544 Y48.660 Z5.000
G1 Z-1.000 F400
G1 X369.179 Y48.660 F800
G0 Z5.000
G0 X318.209 Y48.660 Z5.000
G1 Z-1.000 F400
G1 X283.475 Y48.660 F800
G0 Z5.000
G0 X230.974 Y48.660 Z5.000
G1 Z-1.000 F400
G1 X40.610 Y48.660 F800
G0 Z5.000
G0 X39.214 Y51.860 Z5.000
G1 Z-1.000 F400
G1 X232.369 Y51.860 F800
G0 Z5.000
G0 X282.618 Y51.860 Z5.000
G1 Z-1.000 F400
G1 X319.066 Y51.860 F800
G0 Z5.000
G0 X367.784 Y51.860 Z5.000
G1 Z-1.000 F400
G1 X515.939 Y51.860 F800
G0 Z5.000
G0 X516.356 Y55.060 Z5.000
G1 Z-1.000 F400
G1 X367.368 Y55.060 F800
G0 Z5.000
G0 X341.337 Y55.060 Z5.000
G1 Z-1.000 F400
G1 X340.347 Y55.060 F800
G0 Z5.000
G0 X319.330 Y55.060 Z5.000
G1 Z-1.000 F400
G1 X282.354 Y55.060 F800
G0 Z5.000
G0 X261.337 Y55.060 Z5.000
G1 Z-1.000 F400
G1 X260.347 Y55.060 F800
G0 Z5.000
G0 X232.786 Y55.060 Z5.000
G1 Z-1.000 F400
G1 X38.798 Y55.060 F800
G0 Z5.000
G0 X39.245 Y58.260 Z5.000
G1 Z-1.000 F400
G1 X232.339 Y58.260 F800
G0 Z5.000
G0 X282.639 Y58.260 Z5.000
G1 Z-1.000 F400
G1 X319.045 Y58.260 F800
G0 Z5.000
G0 X367.815 Y58.260 Z5.000
G1 Z-1.000 F400
G1 X515.909 Y58.260 F800
G0 Z5.000
G0 X514.471 Y61.460 Z5.000
G1 Z-1.000 F400
G1 X369.252 Y61.460 F800
G0 Z5.000
G0 X318.165 Y61.460 Z5.000
G1 Z-1.000 F400
G1 X283.519 Y61.460 F800
G0 Z5.000
G0 X230.901 Y61.460 Z5.000
G1 Z-1.000 F400
G1 X40.683 Y61.460 F800
G0 Z5.000
G0 X43.681 Y64.660 Z5.000
G1 Z-1.000 F400
G1 X227.904 Y64.660 F800
G0 Z5.000
G0 X285.078 Y64.660 Z5.000
G1 Z-1.000 F400
G1 X316.606 Y64.660 F800
G0 Z5.000
G0 X372.250 Y64.660 Z5.000
G1 Z-1.000 F400
G1 X511.473 Y64.660 F800
G0 Z5.000
G0 X314.130 Y67.860 Z5.000
G1 Z-1.000 F400
G1 X287.554 Y67.860 F800
G0 Z5.000
G0 X291.683 Y71.060 Z5.000
G1 Z-1.000 F400
G1 X310.001 Y71.060 F800
G0 Z5.000
G0 X291.474 Y39.060 Z5.000
G1 Z-3.000 F400
G1 X310.210 Y39.060 F800
G0 Z5.000
G0 X314.242 Y42.260 Z5.000
G1 Z-3.000 F400
G1 X287.442 Y42.260 F800
G0 Z5.000
G0 X43.516 Y45.460 Z5.000
G1 Z-3.000 F400
G1 X228.068 Y45.460 F800
G0 Z5.000
G0 X285.005 Y45.460 Z5.000
G1 Z-3.000 F400
G1 X316.679 Y45.460 F800
G0 Z5.000
G0 X372.086 Y45.460 Z5.000
G1 Z-3.000 F400
G1 X511.638 Y45.460 F800
G0 Z5.000
G0 X514.545 Y48.660 Z5.000
G1 Z-3.000 F400
G1 X369.178 Y48.660 F800
G0 Z5.000
G0 X318.209 Y48.660 Z5.000
G1 Z-3.000 F400
G1 X283.475 Y48.660 F800
G0 Z5.000
G0 X230.975 Y48.660 Z5.000
G1 Z-3.000 F400
G1 X40.609 Y48.660 F800
G0 Z5.000
G0 X39.214 Y51.860 Z5.000
G1 Z-3.000 F400
G1 X232.370 Y51.860 F800
G0 Z5.000
G0 X282.618 Y51.860 Z5.000
G1 Z-3.000 F400
G1 X319.066 Y51.860 F800
G0 Z5.000
G0 X367.783 Y51.860 Z5.000
G1 Z-3.000 F400
G1 X515.940 Y51.860 F800
G0 Z5.000
G0 X516.357 Y55.060 Z5.000
G1 Z-3.000 F400
G1 X367.367 Y55.060 F800
G0 Z5.000
G0 X341.337 Y55.060 Z5.000
G1 Z-3.000 F400
G1 X340.347 Y55.060 F800
G0 Z5.000
G0 X319.330 Y55.060 Z5.000
G1 Z-3.000 F400
G1 X282.354 Y55.060 F800
G0 Z5.000
G0 X261.337 Y55.060 Z5.000
G1 Z-3.000 F400
G1 X260.347 Y55.060 F800
G0 Z5.000
G0 X232.787 Y55.060 Z5.000
G1 Z-3.000 F400
G1 X38.797 Y55.060 F800
G0 Z5.000
G0 X39.245 Y58.260 Z5.000
G1 Z-3.000 F400
G1 X232.339 Y58.260 F800
G0 Z5.000
G0 X282.639 Y58.260 Z5.000
G1 Z-3.000 F400
G1 X319.045 Y58.260 F800
G0 Z5.000
G0 X367.815 Y58.260 Z5.000
G1 Z-3.000 F400
G1 X515.909 Y58.260 F800
G0 Z5.000
G0 X514.471 Y61.460 Z5.000
G1 Z-3.000 F400
G1 X369.252 Y61.460 F800
G0 Z5.000
G0 X318.165 Y61.460 Z5.000
G1 Z-3.000 F400
G1 X283.519 Y61.460 F800
G0 Z5.000
G0 X230.902 Y61.460 Z5.000
G1 Z-3.000 F400
G1 X40.683 Y61.460 F800
G0 Z5.000
G0 X43.680 Y64.660 Z5.000
G1 Z-3.000 F400
G1 X227.904 Y64.660 F800
G0 Z5.000
G0 X285.078 Y64.660 Z5.000
G1 Z-3.000 F400
G1 X316.606 Y64.660 F800
G0 Z5.000
G0 X372.250 Y64.660 Z5.000
G1 Z-3.000 F400
G1 X511.474 Y64.660 F800
G0 Z5.000
G0 X314.130 Y67.860 Z5.000
G1 Z-3.000 F400
G1 X287.554 Y67.860 F800
G0 Z5.000
G0 X291.683 Y71.060 Z5.000
G1 Z-3.000 F400
G1 X310.001 Y71.060 F800
G0 Z5.000
G0 X291.474 Y39.060 Z5.000
G1 Z-5.000 F400
G1 X310.210 Y39.060 F800
G0 Z5.000
G0 X314.242 Y42.260 Z5.000
G1 Z-5.000 F400
G1 X287.442 Y42.260 F800
G0 Z5.000
G0 X43.516 Y45.460 Z5.000
G1 Z-5.000 F400
G1 X228.068 Y45.460 F800
G0 Z5.000
G0 X285.005 Y45.460 Z5.000
G1 Z-5.000 F400
G1 X316.679 Y45.460 F800
G0 Z5.000
G0 X372.086 Y45.460 Z5.000
G1 Z-5.000 F400
G1 X511.638 Y45.460 F800
G0 Z5.000
G0 X514.545 Y48.660 Z5.000
G1 Z-5.000 F400
G1 X369.178 Y48.660 F800
G0 Z5.000
G0 X318.209 Y48.660 Z5.000
G1 Z-5.000 F400
G1 X283.475 Y48.660 F800
G0 Z5.000
G0 X230.975 Y48.660 Z5.000
G1 Z-5.000 F400
G1 X40.609 Y48.660 F800
G0 Z5.000
G0 X39.214 Y51.860 Z5.000
G1 Z-5.000 F400
G1 X232.370 Y51.860 F800
G0 Z5.000
G0 X282.618 Y51.860 Z5.000
G1 Z-5.000 F400
G1 X319.066 Y51.860 F800
G0 Z5.000
G0 X367.783 Y51.860 Z5.000
G1 Z-5.000 F400
G1 X515.940 Y51.860 F800
G0 Z5.000
G0 X516.357 Y55.060 Z5.000
G1 Z-5.000 F400
G1 X367.367 Y55.060 F800
G0 Z5.000
G0 X341.337 Y55.060 Z5.000
G1 Z-5.000 F400
G1 X340.347 Y55.060 F800
G0 Z5.000
G0 X319.330 Y55.060 Z5.000
G1 Z-5.000 F400
G1 X282.354 Y55.060 F800
G0 Z5.000
G0 X261.337 Y55.060 Z5.000
G1 Z-5.000 F400
G1 X260.347 Y55.060 F800
G0 Z5.000
G0 X232.787 Y55.060 Z5.000
G1 Z-5.000 F400
G1 X38.797 Y55.060 F800
G0 Z5.000
G0 X39.245 Y58.260 Z5.000
G1 Z-5.000 F400
G1 X232.339 Y58.260 F800
G0 Z5.000
G0 X282.639 Y58.260 Z5.000
G1 Z-5.000 F400
G1 X319.045 Y58.260 F800
G0 Z5.000
G0 X367.815 Y58.260 Z5.000
G1 Z-5.000 F400
G1 X515.909 Y58.260 F800
G0 Z5.000
G0 X514.471 Y61.460 Z5.000
G1 Z-5.000 F400
G1 X369.252 Y61.460 F800
G0 Z5.000
G0 X318.165 Y61.460 Z5.000
G1 Z-5.000 F400
G1 X283.519 Y61.460 F800
G0 Z5.000
G0 X230.902 Y61.460 Z5.000
G1 Z-5.000 F400
G1 X40.683 Y61.460 F800
G0 Z5.000
G0 X43.680 Y64.660 Z5.000
G1 Z-5.000 F400
G1 X227.904 Y64.660 F800
G0 Z5.000
G0 X285.078 Y64.660 Z5.000
G1 Z-5.000 F400
G1 X316.606 Y64.660 F800
G0 Z5.000
G0 X372.250 Y64.660 Z5.000
G1 Z-5.000 F400
G1 X511.474 Y64.660 F800
G0 Z5.000
G0 X314.130 Y67.860 Z5.000
G1 Z-5.000 F400
G1 X287.554 Y67.860 F800
G0 Z5.000
G0 X291.683 Y71.060 Z5.000
G1 Z-5.000 F400
G1 X310.001 Y71.060 F800
G0 Z5.000
G0 X291.474 Y39.060 Z5.000
G1 Z-7.000 F400
G1 X310.210 Y39.060 F800
G0 Z5.000
G0 X314.242 Y42.260 Z5.000
G1 Z-7.000 F400
G1 X287.442 Y42.260 F800
G0 Z5.000
G0 X43.516 Y45.460 Z5.000
G1 Z-7.000 F400
G1 X228.068 Y45.460 F800
G0 Z5.000
G0 X285.005 Y45.460 Z5.000
G1 Z-7.000 F400
G1 X316.679 Y45.460 F800
G0 Z5.000
G0 X372.086 Y45.460 Z5.000
G1 Z-7.000 F400
G1 X511.638 Y45.460 F800
G0 Z5.000
G0 X514.545 Y48.660 Z5.000
G1 Z-7.000 F400
G1 X369.178 Y48.660 F800
G0 Z5.000
G0 X318.209 Y48.660 Z5.000
G1 Z-7.000 F400
G1 X283.475 Y48.660 F800
G0 Z5.000
G0 X230.975 Y48.660 Z5.000
G1 Z-7.000 F400
G1 X40.609 Y48.660 F800
G0 Z5.000
G0 X39.214 Y51.860 Z5.000
G1 Z-7.000 F400
G1 X232.370 Y51.860 F800
G0 Z5.000
G0 X282.618 Y51.860 Z5.000
G1 Z-7.000 F400
G1 X319.066 Y51.860 F800
G0 Z5.000
G0 X367.783 Y51.860 Z5.000
G1 Z-7.000 F400
G1 X515.940 Y51.860 F800
G0 Z5.000
G0 X516.357 Y55.060 Z5.000
G1 Z-7.000 F400
G1 X367.367 Y55.060 F800
G0 Z5.000
G0 X341.337 Y55.060 Z5.000
G1 Z-7.000 F400
G1 X340.347 Y55.060 F800
G0 Z5.000
G0 X319.330 Y55.060 Z5.000
G1 Z-7.000 F400
G1 X282.354 Y55.060 F800
G0 Z5.000
G0 X261.337 Y55.060 Z5.000
G1 Z-7.000 F400
G1 X260.347 Y55.060 F800
G0 Z5.000
G0 X232.787 Y55.060 Z5.000
G1 Z-7.000 F400
G1 X38.797 Y55.060 F800
G0 Z5.000
G0 X39.245 Y58.260 Z5.000
G1 Z-7.000 F400
G1 X232.339 Y58.260 F800
G0 Z5.000
G0 X282.639 Y58.260 Z5.000
G1 Z-7.000 F400
G1 X319.045 Y58.260 F800
G0 Z5.000
G0 X367.815 Y58.260 Z5.000
G1 Z-7.000 F400
G1 X515.909 Y58.260 F800
G0 Z5.000
G0 X514.471 Y61.460 Z5.000
G1 Z-7.000 F400
G1 X369.252 Y61.460 F800
G0 Z5.000
G0 X318.165 Y61.460 Z5.000
G1 Z-7.000 F400
G1 X283.519 Y61.460 F800
G0 Z5.000
G0 X230.902 Y61.460 Z5.000
G1 Z-7.000 F400
G1 X40.683 Y61.460 F800
G0 Z5.000
G0 X43.680 Y64.660 Z5.000
G1 Z-7.000 F400
G1 X227.904 Y64.660 F800
G0 Z5.000
G0 X285.078 Y64.660 Z5.000
G1 Z-7.000 F400
G1 X316.606 Y64.660 F800
G0 Z5.000
G0 X372.250 Y64.660 Z5.000
G1 Z-7.000 F400
G1 X511.474 Y64.660 F800
G0 Z5.000
G0 X314.130 Y67.860 Z5.000
G1 Z-7.000 F400
G1 X287.554 Y67.860 F800
G0 Z5.000
G0 X291.683 Y71.060 Z5.000
G1 Z-7.000 F400
G1 X310.001 Y71.060 F800
G0 Z5.000
G0 X291.474 Y39.060 Z5.000
G1 Z-9.000 F400
G1 X310.210 Y39.060 F800
G0 Z5.000
G0 X314.242 Y42.260 Z5.000
G1 Z-9.000 F400
G1 X287.442 Y42.260 F800
G0 Z5.000
G0 X43.516 Y45.460 Z5.000
G1 Z-9.000 F400
G1 X228.068 Y45.460 F800
G0 Z5.000
G0 X285.005 Y45.460 Z5.000
G1 Z-9.000 F400
G1 X316.679 Y45.460 F800
G0 Z5.000
G0 X372.086 Y45.460 Z5.000
G1 Z-9.000 F400
G1 X511.638 Y45.460 F800
G0 Z5.000
G0 X514.545 Y48.660 Z5.000
G1 Z-9.000 F400
G1 X369.178 Y48.660 F800
G0 Z5.000
G0 X318.209 Y48.660 Z5.000
G1 Z-9.000 F400
G1 X283.475 Y48.660 F800
G0 Z5.000
G0 X230.975 Y48.660 Z5.000
G1 Z-9.000 F400
G1 X40.609 Y48.660 F800
G0 Z5.000
G0 X39.214 Y51.860 Z5.000
G1 Z-9.000 F400
G1 X232.370 Y51.860 F800
G0 Z5.000
G0 X282.618 Y51.860 Z5.000
G1 Z-9.000 F400
G1 X319.066 Y51.860 F800
G0 Z5.000
G0 X367.783 Y51.860 Z5.000
G1 Z-9.000 F400
G1 X515.940 Y51.860 F800
G0 Z5.000
G0 X516.357 Y55.060 Z5.000
G1 Z-9.000 F400
G1 X367.367 Y55.060 F800
G0 Z5.000
G0 X341.337 Y55.060 Z5.000
G1 Z-9.000 F400
G1 X340.347 Y55.060 F800
G0 Z5.000
G0 X319.330 Y55.060 Z5.000
G1 Z-9.000 F400
G1 X282.354 Y55.060 F800
G0 Z5.000
G0 X261.337 Y55.060 Z5.000
G1 Z-9.000 F400
G1 X260.347 Y55.060 F800
G0 Z5.000
G0 X232.787 Y55.060 Z5.000
G1 Z-9.000 F400
G1 X38.797 Y55.060 F800
G0 Z5.000
G0 X39.245 Y58.260 Z5.000
G1 Z-9.000 F400
G1 X232.339 Y58.260 F800
G0 Z5.000
G0 X282.639 Y58.260 Z5.000
G1 Z-9.000 F400
G1 X319.045 Y58.260 F800
G0 Z5.000
G0 X367.815 Y58.260 Z5.000
G1 Z-9.000 F400
G1 X515.909 Y58.260 F800
G0 Z5.000
G0 X514.471 Y61.460 Z5.000
G1 Z-9.000 F400
G1 X369.252 Y61.460 F800
G0 Z5.000
G0 X318.165 Y61.460 Z5.000
G1 Z-9.000 F400
G1 X283.519 Y61.460 F800
G0 Z5.000
G0 X230.902 Y61.460 Z5.000
G1 Z-9.000 F400
G1 X40.683 Y61.460 F800
G0 Z5.000
G0 X43.680 Y64.660 Z5.000
G1 Z-9.000 F400
G1 X227.904 Y64.660 F800
G0 Z5.000
G0 X285.078 Y64.660 Z5.000
G1 Z-9.000 F400
G1 X316.606 Y64.660 F800
G0 Z5.000
G0 X372.250 Y64.660 Z5.000
G1 Z-9.000 F400
G1 X511.474 Y64.660 F800
G0 Z5.000
G0 X314.130 Y67.860 Z5.000
G1 Z-9.000 F400
G1 X287.554 Y67.860 F800
G0 Z5.000
G0 X291.683 Y71.060 Z5.000
G1 Z-9.000 F400
G1 X310.001 Y71.060 F800
G0 Z5.000
G0 X291.474 Y39.060 Z5.000
G1 Z-11.000 F400
G1 X310.210 Y39.060 F800
G0 Z5.000
G0 X314.242 Y42.260 Z5.000
G1 Z-11.000 F400
G1 X287.442 Y42.260 F800
G0 Z5.000
G0 X43.516 Y45.460 Z5.000
G1 Z-11.000 F400
G1 X228.068 Y45.460 F800
G0 Z5.000
G0 X285.005 Y45.460 Z5.000
G1 Z-11.000 F400
G1 X316.679 Y45.460 F800
G0 Z5.000
G0 X372.086 Y45.460 Z5.000
G1 Z-11.000 F400
G1 X511.638 Y45.460 F800
G0 Z5.000
G0 X514.545 Y48.660 Z5.000
G1 Z-11.000 F400
G1 X369.178 Y48.660 F800
G0 Z5.000
G0 X318.209 Y48.660 Z5.000
G1 Z-11.000 F400
G1 X283.475 Y48.660 F800
G0 Z5.000
G0 X230.975 Y48.660 Z5.000
G1 Z-11.000 F400
G1 X40.609 Y48.660 F800
G0 Z5.000
G0 X39.214 Y51.860 Z5.000
G1 Z-11.000 F400
G1 X232.370 Y51.860 F800
G0 Z5.000
G0 X282.618 Y51.860 Z5.000
G1 Z-11.000 F400
G1 X319.066 Y51.860 F800
G0 Z5.000
G0 X367.783 Y51.860 Z5.000
G1 Z-11.000 F400
G1 X515.940 Y51.860 F800
G0 Z5.000
G0 X516.357 Y55.060 Z5.000
G1 Z-11.000 F400
G1 X367.367 Y55.060 F800
G0 Z5.000
G0 X341.337 Y55.060 Z5.000
G1 Z-11.000 F400
G1 X340.347 Y55.060 F800
G0 Z5.000
G0 X319.330 Y55.060 Z5.000
G1 Z-11.000 F400
G1 X282.354 Y55.060 F800
G0 Z5.000
G0 X261.337 Y55.060 Z5.000
G1 Z-11.000 F400
G1 X260.347 Y55.060 F800
G0 Z5.000
G0 X232.787 Y55.060 Z5.000
G1 Z-11.000 F400
G1 X38.797 Y55.060 F800
G0 Z5.000
G0 X39.245 Y58.260 Z5.000
G1 Z-11.000 F400
G1 X232.339 Y58.260 F800
G0 Z5.000
G0 X282.639 Y58.260 Z5.000
G1 Z-11.000 F400
G1 X319.045 Y58.260 F800
G0 Z5.000
G0 X367.815 Y58.260 Z5.000
G1 Z-11.000 F400
G1 X515.909 Y58.260 F800
G0 Z5.000
G0 X514.471 Y61.460 Z5.000
G1 Z-11.000 F400
G1 X369.252 Y61.460 F800
G0 Z5.000
G0 X318.165 Y61.460 Z5.000
G1 Z-11.000 F400
G1 X283.519 Y61.460 F800
G0 Z5.000
G0 X230.902 Y61.460 Z5.000
G1 Z-11.000 F400
G1 X40.683 Y61.460 F800
G0 Z5.000
G0 X43.680 Y64.660 Z5.000
G1 Z-11.000 F400
G1 X227.904 Y64.660 F800
G0 Z5.000
G0 X285.078 Y64.660 Z5.000
G1 Z-11.000 F400
G1 X316.606 Y64.660 F800
G0 Z5.000
G0 X372.250 Y64.660 Z5.000
G1 Z-11.000 F400
G1 X511.474 Y64.660 F800
G0 Z5.000
G0 X314.130 Y67.860 Z5.000
G1 Z-11.000 F400
G1 X287.554 Y67.860 F800
G0 Z5.000
G0 X291.683 Y71.060 Z5.000
G1 Z-11.000 F400
G1 X310.001 Y71.060 F800
G0 Z5.000
G0 X277.357 Y20.060 Z5.000
G1 Z-13.000 F400
G1 X284.327 Y20.060 F800
G0 Z5.000
G0 X317.357 Y20.060 Z5.000
G1 Z-13.000 F400
G1 X324.327 Y20.060 F800
G0 Z5.000
G0 X322.797 Y23.260 Z5.000
G1 Z-13.000 F400
G1 X318.887 Y23.260 F800
G0 Z5.000
G0 X282.797 Y23.260 Z5.000
G1 Z-13.000 F400
G1 X278.887 Y23.260 F800
G0 Z5.000
G0 X291.135 Y39.260 Z5.000
G1 Z-13.000 F400
G1 X310.549 Y39.260 F800
G0 Z5.000
G0 X314.428 Y42.460 Z5.000
G1 Z-13.000 F400
G1 X287.256 Y42.460 F800
G0 Z5.000
G0 X43.265 Y45.660 Z5.000
G1 Z-13.000 F400
G1 X228.319 Y45.660 F800
G0 Z5.000
G0 X284.882 Y45.660 Z5.000
G1 Z-13.000 F400
G1 X316.801 Y45.660 F800
G0 Z5.000
G0 X371.835 Y45.660 Z5.000
G1 Z-13.000 F400
G1 X511.889 Y45.660 F800
G0 Z5.000
G0 X514.667 Y48.860 Z5.000
G1 Z-13.000 F400
G1 X369.056 Y48.860 F800
G0 Z5.000
G0 X318.282 Y48.860 Z5.000
G1 Z-13.000 F400
G1 X283.402 Y48.860 F800
G0 Z5.000
G0 X231.098 Y48.860 Z5.000
G1 Z-13.000 F400
G1 X40.487 Y48.860 F800
G0 Z5.000
G0 X39.163 Y52.060 Z5.000
G1 Z-13.000 F400
G1 X232.421 Y52.060 F800
G0 Z5.000
G0 X258.947 Y52.060 Z5.000
G1 Z-13.000 F400
G1 X262.737 Y52.060 F800
G0 Z5.000
G0 X282.588 Y52.060 Z5.000
G1 Z-13.000 F400
G1 X319.096 Y52.060 F800
G0 Z5.000
G0 X338.947 Y52.060 Z5.000
G1 Z-13.000 F400
G1 X342.737 Y52.060 F800
G0 Z5.000
G0 X367.732 Y52.060 Z5.000
G1 Z-13.000 F400
G1 X515.991 Y52.060 F800
G0 Z5.000
G0 X516.357 Y55.260 Z5.000
G1 Z-13.000 F400
G1 X367.367 Y55.260 F800
G0 Z5.000
G0 X344.331 Y55.260 Z5.000
G1 Z-13.000 F400
G1 X337.353 Y55.260 F800
G0 Z5.000
G0 X319.330 Y55.260 Z5.000
G1 Z-13.000 F400
G1 X282.354 Y55.260 F800
G0 Z5.000
G0 X264.331 Y55.260 Z5.000
G1 Z-13.000 F400
G1 X257.353 Y55.260 F800
G0 Z5.000
G0 X232.787 Y55.260 Z5.000
G1 Z-13.000 F400
G1 X38.797 Y55.260 F800
G0 Z5.000
G0 X39.307 Y58.460 Z5.000
G1 Z-13.000 F400
G1 X232.278 Y58.460 F800
G0 Z5.000
G0 X260.325 Y58.460 Z5.000
G1 Z-13.000 F400
G1 X261.359 Y58.460 F800
G0 Z5.000
G0 X282.679 Y58.460 Z5.000
G1 Z-13.000 F400
G1 X319.005 Y58.460 F800
G0 Z5.000
G0 X340.325 Y58.460 Z5.000
G1 Z-13.000 F400
G1 X341.359 Y58.460 F800
G0 Z5.000
G0 X367.876 Y58.460 Z5.000
G1 Z-13.000 F400
G1 X515.847 Y58.460 F800
G0 Z5.000
G0 X514.338 Y61.660 Z5.000
G1 Z-13.000 F400
G1 X369.385 Y61.660 F800
G0 Z5.000
G0 X318.093 Y61.660 Z5.000
G1 Z-13.000 F400
G1 X283.591 Y61.660 F800
G0 Z5.000
G0 X230.769 Y61.660 Z5.000
G1 Z-13.000 F400
G1 X40.815 Y61.660 F800
G0 Z5.000
G0 X43.958 Y64.860 Z5.000
G1 Z-13.000 F400
G1 X227.626 Y64.860 F800
G0 Z5.000
G0 X285.200 Y64.860 Z5.000
G1 Z-13.000 F400
G1 X316.483 Y64.860 F800
G0 Z5.000
G0 X372.528 Y64.860 Z5.000
G1 Z-13.000 F400
G1 X511.195 Y64.860 F800
G0 Z5.000
G0 X313.930 Y68.060 Z5.000
G1 Z-13.000 F400
G1 X287.754 Y68.060 F800
G0 Z5.000
G0 X292.033 Y71.260 Z5.000
G1 Z-13.000 F400
G1 X309.651 Y71.260 F800
G0 Z5.000
G0 X323.404 Y87.260 Z5.000
G1 Z-13.000 F400
G1 X318.280 Y87.260 F800
G0 Z5.000
G0 X283.404 Y87.260 Z5.000
G1 Z-13.000 F400
G1 X278.280 Y87.260 F800
G0 Z5.000
G0 X277.441 Y90.460 Z5.000
G1 Z-13.000 F400
G1 X284.243 Y90.460 F800
G0 Z5.000
G0 X317.441 Y90.460 Z5.000
G1 Z-13.000 F400
G1 X324.243 Y90.460 F800
G0 Z5.000
G0 X277.357 Y20.060 Z5.000
G1 Z-15.000 F400
G1 X284.327 Y20.060 F800
G0 Z5.000
G0 X317.357 Y20.060 Z5.000
G1 Z-15.000 F400
G1 X324.327 Y20.060 F800
G0 Z5.000
G0 X322.797 Y23.260 Z5.000
G1 Z-15.000 F400
G1 X318.887 Y23.260 F800
G0 Z5.000
G0 X282.797 Y23.260 Z5.000
G1 Z-15.000 F400
G1 X278.887 Y23.260 F800
G0 Z5.000
G0 X291.135 Y39.260 Z5.000
G1 Z-15.000 F400
G1 X310.549 Y39.260 F800
G0 Z5.000
G0 X314.428 Y42.460 Z5.000
G1 Z-15.000 F400
G1 X287.256 Y42.460 F800
G0 Z5.000
G0 X43.265 Y45.660 Z5.000
G1 Z-15.000 F400
G1 X228.319 Y45.660 F800
G0 Z5.000
G0 X284.882 Y45.660 Z5.000
G1 Z-15.000 F400
G1 X316.801 Y45.660 F800
G0 Z5.000
G0 X371.835 Y45.660 Z5.000
G1 Z-15.000 F400
G1 X511.889 Y45.660 F800
G0 Z5.000
G0 X514.667 Y48.860 Z5.000
G1 Z-15.000 F400
G1 X369.056 Y48.860 F800
G0 Z5.000
G0 X318.282 Y48.860 Z5.000
G1 Z-15.000 F400
G1 X283.402 Y48.860 F800
G0 Z5.000
G0 X231.098 Y48.860 Z5.000
G1 Z-15.000 F400
G1 X40.487 Y48.860 F800
G0 Z5.000
G0 X39.163 Y52.060 Z5.000
G1 Z-15.000 F400
G1 X232.421 Y52.060 F800
G0 Z5.000
G0 X258.947 Y52.060 Z5.000
G1 Z-15.000 F400
G1 X262.737 Y52.060 F800
G0 Z5.000
G0 X282.588 Y52.060 Z5.000
G1 Z-15.000 F400
G1 X319.096 Y52.060 F800
G0 Z5.000
G0 X338.947 Y52.060 Z5.000
G1 Z-15.000 F400
G1 X342.737 Y52.060 F800
G0 Z5.000
G0 X367.732 Y52.060 Z5.000
G1 Z-15.000 F400
G1 X515.991 Y52.060 F800
G0 Z5.000
G0 X516.357 Y55.260 Z5.000
G1 Z-15.000 F400
G1 X367.367 Y55.260 F800
G0 Z5.000
G0 X344.331 Y55.260 Z5.000
G1 Z-15.000 F400
G1 X337.353 Y55.260 F800
G0 Z5.000
G0 X319.330 Y55.260 Z5.000
G1 Z-15.000 F400
G1 X282.354 Y55.260 F800
G0 Z5.000
G0 X264.331 Y55.260 Z5.000
G1 Z-15.000 F400
G1 X257.353 Y55.260 F800
G0 Z5.000
G0 X232.787 Y55.260 Z5.000
G1 Z-15.000 F400
G1 X38.797 Y55.260 F800
G0 Z5.000
G0 X39.307 Y58.460 Z5.000
G1 Z-15.000 F400
G1 X232.278 Y58.460 F800
G0 Z5.000
G0 X260.325 Y58.460 Z5.000
G1 Z-15.000 F400
G1 X261.359 Y58.460 F800
G0 Z5.000
G0 X282.679 Y58.460 Z5.000
G1 Z-15.000 F400
G1 X319.005 Y58.460 F800
G0 Z5.000
G0 X340.325 Y58.460 Z5.000
G1 Z-15.000 F400
G1 X341.359 Y58.460 F800
G0 Z5.000
G0 X367.876 Y58.460 Z5.000
G1 Z-15.000 F400
G1 X515.847 Y58.460 F800
G0 Z5.000
G0 X514.338 Y61.660 Z5.000
G1 Z-15.000 F400
G1 X369.385 Y61.660 F800
G0 Z5.000
G0 X318.093 Y61.660 Z5.000
G1 Z-15.000 F400
G1 X283.591 Y61.660 F800
G0 Z5.000
G0 X230.769 Y61.660 Z5.000
G1 Z-15.000 F400
G1 X40.815 Y61.660 F800
G0 Z5.000
G0 X43.958 Y64.860 Z5.000
G1 Z-15.000 F400
G1 X227.626 Y64.860 F800
G0 Z5.000
G0 X285.200 Y64.860 Z5.000
G1 Z-15.000 F400
G1 X316.483 Y64.860 F800
G0 Z5.000
G0 X372.528 Y64.860 Z5.000
G1 Z-15.000 F400
G1 X511.195 Y64.860 F800
G0 Z5.000
G0 X313.930 Y68.060 Z5.000
G1 Z-15.000 F400
G1 X287.754 Y68.060 F800
G0 Z5.000
G0 X292.033 Y71.260 Z5.000
G1 Z-15.000 F400
G1 X309.651 Y71.260 F800
G0 Z5.000
G0 X323.404 Y87.260 Z5.000
G1 Z-15.000 F400
G1 X318.280 Y87.260 F800
G0 Z5.000
G0 X283.404 Y87.260 Z5.000
G1 Z-15.000 F400
G1 X278.280 Y87.260 F800
G0 Z5.000
G0 X277.441 Y90.460 Z5.000
G1 Z-15.000 F400
G1 X284.243 Y90.460 F800
G0 Z5.000
G0 X317.441 Y90.460 Z5.000
G1 Z-15.000 F400
G1 X324.243 Y90.460 F800
G0 Z5.000
G0 X277.357 Y20.060 Z5.000
G1 Z-17.000 F400
G1 X284.327 Y20.060 F800
G0 Z5.000
G0 X317.357 Y20.060 Z5.000
G1 Z-17.000 F400
G1 X324.327 Y20.060 F800
G0 Z5.000
G0 X322.797 Y23.260 Z5.000
G1 Z-17.000 F400
G1 X318.887 Y23.260 F800
G0 Z5.000
G0 X282.797 Y23.260 Z5.000
G1 Z-17.000 F400
G1 X278.887 Y23.260 F800
G0 Z5.000
G0 X291.135 Y39.260 Z5.000
G1 Z-17.000 F400
G1 X310.549 Y39.260 F800
G0 Z5.000
G0 X314.428 Y42.460 Z5.000
G1 Z-17.000 F400
G1 X287.256 Y42.460 F800
G0 Z5.000
G0 X43.265 Y45.660 Z5.000
G1 Z-17.000 F400
G1 X228.319 Y45.660 F800
G0 Z5.000
G0 X284.882 Y45.660 Z5.000
G1 Z-17.000 F400
G1 X316.801 Y45.660 F800
G0 Z5.000
G0 X371.835 Y45.660 Z5.000
G1 Z-17.000 F400
G1 X511.889 Y45.660 F800
G0 Z5.000
G0 X514.667 Y48.860 Z5.000
G1 Z-17.000 F400
G1 X369.056 Y48.860 F800
G0 Z5.000
G0 X318.282 Y48.860 Z5.000
G1 Z-17.000 F400
G1 X283.402 Y48.860 F800
G0 Z5.000
G0 X231.098 Y48.860 Z5.000
G1 Z-17.000 F400
G1 X40.487 Y48.860 F800
G0 Z5.000
G0 X39.163 Y52.060 Z5.000
G1 Z-17.000 F400
G1 X232.421 Y52.060 F800
G0 Z5.000
G0 X258.947 Y52.060 Z5.000
G1 Z-17.000 F400
G1 X262.737 Y52.060 F800
G0 Z5.000
G0 X282.588 Y52.060 Z5.000
G1 Z-17.000 F400
G1 X319.096 Y52.060 F800
G0 Z5.000
G0 X338.947 Y52.060 Z5.000
G1 Z-17.000 F400
G1 X342.737 Y52.060 F800
G0 Z5.000
G0 X367.732 Y52.060 Z5.000
G1 Z-17.000 F400
G1 X515.991 Y52.060 F800
G0 Z5.000
G0 X516.357 Y55.260 Z5.000
G1 Z-17.000 F400
G1 X367.367 Y55.260 F800
G0 Z5.000
G0 X344.331 Y55.260 Z5.000
G1 Z-17.000 F400
G1 X337.353 Y55.260 F800
G0 Z5.000
G0 X319.330 Y55.260 Z5.000
G1 Z-17.000 F400
G1 X282.354 Y55.260 F800
G0 Z5.000
G0 X264.331 Y55.260 Z5.000
G1 Z-17.000 F400
G1 X257.353 Y55.260 F800
G0 Z5.000
G0 X232.787 Y55.260 Z5.000
G1 Z-17.000 F400
G1 X38.797 Y55.260 F800
G0 Z5.000
G0 X39.307 Y58.460 Z5.000
G1 Z-17.000 F400
G1 X232.278 Y58.460 F800
G0 Z5.000
G0 X260.325 Y58.460 Z5.000
G1 Z-17.000 F400
G1 X261.359 Y58.460 F800
G0 Z5.000
G0 X282.679 Y58.460 Z5.000
G1 Z-17.000 F400
G1 X319.005 Y58.460 F800
G0 Z5.000
G0 X340.325 Y58.460 Z5.000
G1 Z-17.000 F400
G1 X341.359 Y58.460 F800
G0 Z5.000
G0 X367.876 Y58.460 Z5.000
G1 Z-17.000 F400
G1 X515.847 Y58.460 F800
G0 Z5.000
G0 X514.338 Y61.660 Z5.000
G1 Z-17.000 F400
G1 X369.385 Y61.660 F800
G0 Z5.000
G0 X318.093 Y61.660 Z5.000
G1 Z-17.000 F400
G1 X283.591 Y61.660 F800
G0 Z5.000
G0 X230.769 Y61.660 Z5.000
G1 Z-17.000 F400
G1 X40.815 Y61.660 F800
G0 Z5.000
G0 X43.958 Y64.860 Z5.000
G1 Z-17.000 F400
G1 X227.626 Y64.860 F800
G0 Z5.000
G0 X285.200 Y64.860 Z5.000
G1 Z-17.000 F400
G1 X316.483 Y64.860 F800
G0 Z5.000
G0 X372.528 Y64.860 Z5.000
G1 Z-17.000 F400
G1 X511.195 Y64.860 F800
G0 Z5.000
G0 X313.930 Y68.060 Z5.000
G1 Z-17.000 F400
G1 X287.754 Y68.060 F800
G0 Z5.000
G0 X292.033 Y71.260 Z5.000
G1 Z-17.000 F400
G1 X309.651 Y71.260 F800
G0 Z5.000
G0 X323.404 Y87.260 Z5.000
G1 Z-17.000 F400
G1 X318.280 Y87.260 F800
G0 Z5.000
G0 X283.404 Y87.260 Z5.000
G1 Z-17.000 F400
G1 X278.280 Y87.260 F800
G0 Z5.000
G0 X277.441 Y90.460 Z5.000
G1 Z-17.000 F400
G1 X284.243 Y90.460 F800
G0 Z5.000
G0 X317.441 Y90.460 Z5.000
G1 Z-17.000 F400
G1 X324.243 Y90.460 F800
G0 Z5.000
G0 X277.357 Y20.060 Z5.000
G1 Z-19.000 F400
G1 X284.327 Y20.060 F800
G0 Z5.000
G0 X317.357 Y20.060 Z5.000
G1 Z-19.000 F400
G1 X324.327 Y20.060 F800
G0 Z5.000
G0 X322.797 Y23.260 Z5.000
G1 Z-19.000 F400
G1 X318.887 Y23.260 F800
G0 Z5.000
G0 X282.797 Y23.260 Z5.000
G1 Z-19.000 F400
G1 X278.887 Y23.260 F800
G0 Z5.000
G0 X291.135 Y39.260 Z5.000
G1 Z-19.000 F400
G1 X310.549 Y39.260 F800
G0 Z5.000
G0 X314.428 Y42.460 Z5.000
G1 Z-19.000 F400
G1 X287.256 Y42.460 F800
G0 Z5.000
G0 X43.267 Y45.660 Z5.000
G1 Z-19.000 F400
G1 X228.319 Y45.660 F800
G0 Z5.000
G0 X284.882 Y45.660 Z5.000
G1 Z-19.000 F400
G1 X316.801 Y45.660 F800
G0 Z5.000
G0 X371.837 Y45.660 Z5.000
G1 Z-19.000 F400
G1 X511.889 Y45.660 F800
G0 Z5.000
G0 X514.667 Y48.860 Z5.000
G1 Z-19.000 F400
G1 X369.056 Y48.860 F800
G0 Z5.000
G0 X318.282 Y48.860 Z5.000
G1 Z-19.000 F400
G1 X283.402 Y48.860 F800
G0 Z5.000
G0 X231.098 Y48.860 Z5.000
G1 Z-19.000 F400
G1 X40.487 Y48.860 F800
G0 Z5.000
G0 X39.163 Y52.060 Z5.000
G1 Z-19.000 F400
G1 X232.421 Y52.060 F800
G0 Z5.000
G0 X258.947 Y52.060 Z5.000
G1 Z-19.000 F400
G1 X262.737 Y52.060 F800
G0 Z5.000
G0 X282.588 Y52.060 Z5.000
G1 Z-19.000 F400
G1 X319.096 Y52.060 F800
G0 Z5.000
G0 X338.947 Y52.060 Z5.000
G1 Z-19.000 F400
G1 X342.737 Y52.060 F800
G0 Z5.000
G0 X367.732 Y52.060 Z5.000
G1 Z-19.000 F400
G1 X515.991 Y52.060 F800
G0 Z5.000
G0 X516.357 Y55.260 Z5.000
G1 Z-19.000 F400
G1 X367.367 Y55.260 F800
G0 Z5.000
G0 X344.331 Y55.260 Z5.000
G1 Z-19.000 F400
G1 X337.353 Y55.260 F800
G0 Z5.000
G0 X319.330 Y55.260 Z5.000
G1 Z-19.000 F400
G1 X282.354 Y55.260 F800
G0 Z5.000
G0 X264.331 Y55.260 Z5.000
G1 Z-19.000 F400
G1 X257.353 Y55.260 F800
G0 Z5.000
G0 X232.787 Y55.260 Z5.000
G1 Z-19.000 F400
G1 X38.797 Y55.260 F800
G0 Z5.000
G0 X39.307 Y58.460 Z5.000
G1 Z-19.000 F400
G1 X232.278 Y58.460 F800
G0 Z5.000
G0 X260.325 Y58.460 Z5.000
G1 Z-19.000 F400
G1 X261.359 Y58.460 F800
G0 Z5.000
G0 X282.679 Y58.460 Z5.000
G1 Z-19.000 F400
G1 X319.005 Y58.460 F800
G0 Z5.000
G0 X340.325 Y58.460 Z5.000
G1 Z-19.000 F400
G1 X341.359 Y58.460 F800
G0 Z5.000
G0 X367.876 Y58.460 Z5.000
G1 Z-19.000 F400
G1 X515.847 Y58.460 F800
G0 Z5.000
G0 X514.338 Y61.660 Z5.000
G1 Z-19.000 F400
G1 X369.385 Y61.660 F800
G0 Z5.000
G0 X318.093 Y61.660 Z5.000
G1 Z-19.000 F400
G1 X283.591 Y61.660 F800
G0 Z5.000
G0 X230.769 Y61.660 Z5.000
G1 Z-19.000 F400
G1 X40.815 Y61.660 F800
G0 Z5.000
G0 X43.958 Y64.860 Z5.000
G1 Z-19.000 F400
G1 X227.626 Y64.860 F800
G0 Z5.000
G0 X285.200 Y64.860 Z5.000
G1 Z-19.000 F400
G1 X316.483 Y64.860 F800
G0 Z5.000
G0 X372.528 Y64.860 Z5.000
G1 Z-19.000 F400
G1 X511.195 Y64.860 F800
G0 Z5.000
G0 X313.930 Y68.060 Z5.000
G1 Z-19.000 F400
G1 X287.754 Y68.060 F800
G0 Z5.000
G0 X292.033 Y71.260 Z5.000
G1 Z-19.000 F400
G1 X309.651 Y71.260 F800
G0 Z5.000
G0 X323.404 Y87.260 Z5.000
G1 Z-19.000 F400
G1 X318.280 Y87.260 F800
G0 Z5.000
G0 X283.404 Y87.260 Z5.000
G1 Z-19.000 F400
G1 X278.280 Y87.260 F800
G0 Z5.000
G0 X277.441 Y90.460 Z5.000
G1 Z-19.000 F400
G1 X284.243 Y90.460 F800
G0 Z5.000
G0 X317.441 Y90.460 Z5.000
G1 Z-19.000 F400
G1 X324.243 Y90.460 F800
G0 Z5.000
G0 X1.000 Y1.000 Z5.000
G1 Z-20.000 F400
G1 X555.350 Y1.000 F800
G0 Z5.000
G0 X555.350 Y4.200 Z5.000
G1 Z-20.000 F400
G1 X1.000 Y4.200 F800
G0 Z5.000
G0 X1.000 Y7.400 Z5.000
G1 Z-20.000 F400
G1 X555.350 Y7.400 F800
G0 Z5.000
G0 X555.350 Y10.600 Z5.000
G1 Z-20.000 F400
G1 X1.000 Y10.600 F800
G0 Z5.000
G0 X1.000 Y13.800 Z5.000
G1 Z-20.000 F400
G1 X555.350 Y13.800 F800
G0 Z5.000
G0 X555.350 Y17.000 Z5.000
G1 Z-20.000 F400
G1 X1.000 Y17.000 F800
G0 Z5.000
G0 X1.000 Y20.200 Z5.000
G1 Z-20.000 F400
G1 X555.350 Y20.200 F800
G0 Z5.000
G0 X555.350 Y23.400 Z5.000
G1 Z-20.000 F400
G1 X1.000 Y23.400 F800
G0 Z5.000
G0 X1.000 Y26.600 Z5.000
G1 Z-20.000 F400
G1 X555.350 Y26.600 F800
G0 Z5.000
G0 X555.350 Y29.800 Z5.000
G1 Z-20.000 F400
G1 X1.000 Y29.800 F800
G0 Z5.000
G0 X1.000 Y33.000 Z5.000
G1 Z-20.000 F400
G1 X555.350 Y33.000 F800
G0 Z5.000
G0 X555.350 Y36.200 Z5.000
G1 Z-20.000 F400
G1 X1.000 Y36.200 F800
G0 Z5.000
G0 X1.000 Y39.400 Z5.000
G1 Z-20.000 F400
G1 X555.350 Y39.400 F800
G0 Z5.000
G0 X555.350 Y42.600 Z5.000
G1 Z-20.000 F400
G1 X1.000 Y42.600 F800
G0 Z5.000
G0 X1.000 Y45.800 Z5.000
G1 Z-20.000 F400
G1 X555.350 Y45.800 F800
G0 Z5.000
G0 X555.350 Y49.000 Z5.000
G1 Z-20.000 F400
G1 X1.000 Y49.000 F800
G0 Z5.000
G0 X1.000 Y52.200 Z5.000
G1 Z-20.000 F400
G1 X555.350 Y52.200 F800
G0 Z5.000
G0 X555.350 Y55.400 Z5.000
G1 Z-20.000 F400
G1 X1.000 Y55.400 F800
G0 Z5.000
G0 X1.000 Y58.600 Z5.000
G1 Z-20.000 F400
G1 X555.350 Y58.600 F800
G0 Z5.000
G0 X555.350 Y61.800 Z5.000
G1 Z-20.000 F400
G1 X1.000 Y61.800 F800
G0 Z5.000
G0 X1.000 Y65.000 Z5.000
G1 Z-20.000 F400
G1 X555.350 Y65.000 F800
G0 Z5.000
G0 X555.350 Y68.200 Z5.000
G1 Z-20.000 F400
G1 X1.000 Y68.200 F800
G0 Z5.000
G0 X1.000 Y71.400 Z5.000
G1 Z-20.000 F400
G1 X555.350 Y71.400 F800
G0 Z5.000
G0 X555.350 Y74.600 Z5.000
G1 Z-20.000 F400
G1 X1.000 Y74.600 F800
G0 Z5.000
G0 X1.000 Y77.800 Z5.000
G1 Z-20.000 F400
G1 X555.350 Y77.800 F800
G0 Z5.000
G0 X555.350 Y81.000 Z5.000
G1 Z-20.000 F400
G1 X1.000 Y81.000 F800
G0 Z5.000
G0 X1.000 Y84.200 Z5.000
G1 Z-20.000 F400
G1 X555.350 Y84.200 F800
G0 Z5.000
G0 X555.350 Y87.400 Z5.000
G1 Z-20.000 F400
G1 X1.000 Y87.400 F800
G0 Z5.000
G0 X1.000 Y90.600 Z5.000
G1 Z-20.000 F400
G1 X555.350 Y90.600 F800
G0 Z5.000
G0 X555.350 Y93.800 Z5.000
G1 Z-20.000 F400
G1 X1.000 Y93.800 F800
G0 Z5.000
G0 X1.000 Y97.000 Z5.000
G1 Z-20.000 F400
G1 X555.350 Y97.000 F800
G0 Z5.000
G0 X555.350 Y100.200 Z5.000
G1 Z-20.000 F400
G1 X1.000 Y100.200 F800
G0 Z5.000
G0 X1.000 Y103.400 Z5.000
G1 Z-20.000 F400
G1 X555.350 Y103.400 F800
G0 Z5.000
G0 X555.350 Y106.600 Z5.000
G1 Z-20.000 F400
G1 X1.000 Y106.600 F800
G0 Z5.000
G0 X0 Y0
M5
M30
