(Cloud CAM Generated for Job c120e1f2-fd15-4b52-afb9-814f19f75ed3)
(Model: 320.0 x 10.0 x 385.0 mm)
(Params: step_down=2.0 spindle=4000 feed=800.0)
(Strategy: fallback_no_ocl)
G21 (metric)
G90 (absolute)
S4000 M3
G0 Z5.0
G0 X0 Y0 Z5.000
G0 Z-1.000
G1 Z-2.000 F400
G1 X320.000 Y0.000 F800
G1 Y2.400 F800
G1 X0.000 Y2.400 F800
G1 Y4.800 F800
G1 X320.000 Y4.800 F800
G1 Y7.200 F800
G1 X0.000 Y7.200 F800
G1 Y9.600 F800
G1 X320.000 Y9.600 F800
G0 Z5.000
G0 X0 Y0 Z5.000
G0 Z-3.000
G1 Z-4.000 F400
G1 X320.000 Y0.000 F800
G1 Y2.400 F800
G1 X0.000 Y2.400 F800
G1 Y4.800 F800
G1 X320.000 Y4.800 F800
G1 Y7.200 F800
G1 X0.000 Y7.200 F800
G1 Y9.600 F800
G1 X320.000 Y9.600 F800
G0 Z5.000
G0 X0 Y0 Z5.000
G0 Z-5.000
G1 Z-6.000 F400
G1 X320.000 Y0.000 F800
G1 Y2.400 F800
G1 X0.000 Y2.400 F800
G1 Y4.800 F800
G1 X320.000 Y4.800 F800
G1 Y7.200 F800
G1 X0.000 Y7.200 F800
G1 Y9.600 F800
G1 X320.000 Y9.600 F800
G0 Z5.000
G0 X0 Y0 Z5.000
G0 Z-7.000
G1 Z-8.000 F400
G1 X320.000 Y0.000 F800
G1 Y2.400 F800
G1 X0.000 Y2.400 F800
G1 Y4.800 F800
G1 X320.000 Y4.800 F800
G1 Y7.200 F800
G1 X0.000 Y7.200 F800
G1 Y9.600 F800
G1 X320.000 Y9.600 F800
G0 Z5.000
G0 X0 Y0 Z5.000
G0 Z-9.000
G1 Z-10.000 F400
G1 X320.000 Y0.000 F800
G1 Y2.400 F800
G1 X0.000 Y2.400 F800
G1 Y4.800 F800
G1 X320.000 Y4.800 F800
G1 Y7.200 F800
G1 X0.000 Y7.200 F800
G1 Y9.600 F800
G1 X320.000 Y9.600 F800
G0 Z5.000
G0 X0 Y0 Z5.000
G0 Z-11.000
G1 Z-12.000 F400
G1 X320.000 Y0.000 F800
G1 Y2.400 F800
G1 X0.000 Y2.400 F800
G1 Y4.800 F800
G1 X320.000 Y4.800 F800
G1 Y7.200 F800
G1 X0.000 Y7.200 F800
G1 Y9.600 F800
G1 X320.000 Y9.600 F800
G0 Z5.000
G0 X0 Y0 Z5.000
G0 Z-13.000
G1 Z-14.000 F400
G1 X320.000 Y0.000 F800
G1 Y2.400 F800
G1 X0.000 Y2.400 F800
G1 Y4.800 F800
G1 X320.000 Y4.800 F800
G1 Y7.200 F800
G1 X0.000 Y7.200 F800
G1 Y9.600 F800
G1 X320.000 Y9.600 F800
G0 Z5.000
G0 X0 Y0 Z5.000
G0 Z-15.000
G1 Z-16.000 F400
G1 X320.000 Y0.000 F800
G1 Y2.400 F800
G1 X0.000 Y2.400 F800
G1 Y4.800 F800
G1 X320.000 Y4.800 F800
G1 Y7.200 F800
G1 X0.000 Y7.200 F800
G1 Y9.600 F800
G1 X320.000 Y9.600 F800
G0 Z5.000
G0 X0 Y0 Z5.000
G0 Z-17.000
G1 Z-18.000 F400
G1 X320.000 Y0.000 F800
G1 Y2.400 F800
G1 X0.000 Y2.400 F800
G1 Y4.800 F800
G1 X320.000 Y4.800 F800
G1 Y7.200 F800
G1 X0.000 Y7.200 F800
G1 Y9.600 F800
G1 X320.000 Y9.600 F800
G0 Z5.000
G0 X0 Y0 Z5.000
G0 Z-19.000
G1 Z-20.000 F400
G1 X320.000 Y0.000 F800
G1 Y2.400 F800
G1 X0.000 Y2.400 F800
G1 Y4.800 F800
G1 X320.000 Y4.800 F800
G1 Y7.200 F800
G1 X0.000 Y7.200 F800
G1 Y9.600 F800
G1 X320.000 Y9.600 F800
G0 Z5.000
G0 X0 Y0 Z5.000
G0 Z-21.000
G1 Z-22.000 F400
G1 X320.000 Y0.000 F800
G1 Y2.400 F800
G1 X0.000 Y2.400 F800
G1 Y4.800 F800
G1 X320.000 Y4.800 F800
G1 Y7.200 F800
G1 X0.000 Y7.200 F800
G1 Y9.600 F800
G1 X320.000 Y9.600 F800
G0 Z5.000
G0 X0 Y0 Z5.000
G0 Z-23.000
G1 Z-24.000 F400
G1 X320.000 Y0.000 F800
G1 Y2.400 F800
G1 X0.000 Y2.400 F800
G1 Y4.800 F800
G1 X320.000 Y4.800 F800
G1 Y7.200 F800
G1 X0.000 Y7.200 F800
G1 Y9.600 F800
G1 X320.000 Y9.600 F800
G0 Z5.000
G0 X0 Y0 Z5.000
G0 Z-25.000
G1 Z-26.000 F400
G1 X320.000 Y0.000 F800
G1 Y2.400 F800
G1 X0.000 Y2.400 F800
G1 Y4.800 F800
G1 X320.000 Y4.800 F800
G1 Y7.200 F800
G1 X0.000 Y7.200 F800
G1 Y9.600 F800
G1 X320.000 Y9.600 F800
G0 Z5.000
G0 X0 Y0 Z5.000
G0 Z-27.000
G1 Z-28.000 F400
G1 X320.000 Y0.000 F800
G1 Y2.400 F800
G1 X0.000 Y2.400 F800
G1 Y4.800 F800
G1 X320.000 Y4.800 F800
G1 Y7.200 F800
G1 X0.000 Y7.200 F800
G1 Y9.600 F800
G1 X320.000 Y9.600 F800
G0 Z5.000
G0 X0 Y0 Z5.000
G0 Z-29.000
G1 Z-30.000 F400
G1 X320.000 Y0.000 F800
G1 Y2.400 F800
G1 X0.000 Y2.400 F800
G1 Y4.800 F800
G1 X320.000 Y4.800 F800
G1 Y7.200 F800
G1 X0.000 Y7.200 F800
G1 Y9.600 F800
G1 X320.000 Y9.600 F800
G0 Z5.000
G0 X0 Y0 Z5.000
G0 Z-31.000
G1 Z-32.000 F400
G1 X320.000 Y0.000 F800
G1 Y2.400 F800
G1 X0.000 Y2.400 F800
G1 Y4.800 F800
G1 X320.000 Y4.800 F800
G1 Y7.200 F800
G1 X0.000 Y7.200 F800
G1 Y9.600 F800
G1 X320.000 Y9.600 F800
G0 Z5.000
G0 X0 Y0 Z5.000
G0 Z-33.000
G1 Z-34.000 F400
G1 X320.000 Y0.000 F800
G1 Y2.400 F800
G1 X0.000 Y2.400 F800
G1 Y4.800 F800
G1 X320.000 Y4.800 F800
G1 Y7.200 F800
G1 X0.000 Y7.200 F800
G1 Y9.600 F800
G1 X320.000 Y9.600 F800
G0 Z5.000
G0 X0 Y0 Z5.000
G0 Z-35.000
G1 Z-36.000 F400
G1 X320.000 Y0.000 F800
G1 Y2.400 F800
G1 X0.000 Y2.400 F800
G1 Y4.800 F800
G1 X320.000 Y4.800 F800
G1 Y7.200 F800
G1 X0.000 Y7.200 F800
G1 Y9.600 F800
G1 X320.000 Y9.600 F800
G0 Z5.000
G0 X0 Y0 Z5.000
G0 Z-37.000
G1 Z-38.000 F400
G1 X320.000 Y0.000 F800
G1 Y2.400 F800
G1 X0.000 Y2.400 F800
G1 Y4.800 F800
G1 X320.000 Y4.800 F800
G1 Y7.200 F800
G1 X0.000 Y7.200 F800
G1 Y9.600 F800
G1 X320.000 Y9.600 F800
G0 Z5.000
G0 X0 Y0 Z5.000
G0 Z-39.000
G1 Z-40.000 F400
G1 X320.000 Y0.000 F800
G1 Y2.400 F800
G1 X0.000 Y2.400 F800
G1 Y4.800 F800
G1 X320.000 Y4.800 F800
G1 Y7.200 F800
G1 X0.000 Y7.200 F800
G1 Y9.600 F800
G1 X320.000 Y9.600 F800
G0 Z5.000
G0 X0 Y0 Z5.000
G0 Z-41.000
G1 Z-42.000 F400
G1 X320.000 Y0.000 F800
G1 Y2.400 F800
G1 X0.000 Y2.400 F800
G1 Y4.800 F800
G1 X320.000 Y4.800 F800
G1 Y7.200 F800
G1 X0.000 Y7.200 F800
G1 Y9.600 F800
G1 X320.000 Y9.600 F800
G0 Z5.000
G0 X0 Y0 Z5.000
G0 Z-43.000
G1 Z-44.000 F400
G1 X320.000 Y0.000 F800
G1 Y2.400 F800
G1 X0.000 Y2.400 F800
G1 Y4.800 F800
G1 X320.000 Y4.800 F800
G1 Y7.200 F800
G1 X0.000 Y7.200 F800
G1 Y9.600 F800
G1 X320.000 Y9.600 F800
G0 Z5.000
G0 X0 Y0 Z5.000
G0 Z-45.000
G1 Z-46.000 F400
G1 X320.000 Y0.000 F800
G1 Y2.400 F800
G1 X0.000 Y2.400 F800
G1 Y4.800 F800
G1 X320.000 Y4.800 F800
G1 Y7.200 F800
G1 X0.000 Y7.200 F800
G1 Y9.600 F800
G1 X320.000 Y9.600 F800
G0 Z5.000
G0 X0 Y0 Z5.000
G0 Z-47.000
G1 Z-48.000 F400
G1 X320.000 Y0.000 F800
G1 Y2.400 F800
G1 X0.000 Y2.400 F800
G1 Y4.800 F800
G1 X320.000 Y4.800 F800
G1 Y7.200 F800
G1 X0.000 Y7.200 F800
G1 Y9.600 F800
G1 X320.000 Y9.600 F800
G0 Z5.000
G0 X0 Y0 Z5.000
G0 Z-49.000
G1 Z-50.000 F400
G1 X320.000 Y0.000 F800
G1 Y2.400 F800
G1 X0.000 Y2.400 F800
G1 Y4.800 F800
G1 X320.000 Y4.800 F800
G1 Y7.200 F800
G1 X0.000 Y7.200 F800
G1 Y9.600 F800
G1 X320.000 Y9.600 F800
G0 Z5.000
G0 X0 Y0 Z5.000
G0 Z-51.000
G1 Z-52.000 F400
G1 X320.000 Y0.000 F800
G1 Y2.400 F800
G1 X0.000 Y2.400 F800
G1 Y4.800 F800
G1 X320.000 Y4.800 F800
G1 Y7.200 F800
G1 X0.000 Y7.200 F800
G1 Y9.600 F800
G1 X320.000 Y9.600 F800
G0 Z5.000
G0 X0 Y0 Z5.000
G0 Z-53.000
G1 Z-54.000 F400
G1 X320.000 Y0.000 F800
G1 Y2.400 F800
G1 X0.000 Y2.400 F800
G1 Y4.800 F800
G1 X320.000 Y4.800 F800
G1 Y7.200 F800
G1 X0.000 Y7.200 F800
G1 Y9.600 F800
G1 X320.000 Y9.600 F800
G0 Z5.000
G0 X0 Y0 Z5.000
G0 Z-55.000
G1 Z-56.000 F400
G1 X320.000 Y0.000 F800
G1 Y2.400 F800
G1 X0.000 Y2.400 F800
G1 Y4.800 F800
G1 X320.000 Y4.800 F800
G1 Y7.200 F800
G1 X0.000 Y7.200 F800
G1 Y9.600 F800
G1 X320.000 Y9.600 F800
G0 Z5.000
G0 X0 Y0 Z5.000
G0 Z-57.000
G1 Z-58.000 F400
G1 X320.000 Y0.000 F800
G1 Y2.400 F800
G1 X0.000 Y2.400 F800
G1 Y4.800 F800
G1 X320.000 Y4.800 F800
G1 Y7.200 F800
G1 X0.000 Y7.200 F800
G1 Y9.600 F800
G1 X320.000 Y9.600 F800
G0 Z5.000
G0 X0 Y0 Z5.000
G0 Z-59.000
G1 Z-60.000 F400
G1 X320.000 Y0.000 F800
G1 Y2.400 F800
G1 X0.000 Y2.400 F800
G1 Y4.800 F800
G1 X320.000 Y4.800 F800
G1 Y7.200 F800
G1 X0.000 Y7.200 F800
G1 Y9.600 F800
G1 X320.000 Y9.600 F800
G0 Z5.000
G0 X0 Y0 Z5.000
G0 Z-61.000
G1 Z-62.000 F400
G1 X320.000 Y0.000 F800
G1 Y2.400 F800
G1 X0.000 Y2.400 F800
G1 Y4.800 F800
G1 X320.000 Y4.800 F800
G1 Y7.200 F800
G1 X0.000 Y7.200 F800
G1 Y9.600 F800
G1 X320.000 Y9.600 F800
G0 Z5.000
G0 X0 Y0 Z5.000
G0 Z-63.000
G1 Z-64.000 F400
G1 X320.000 Y0.000 F800
G1 Y2.400 F800
G1 X0.000 Y2.400 F800
G1 Y4.800 F800
G1 X320.000 Y4.800 F800
G1 Y7.200 F800
G1 X0.000 Y7.200 F800
G1 Y9.600 F800
G1 X320.000 Y9.600 F800
G0 Z5.000
G0 X0 Y0 Z5.000
G0 Z-65.000
G1 Z-66.000 F400
G1 X320.000 Y0.000 F800
G1 Y2.400 F800
G1 X0.000 Y2.400 F800
G1 Y4.800 F800
G1 X320.000 Y4.800 F800
G1 Y7.200 F800
G1 X0.000 Y7.200 F800
G1 Y9.600 F800
G1 X320.000 Y9.600 F800
G0 Z5.000
G0 X0 Y0 Z5.000
G0 Z-67.000
G1 Z-68.000 F400
G1 X320.000 Y0.000 F800
G1 Y2.400 F800
G1 X0.000 Y2.400 F800
G1 Y4.800 F800
G1 X320.000 Y4.800 F800
G1 Y7.200 F800
G1 X0.000 Y7.200 F800
G1 Y9.600 F800
G1 X320.000 Y9.600 F800
G0 Z5.000
G0 X0 Y0 Z5.000
G0 Z-69.000
G1 Z-70.000 F400
G1 X320.000 Y0.000 F800
G1 Y2.400 F800
G1 X0.000 Y2.400 F800
G1 Y4.800 F800
G1 X320.000 Y4.800 F800
G1 Y7.200 F800
G1 X0.000 Y7.200 F800
G1 Y9.600 F800
G1 X320.000 Y9.600 F800
G0 Z5.000
G0 X0 Y0 Z5.000
G0 Z-71.000
G1 Z-72.000 F400
G1 X320.000 Y0.000 F800
G1 Y2.400 F800
G1 X0.000 Y2.400 F800
G1 Y4.800 F800
G1 X320.000 Y4.800 F800
G1 Y7.200 F800
G1 X0.000 Y7.200 F800
G1 Y9.600 F800
G1 X320.000 Y9.600 F800
G0 Z5.000
G0 X0 Y0 Z5.000
G0 Z-73.000
G1 Z-74.000 F400
G1 X320.000 Y0.000 F800
G1 Y2.400 F800
G1 X0.000 Y2.400 F800
G1 Y4.800 F800
G1 X320.000 Y4.800 F800
G1 Y7.200 F800
G1 X0.000 Y7.200 F800
G1 Y9.600 F800
G1 X320.000 Y9.600 F800
G0 Z5.000
G0 X0 Y0 Z5.000
G0 Z-75.000
G1 Z-76.000 F400
G1 X320.000 Y0.000 F800
G1 Y2.400 F800
G1 X0.000 Y2.400 F800
G1 Y4.800 F800
G1 X320.000 Y4.800 F800
G1 Y7.200 F800
G1 X0.000 Y7.200 F800
G1 Y9.600 F800
G1 X320.000 Y9.600 F800
G0 Z5.000
G0 X0 Y0 Z5.000
G0 Z-77.000
G1 Z-78.000 F400
G1 X320.000 Y0.000 F800
G1 Y2.400 F800
G1 X0.000 Y2.400 F800
G1 Y4.800 F800
G1 X320.000 Y4.800 F800
G1 Y7.200 F800
G1 X0.000 Y7.200 F800
G1 Y9.600 F800
G1 X320.000 Y9.600 F800
G0 Z5.000
G0 X0 Y0 Z5.000
G0 Z-79.000
G1 Z-80.000 F400
G1 X320.000 Y0.000 F800
G1 Y2.400 F800
G1 X0.000 Y2.400 F800
G1 Y4.800 F800
G1 X320.000 Y4.800 F800
G1 Y7.200 F800
G1 X0.000 Y7.200 F800
G1 Y9.600 F800
G1 X320.000 Y9.600 F800
G0 Z5.000
G0 X0 Y0 Z5.000
G0 Z-81.000
G1 Z-82.000 F400
G1 X320.000 Y0.000 F800
G1 Y2.400 F800
G1 X0.000 Y2.400 F800
G1 Y4.800 F800
G1 X320.000 Y4.800 F800
G1 Y7.200 F800
G1 X0.000 Y7.200 F800
G1 Y9.600 F800
G1 X320.000 Y9.600 F800
G0 Z5.000
G0 X0 Y0 Z5.000
G0 Z-83.000
G1 Z-84.000 F400
G1 X320.000 Y0.000 F800
G1 Y2.400 F800
G1 X0.000 Y2.400 F800
G1 Y4.800 F800
G1 X320.000 Y4.800 F800
G1 Y7.200 F800
G1 X0.000 Y7.200 F800
G1 Y9.600 F800
G1 X320.000 Y9.600 F800
G0 Z5.000
G0 X0 Y0 Z5.000
G0 Z-85.000
G1 Z-86.000 F400
G1 X320.000 Y0.000 F800
G1 Y2.400 F800
G1 X0.000 Y2.400 F800
G1 Y4.800 F800
G1 X320.000 Y4.800 F800
G1 Y7.200 F800
G1 X0.000 Y7.200 F800
G1 Y9.600 F800
G1 X320.000 Y9.600 F800
G0 Z5.000
G0 X0 Y0 Z5.000
G0 Z-87.000
G1 Z-88.000 F400
G1 X320.000 Y0.000 F800
G1 Y2.400 F800
G1 X0.000 Y2.400 F800
G1 Y4.800 F800
G1 X320.000 Y4.800 F800
G1 Y7.200 F800
G1 X0.000 Y7.200 F800
G1 Y9.600 F800
G1 X320.000 Y9.600 F800
G0 Z5.000
G0 X0 Y0 Z5.000
G0 Z-89.000
G1 Z-90.000 F400
G1 X320.000 Y0.000 F800
G1 Y2.400 F800
G1 X0.000 Y2.400 F800
G1 Y4.800 F800
G1 X320.000 Y4.800 F800
G1 Y7.200 F800
G1 X0.000 Y7.200 F800
G1 Y9.600 F800
G1 X320.000 Y9.600 F800
G0 Z5.000
G0 X0 Y0 Z5.000
G0 Z-91.000
G1 Z-92.000 F400
G1 X320.000 Y0.000 F800
G1 Y2.400 F800
G1 X0.000 Y2.400 F800
G1 Y4.800 F800
G1 X320.000 Y4.800 F800
G1 Y7.200 F800
G1 X0.000 Y7.200 F800
G1 Y9.600 F800
G1 X320.000 Y9.600 F800
G0 Z5.000
G0 X0 Y0 Z5.000
G0 Z-93.000
G1 Z-94.000 F400
G1 X320.000 Y0.000 F800
G1 Y2.400 F800
G1 X0.000 Y2.400 F800
G1 Y4.800 F800
G1 X320.000 Y4.800 F800
G1 Y7.200 F800
G1 X0.000 Y7.200 F800
G1 Y9.600 F800
G1 X320.000 Y9.600 F800
G0 Z5.000
G0 X0 Y0 Z5.000
G0 Z-95.000
G1 Z-96.000 F400
G1 X320.000 Y0.000 F800
G1 Y2.400 F800
G1 X0.000 Y2.400 F800
G1 Y4.800 F800
G1 X320.000 Y4.800 F800
G1 Y7.200 F800
G1 X0.000 Y7.200 F800
G1 Y9.600 F800
G1 X320.000 Y9.600 F800
G0 Z5.000
G0 X0 Y0 Z5.000
G0 Z-97.000
G1 Z-98.000 F400
G1 X320.000 Y0.000 F800
G1 Y2.400 F800
G1 X0.000 Y2.400 F800
G1 Y4.800 F800
G1 X320.000 Y4.800 F800
G1 Y7.200 F800
G1 X0.000 Y7.200 F800
G1 Y9.600 F800
G1 X320.000 Y9.600 F800
G0 Z5.000
G0 X0 Y0 Z5.000
G0 Z-99.000
G1 Z-100.000 F400
G1 X320.000 Y0.000 F800
G1 Y2.400 F800
G1 X0.000 Y2.400 F800
G1 Y4.800 F800
G1 X320.000 Y4.800 F800
G1 Y7.200 F800
G1 X0.000 Y7.200 F800
G1 Y9.600 F800
G1 X320.000 Y9.600 F800
G0 Z5.000
G0 X0 Y0 Z5.000
G0 Z-101.000
G1 Z-102.000 F400
G1 X320.000 Y0.000 F800
G1 Y2.400 F800
G1 X0.000 Y2.400 F800
G1 Y4.800 F800
G1 X320.000 Y4.800 F800
G1 Y7.200 F800
G1 X0.000 Y7.200 F800
G1 Y9.600 F800
G1 X320.000 Y9.600 F800
G0 Z5.000
G0 X0 Y0 Z5.000
G0 Z-103.000
G1 Z-104.000 F400
G1 X320.000 Y0.000 F800
G1 Y2.400 F800
G1 X0.000 Y2.400 F800
G1 Y4.800 F800
G1 X320.000 Y4.800 F800
G1 Y7.200 F800
G1 X0.000 Y7.200 F800
G1 Y9.600 F800
G1 X320.000 Y9.600 F800
G0 Z5.000
G0 X0 Y0 Z5.000
G0 Z-105.000
G1 Z-106.000 F400
G1 X320.000 Y0.000 F800
G1 Y2.400 F800
G1 X0.000 Y2.400 F800
G1 Y4.800 F800
G1 X320.000 Y4.800 F800
G1 Y7.200 F800
G1 X0.000 Y7.200 F800
G1 Y9.600 F800
G1 X320.000 Y9.600 F800
G0 Z5.000
G0 X0 Y0 Z5.000
G0 Z-107.000
G1 Z-108.000 F400
G1 X320.000 Y0.000 F800
G1 Y2.400 F800
G1 X0.000 Y2.400 F800
G1 Y4.800 F800
G1 X320.000 Y4.800 F800
G1 Y7.200 F800
G1 X0.000 Y7.200 F800
G1 Y9.600 F800
G1 X320.000 Y9.600 F800
G0 Z5.000
G0 X0 Y0 Z5.000
G0 Z-109.000
G1 Z-110.000 F400
G1 X320.000 Y0.000 F800
G1 Y2.400 F800
G1 X0.000 Y2.400 F800
G1 Y4.800 F800
G1 X320.000 Y4.800 F800
G1 Y7.200 F800
G1 X0.000 Y7.200 F800
G1 Y9.600 F800
G1 X320.000 Y9.600 F800
G0 Z5.000
G0 X0 Y0 Z5.000
G0 Z-111.000
G1 Z-112.000 F400
G1 X320.000 Y0.000 F800
G1 Y2.400 F800
G1 X0.000 Y2.400 F800
G1 Y4.800 F800
G1 X320.000 Y4.800 F800
G1 Y7.200 F800
G1 X0.000 Y7.200 F800
G1 Y9.600 F800
G1 X320.000 Y9.600 F800
G0 Z5.000
G0 X0 Y0 Z5.000
G0 Z-113.000
G1 Z-114.000 F400
G1 X320.000 Y0.000 F800
G1 Y2.400 F800
G1 X0.000 Y2.400 F800
G1 Y4.800 F800
G1 X320.000 Y4.800 F800
G1 Y7.200 F800
G1 X0.000 Y7.200 F800
G1 Y9.600 F800
G1 X320.000 Y9.600 F800
G0 Z5.000
G0 X0 Y0 Z5.000
G0 Z-115.000
G1 Z-116.000 F400
G1 X320.000 Y0.000 F800
G1 Y2.400 F800
G1 X0.000 Y2.400 F800
G1 Y4.800 F800
G1 X320.000 Y4.800 F800
G1 Y7.200 F800
G1 X0.000 Y7.200 F800
G1 Y9.600 F800
G1 X320.000 Y9.600 F800
G0 Z5.000
G0 X0 Y0 Z5.000
G0 Z-117.000
G1 Z-118.000 F400
G1 X320.000 Y0.000 F800
G1 Y2.400 F800
G1 X0.000 Y2.400 F800
G1 Y4.800 F800
G1 X320.000 Y4.800 F800
G1 Y7.200 F800
G1 X0.000 Y7.200 F800
G1 Y9.600 F800
G1 X320.000 Y9.600 F800
G0 Z5.000
G0 X0 Y0 Z5.000
G0 Z-119.000
G1 Z-120.000 F400
G1 X320.000 Y0.000 F800
G1 Y2.400 F800
G1 X0.000 Y2.400 F800
G1 Y4.800 F800
G1 X320.000 Y4.800 F800
G1 Y7.200 F800
G1 X0.000 Y7.200 F800
G1 Y9.600 F800
G1 X320.000 Y9.600 F800
G0 Z5.000
G0 X0 Y0 Z5.000
G0 Z-121.000
G1 Z-122.000 F400
G1 X320.000 Y0.000 F800
G1 Y2.400 F800
G1 X0.000 Y2.400 F800
G1 Y4.800 F800
G1 X320.000 Y4.800 F800
G1 Y7.200 F800
G1 X0.000 Y7.200 F800
G1 Y9.600 F800
G1 X320.000 Y9.600 F800
G0 Z5.000
G0 X0 Y0 Z5.000
G0 Z-123.000
G1 Z-124.000 F400
G1 X320.000 Y0.000 F800
G1 Y2.400 F800
G1 X0.000 Y2.400 F800
G1 Y4.800 F800
G1 X320.000 Y4.800 F800
G1 Y7.200 F800
G1 X0.000 Y7.200 F800
G1 Y9.600 F800
G1 X320.000 Y9.600 F800
G0 Z5.000
G0 X0 Y0 Z5.000
G0 Z-125.000
G1 Z-126.000 F400
G1 X320.000 Y0.000 F800
G1 Y2.400 F800
G1 X0.000 Y2.400 F800
G1 Y4.800 F800
G1 X320.000 Y4.800 F800
G1 Y7.200 F800
G1 X0.000 Y7.200 F800
G1 Y9.600 F800
G1 X320.000 Y9.600 F800
G0 Z5.000
G0 X0 Y0 Z5.000
G0 Z-127.000
G1 Z-128.000 F400
G1 X320.000 Y0.000 F800
G1 Y2.400 F800
G1 X0.000 Y2.400 F800
G1 Y4.800 F800
G1 X320.000 Y4.800 F800
G1 Y7.200 F800
G1 X0.000 Y7.200 F800
G1 Y9.600 F800
G1 X320.000 Y9.600 F800
G0 Z5.000
G0 X0 Y0 Z5.000
G0 Z-129.000
G1 Z-130.000 F400
G1 X320.000 Y0.000 F800
G1 Y2.400 F800
G1 X0.000 Y2.400 F800
G1 Y4.800 F800
G1 X320.000 Y4.800 F800
G1 Y7.200 F800
G1 X0.000 Y7.200 F800
G1 Y9.600 F800
G1 X320.000 Y9.600 F800
G0 Z5.000
G0 X0 Y0 Z5.000
G0 Z-131.000
G1 Z-132.000 F400
G1 X320.000 Y0.000 F800
G1 Y2.400 F800
G1 X0.000 Y2.400 F800
G1 Y4.800 F800
G1 X320.000 Y4.800 F800
G1 Y7.200 F800
G1 X0.000 Y7.200 F800
G1 Y9.600 F800
G1 X320.000 Y9.600 F800
G0 Z5.000
G0 X0 Y0 Z5.000
G0 Z-133.000
G1 Z-134.000 F400
G1 X320.000 Y0.000 F800
G1 Y2.400 F800
G1 X0.000 Y2.400 F800
G1 Y4.800 F800
G1 X320.000 Y4.800 F800
G1 Y7.200 F800
G1 X0.000 Y7.200 F800
G1 Y9.600 F800
G1 X320.000 Y9.600 F800
G0 Z5.000
G0 X0 Y0 Z5.000
G0 Z-135.000
G1 Z-136.000 F400
G1 X320.000 Y0.000 F800
G1 Y2.400 F800
G1 X0.000 Y2.400 F800
G1 Y4.800 F800
G1 X320.000 Y4.800 F800
G1 Y7.200 F800
G1 X0.000 Y7.200 F800
G1 Y9.600 F800
G1 X320.000 Y9.600 F800
G0 Z5.000
G0 X0 Y0 Z5.000
G0 Z-137.000
G1 Z-138.000 F400
G1 X320.000 Y0.000 F800
G1 Y2.400 F800
G1 X0.000 Y2.400 F800
G1 Y4.800 F800
G1 X320.000 Y4.800 F800
G1 Y7.200 F800
G1 X0.000 Y7.200 F800
G1 Y9.600 F800
G1 X320.000 Y9.600 F800
G0 Z5.000
G0 X0 Y0 Z5.000
G0 Z-139.000
G1 Z-140.000 F400
G1 X320.000 Y0.000 F800
G1 Y2.400 F800
G1 X0.000 Y2.400 F800
G1 Y4.800 F800
G1 X320.000 Y4.800 F800
G1 Y7.200 F800
G1 X0.000 Y7.200 F800
G1 Y9.600 F800
G1 X320.000 Y9.600 F800
G0 Z5.000
G0 X0 Y0 Z5.000
G0 Z-141.000
G1 Z-142.000 F400
G1 X320.000 Y0.000 F800
G1 Y2.400 F800
G1 X0.000 Y2.400 F800
G1 Y4.800 F800
G1 X320.000 Y4.800 F800
G1 Y7.200 F800
G1 X0.000 Y7.200 F800
G1 Y9.600 F800
G1 X320.000 Y9.600 F800
G0 Z5.000
G0 X0 Y0 Z5.000
G0 Z-143.000
G1 Z-144.000 F400
G1 X320.000 Y0.000 F800
G1 Y2.400 F800
G1 X0.000 Y2.400 F800
G1 Y4.800 F800
G1 X320.000 Y4.800 F800
G1 Y7.200 F800
G1 X0.000 Y7.200 F800
G1 Y9.600 F800
G1 X320.000 Y9.600 F800
G0 Z5.000
G0 X0 Y0 Z5.000
G0 Z-145.000
G1 Z-146.000 F400
G1 X320.000 Y0.000 F800
G1 Y2.400 F800
G1 X0.000 Y2.400 F800
G1 Y4.800 F800
G1 X320.000 Y4.800 F800
G1 Y7.200 F800
G1 X0.000 Y7.200 F800
G1 Y9.600 F800
G1 X320.000 Y9.600 F800
G0 Z5.000
G0 X0 Y0 Z5.000
G0 Z-147.000
G1 Z-148.000 F400
G1 X320.000 Y0.000 F800
G1 Y2.400 F800
G1 X0.000 Y2.400 F800
G1 Y4.800 F800
G1 X320.000 Y4.800 F800
G1 Y7.200 F800
G1 X0.000 Y7.200 F800
G1 Y9.600 F800
G1 X320.000 Y9.600 F800
G0 Z5.000
G0 X0 Y0 Z5.000
G0 Z-149.000
G1 Z-150.000 F400
G1 X320.000 Y0.000 F800
G1 Y2.400 F800
G1 X0.000 Y2.400 F800
G1 Y4.800 F800
G1 X320.000 Y4.800 F800
G1 Y7.200 F800
G1 X0.000 Y7.200 F800
G1 Y9.600 F800
G1 X320.000 Y9.600 F800
G0 Z5.000
G0 X0 Y0 Z5.000
G0 Z-151.000
G1 Z-152.000 F400
G1 X320.000 Y0.000 F800
G1 Y2.400 F800
G1 X0.000 Y2.400 F800
G1 Y4.800 F800
G1 X320.000 Y4.800 F800
G1 Y7.200 F800
G1 X0.000 Y7.200 F800
G1 Y9.600 F800
G1 X320.000 Y9.600 F800
G0 Z5.000
G0 X0 Y0 Z5.000
G0 Z-153.000
G1 Z-154.000 F400
G1 X320.000 Y0.000 F800
G1 Y2.400 F800
G1 X0.000 Y2.400 F800
G1 Y4.800 F800
G1 X320.000 Y4.800 F800
G1 Y7.200 F800
G1 X0.000 Y7.200 F800
G1 Y9.600 F800
G1 X320.000 Y9.600 F800
G0 Z5.000
G0 X0 Y0 Z5.000
G0 Z-155.000
G1 Z-156.000 F400
G1 X320.000 Y0.000 F800
G1 Y2.400 F800
G1 X0.000 Y2.400 F800
G1 Y4.800 F800
G1 X320.000 Y4.800 F800
G1 Y7.200 F800
G1 X0.000 Y7.200 F800
G1 Y9.600 F800
G1 X320.000 Y9.600 F800
G0 Z5.000
G0 X0 Y0 Z5.000
G0 Z-157.000
G1 Z-158.000 F400
G1 X320.000 Y0.000 F800
G1 Y2.400 F800
G1 X0.000 Y2.400 F800
G1 Y4.800 F800
G1 X320.000 Y4.800 F800
G1 Y7.200 F800
G1 X0.000 Y7.200 F800
G1 Y9.600 F800
G1 X320.000 Y9.600 F800
G0 Z5.000
G0 X0 Y0 Z5.000
G0 Z-159.000
G1 Z-160.000 F400
G1 X320.000 Y0.000 F800
G1 Y2.400 F800
G1 X0.000 Y2.400 F800
G1 Y4.800 F800
G1 X320.000 Y4.800 F800
G1 Y7.200 F800
G1 X0.000 Y7.200 F800
G1 Y9.600 F800
G1 X320.000 Y9.600 F800
G0 Z5.000
G0 X0 Y0 Z5.000
G0 Z-161.000
G1 Z-162.000 F400
G1 X320.000 Y0.000 F800
G1 Y2.400 F800
G1 X0.000 Y2.400 F800
G1 Y4.800 F800
G1 X320.000 Y4.800 F800
G1 Y7.200 F800
G1 X0.000 Y7.200 F800
G1 Y9.600 F800
G1 X320.000 Y9.600 F800
G0 Z5.000
G0 X0 Y0 Z5.000
G0 Z-163.000
G1 Z-164.000 F400
G1 X320.000 Y0.000 F800
G1 Y2.400 F800
G1 X0.000 Y2.400 F800
G1 Y4.800 F800
G1 X320.000 Y4.800 F800
G1 Y7.200 F800
G1 X0.000 Y7.200 F800
G1 Y9.600 F800
G1 X320.000 Y9.600 F800
G0 Z5.000
G0 X0 Y0 Z5.000
G0 Z-165.000
G1 Z-166.000 F400
G1 X320.000 Y0.000 F800
G1 Y2.400 F800
G1 X0.000 Y2.400 F800
G1 Y4.800 F800
G1 X320.000 Y4.800 F800
G1 Y7.200 F800
G1 X0.000 Y7.200 F800
G1 Y9.600 F800
G1 X320.000 Y9.600 F800
G0 Z5.000
G0 X0 Y0 Z5.000
G0 Z-167.000
G1 Z-168.000 F400
G1 X320.000 Y0.000 F800
G1 Y2.400 F800
G1 X0.000 Y2.400 F800
G1 Y4.800 F800
G1 X320.000 Y4.800 F800
G1 Y7.200 F800
G1 X0.000 Y7.200 F800
G1 Y9.600 F800
G1 X320.000 Y9.600 F800
G0 Z5.000
G0 X0 Y0 Z5.000
G0 Z-169.000
G1 Z-170.000 F400
G1 X320.000 Y0.000 F800
G1 Y2.400 F800
G1 X0.000 Y2.400 F800
G1 Y4.800 F800
G1 X320.000 Y4.800 F800
G1 Y7.200 F800
G1 X0.000 Y7.200 F800
G1 Y9.600 F800
G1 X320.000 Y9.600 F800
G0 Z5.000
G0 X0 Y0 Z5.000
G0 Z-171.000
G1 Z-172.000 F400
G1 X320.000 Y0.000 F800
G1 Y2.400 F800
G1 X0.000 Y2.400 F800
G1 Y4.800 F800
G1 X320.000 Y4.800 F800
G1 Y7.200 F800
G1 X0.000 Y7.200 F800
G1 Y9.600 F800
G1 X320.000 Y9.600 F800
G0 Z5.000
G0 X0 Y0 Z5.000
G0 Z-173.000
G1 Z-174.000 F400
G1 X320.000 Y0.000 F800
G1 Y2.400 F800
G1 X0.000 Y2.400 F800
G1 Y4.800 F800
G1 X320.000 Y4.800 F800
G1 Y7.200 F800
G1 X0.000 Y7.200 F800
G1 Y9.600 F800
G1 X320.000 Y9.600 F800
G0 Z5.000
G0 X0 Y0 Z5.000
G0 Z-175.000
G1 Z-176.000 F400
G1 X320.000 Y0.000 F800
G1 Y2.400 F800
G1 X0.000 Y2.400 F800
G1 Y4.800 F800
G1 X320.000 Y4.800 F800
G1 Y7.200 F800
G1 X0.000 Y7.200 F800
G1 Y9.600 F800
G1 X320.000 Y9.600 F800
G0 Z5.000
G0 X0 Y0 Z5.000
G0 Z-177.000
G1 Z-178.000 F400
G1 X320.000 Y0.000 F800
G1 Y2.400 F800
G1 X0.000 Y2.400 F800
G1 Y4.800 F800
G1 X320.000 Y4.800 F800
G1 Y7.200 F800
G1 X0.000 Y7.200 F800
G1 Y9.600 F800
G1 X320.000 Y9.600 F800
G0 Z5.000
G0 X0 Y0 Z5.000
G0 Z-179.000
G1 Z-180.000 F400
G1 X320.000 Y0.000 F800
G1 Y2.400 F800
G1 X0.000 Y2.400 F800
G1 Y4.800 F800
G1 X320.000 Y4.800 F800
G1 Y7.200 F800
G1 X0.000 Y7.200 F800
G1 Y9.600 F800
G1 X320.000 Y9.600 F800
G0 Z5.000
G0 X0 Y0 Z5.000
G0 Z-181.000
G1 Z-182.000 F400
G1 X320.000 Y0.000 F800
G1 Y2.400 F800
G1 X0.000 Y2.400 F800
G1 Y4.800 F800
G1 X320.000 Y4.800 F800
G1 Y7.200 F800
G1 X0.000 Y7.200 F800
G1 Y9.600 F800
G1 X320.000 Y9.600 F800
G0 Z5.000
G0 X0 Y0 Z5.000
G0 Z-183.000
G1 Z-184.000 F400
G1 X320.000 Y0.000 F800
G1 Y2.400 F800
G1 X0.000 Y2.400 F800
G1 Y4.800 F800
G1 X320.000 Y4.800 F800
G1 Y7.200 F800
G1 X0.000 Y7.200 F800
G1 Y9.600 F800
G1 X320.000 Y9.600 F800
G0 Z5.000
G0 X0 Y0 Z5.000
G0 Z-185.000
G1 Z-186.000 F400
G1 X320.000 Y0.000 F800
G1 Y2.400 F800
G1 X0.000 Y2.400 F800
G1 Y4.800 F800
G1 X320.000 Y4.800 F800
G1 Y7.200 F800
G1 X0.000 Y7.200 F800
G1 Y9.600 F800
G1 X320.000 Y9.600 F800
G0 Z5.000
G0 X0 Y0 Z5.000
G0 Z-187.000
G1 Z-188.000 F400
G1 X320.000 Y0.000 F800
G1 Y2.400 F800
G1 X0.000 Y2.400 F800
G1 Y4.800 F800
G1 X320.000 Y4.800 F800
G1 Y7.200 F800
G1 X0.000 Y7.200 F800
G1 Y9.600 F800
G1 X320.000 Y9.600 F800
G0 Z5.000
G0 X0 Y0 Z5.000
G0 Z-189.000
G1 Z-190.000 F400
G1 X320.000 Y0.000 F800
G1 Y2.400 F800
G1 X0.000 Y2.400 F800
G1 Y4.800 F800
G1 X320.000 Y4.800 F800
G1 Y7.200 F800
G1 X0.000 Y7.200 F800
G1 Y9.600 F800
G1 X320.000 Y9.600 F800
G0 Z5.000
G0 X0 Y0 Z5.000
G0 Z-191.000
G1 Z-192.000 F400
G1 X320.000 Y0.000 F800
G1 Y2.400 F800
G1 X0.000 Y2.400 F800
G1 Y4.800 F800
G1 X320.000 Y4.800 F800
G1 Y7.200 F800
G1 X0.000 Y7.200 F800
G1 Y9.600 F800
G1 X320.000 Y9.600 F800
G0 Z5.000
G0 X0 Y0 Z5.000
G0 Z-193.000
G1 Z-194.000 F400
G1 X320.000 Y0.000 F800
G1 Y2.400 F800
G1 X0.000 Y2.400 F800
G1 Y4.800 F800
G1 X320.000 Y4.800 F800
G1 Y7.200 F800
G1 X0.000 Y7.200 F800
G1 Y9.600 F800
G1 X320.000 Y9.600 F800
G0 Z5.000
G0 X0 Y0 Z5.000
G0 Z-195.000
G1 Z-196.000 F400
G1 X320.000 Y0.000 F800
G1 Y2.400 F800
G1 X0.000 Y2.400 F800
G1 Y4.800 F800
G1 X320.000 Y4.800 F800
G1 Y7.200 F800
G1 X0.000 Y7.200 F800
G1 Y9.600 F800
G1 X320.000 Y9.600 F800
G0 Z5.000
G0 X0 Y0 Z5.000
G0 Z-197.000
G1 Z-198.000 F400
G1 X320.000 Y0.000 F800
G1 Y2.400 F800
G1 X0.000 Y2.400 F800
G1 Y4.800 F800
G1 X320.000 Y4.800 F800
G1 Y7.200 F800
G1 X0.000 Y7.200 F800
G1 Y9.600 F800
G1 X320.000 Y9.600 F800
G0 Z5.000
G0 X0 Y0 Z5.000
G0 Z-199.000
G1 Z-200.000 F400
G1 X320.000 Y0.000 F800
G1 Y2.400 F800
G1 X0.000 Y2.400 F800
G1 Y4.800 F800
G1 X320.000 Y4.800 F800
G1 Y7.200 F800
G1 X0.000 Y7.200 F800
G1 Y9.600 F800
G1 X320.000 Y9.600 F800
G0 Z5.000
G0 X0 Y0 Z5.000
G0 Z-201.000
G1 Z-202.000 F400
G1 X320.000 Y0.000 F800
G1 Y2.400 F800
G1 X0.000 Y2.400 F800
G1 Y4.800 F800
G1 X320.000 Y4.800 F800
G1 Y7.200 F800
G1 X0.000 Y7.200 F800
G1 Y9.600 F800
G1 X320.000 Y9.600 F800
G0 Z5.000
G0 X0 Y0 Z5.000
G0 Z-203.000
G1 Z-204.000 F400
G1 X320.000 Y0.000 F800
G1 Y2.400 F800
G1 X0.000 Y2.400 F800
G1 Y4.800 F800
G1 X320.000 Y4.800 F800
G1 Y7.200 F800
G1 X0.000 Y7.200 F800
G1 Y9.600 F800
G1 X320.000 Y9.600 F800
G0 Z5.000
G0 X0 Y0 Z5.000
G0 Z-205.000
G1 Z-206.000 F400
G1 X320.000 Y0.000 F800
G1 Y2.400 F800
G1 X0.000 Y2.400 F800
G1 Y4.800 F800
G1 X320.000 Y4.800 F800
G1 Y7.200 F800
G1 X0.000 Y7.200 F800
G1 Y9.600 F800
G1 X320.000 Y9.600 F800
G0 Z5.000
G0 X0 Y0 Z5.000
G0 Z-207.000
G1 Z-208.000 F400
G1 X320.000 Y0.000 F800
G1 Y2.400 F800
G1 X0.000 Y2.400 F800
G1 Y4.800 F800
G1 X320.000 Y4.800 F800
G1 Y7.200 F800
G1 X0.000 Y7.200 F800
G1 Y9.600 F800
G1 X320.000 Y9.600 F800
G0 Z5.000
G0 X0 Y0 Z5.000
G0 Z-209.000
G1 Z-210.000 F400
G1 X320.000 Y0.000 F800
G1 Y2.400 F800
G1 X0.000 Y2.400 F800
G1 Y4.800 F800
G1 X320.000 Y4.800 F800
G1 Y7.200 F800
G1 X0.000 Y7.200 F800
G1 Y9.600 F800
G1 X320.000 Y9.600 F800
G0 Z5.000
G0 X0 Y0 Z5.000
G0 Z-211.000
G1 Z-212.000 F400
G1 X320.000 Y0.000 F800
G1 Y2.400 F800
G1 X0.000 Y2.400 F800
G1 Y4.800 F800
G1 X320.000 Y4.800 F800
G1 Y7.200 F800
G1 X0.000 Y7.200 F800
G1 Y9.600 F800
G1 X320.000 Y9.600 F800
G0 Z5.000
G0 X0 Y0 Z5.000
G0 Z-213.000
G1 Z-214.000 F400
G1 X320.000 Y0.000 F800
G1 Y2.400 F800
G1 X0.000 Y2.400 F800
G1 Y4.800 F800
G1 X320.000 Y4.800 F800
G1 Y7.200 F800
G1 X0.000 Y7.200 F800
G1 Y9.600 F800
G1 X320.000 Y9.600 F800
G0 Z5.000
G0 X0 Y0 Z5.000
G0 Z-215.000
G1 Z-216.000 F400
G1 X320.000 Y0.000 F800
G1 Y2.400 F800
G1 X0.000 Y2.400 F800
G1 Y4.800 F800
G1 X320.000 Y4.800 F800
G1 Y7.200 F800
G1 X0.000 Y7.200 F800
G1 Y9.600 F800
G1 X320.000 Y9.600 F800
G0 Z5.000
G0 X0 Y0 Z5.000
G0 Z-217.000
G1 Z-218.000 F400
G1 X320.000 Y0.000 F800
G1 Y2.400 F800
G1 X0.000 Y2.400 F800
G1 Y4.800 F800
G1 X320.000 Y4.800 F800
G1 Y7.200 F800
G1 X0.000 Y7.200 F800
G1 Y9.600 F800
G1 X320.000 Y9.600 F800
G0 Z5.000
G0 X0 Y0 Z5.000
G0 Z-219.000
G1 Z-220.000 F400
G1 X320.000 Y0.000 F800
G1 Y2.400 F800
G1 X0.000 Y2.400 F800
G1 Y4.800 F800
G1 X320.000 Y4.800 F800
G1 Y7.200 F800
G1 X0.000 Y7.200 F800
G1 Y9.600 F800
G1 X320.000 Y9.600 F800
G0 Z5.000
G0 X0 Y0 Z5.000
G0 Z-221.000
G1 Z-222.000 F400
G1 X320.000 Y0.000 F800
G1 Y2.400 F800
G1 X0.000 Y2.400 F800
G1 Y4.800 F800
G1 X320.000 Y4.800 F800
G1 Y7.200 F800
G1 X0.000 Y7.200 F800
G1 Y9.600 F800
G1 X320.000 Y9.600 F800
G0 Z5.000
G0 X0 Y0 Z5.000
G0 Z-223.000
G1 Z-224.000 F400
G1 X320.000 Y0.000 F800
G1 Y2.400 F800
G1 X0.000 Y2.400 F800
G1 Y4.800 F800
G1 X320.000 Y4.800 F800
G1 Y7.200 F800
G1 X0.000 Y7.200 F800
G1 Y9.600 F800
G1 X320.000 Y9.600 F800
G0 Z5.000
G0 X0 Y0 Z5.000
G0 Z-225.000
G1 Z-226.000 F400
G1 X320.000 Y0.000 F800
G1 Y2.400 F800
G1 X0.000 Y2.400 F800
G1 Y4.800 F800
G1 X320.000 Y4.800 F800
G1 Y7.200 F800
G1 X0.000 Y7.200 F800
G1 Y9.600 F800
G1 X320.000 Y9.600 F800
G0 Z5.000
G0 X0 Y0 Z5.000
G0 Z-227.000
G1 Z-228.000 F400
G1 X320.000 Y0.000 F800
G1 Y2.400 F800
G1 X0.000 Y2.400 F800
G1 Y4.800 F800
G1 X320.000 Y4.800 F800
G1 Y7.200 F800
G1 X0.000 Y7.200 F800
G1 Y9.600 F800
G1 X320.000 Y9.600 F800
G0 Z5.000
G0 X0 Y0 Z5.000
G0 Z-229.000
G1 Z-230.000 F400
G1 X320.000 Y0.000 F800
G1 Y2.400 F800
G1 X0.000 Y2.400 F800
G1 Y4.800 F800
G1 X320.000 Y4.800 F800
G1 Y7.200 F800
G1 X0.000 Y7.200 F800
G1 Y9.600 F800
G1 X320.000 Y9.600 F800
G0 Z5.000
G0 X0 Y0 Z5.000
G0 Z-231.000
G1 Z-232.000 F400
G1 X320.000 Y0.000 F800
G1 Y2.400 F800
G1 X0.000 Y2.400 F800
G1 Y4.800 F800
G1 X320.000 Y4.800 F800
G1 Y7.200 F800
G1 X0.000 Y7.200 F800
G1 Y9.600 F800
G1 X320.000 Y9.600 F800
G0 Z5.000
G0 X0 Y0 Z5.000
G0 Z-233.000
G1 Z-234.000 F400
G1 X320.000 Y0.000 F800
G1 Y2.400 F800
G1 X0.000 Y2.400 F800
G1 Y4.800 F800
G1 X320.000 Y4.800 F800
G1 Y7.200 F800
G1 X0.000 Y7.200 F800
G1 Y9.600 F800
G1 X320.000 Y9.600 F800
G0 Z5.000
G0 X0 Y0 Z5.000
G0 Z-235.000
G1 Z-236.000 F400
G1 X320.000 Y0.000 F800
G1 Y2.400 F800
G1 X0.000 Y2.400 F800
G1 Y4.800 F800
G1 X320.000 Y4.800 F800
G1 Y7.200 F800
G1 X0.000 Y7.200 F800
G1 Y9.600 F800
G1 X320.000 Y9.600 F800
G0 Z5.000
G0 X0 Y0 Z5.000
G0 Z-237.000
G1 Z-238.000 F400
G1 X320.000 Y0.000 F800
G1 Y2.400 F800
G1 X0.000 Y2.400 F800
G1 Y4.800 F800
G1 X320.000 Y4.800 F800
G1 Y7.200 F800
G1 X0.000 Y7.200 F800
G1 Y9.600 F800
G1 X320.000 Y9.600 F800
G0 Z5.000
G0 X0 Y0 Z5.000
G0 Z-239.000
G1 Z-240.000 F400
G1 X320.000 Y0.000 F800
G1 Y2.400 F800
G1 X0.000 Y2.400 F800
G1 Y4.800 F800
G1 X320.000 Y4.800 F800
G1 Y7.200 F800
G1 X0.000 Y7.200 F800
G1 Y9.600 F800
G1 X320.000 Y9.600 F800
G0 Z5.000
G0 X0 Y0 Z5.000
G0 Z-241.000
G1 Z-242.000 F400
G1 X320.000 Y0.000 F800
G1 Y2.400 F800
G1 X0.000 Y2.400 F800
G1 Y4.800 F800
G1 X320.000 Y4.800 F800
G1 Y7.200 F800
G1 X0.000 Y7.200 F800
G1 Y9.600 F800
G1 X320.000 Y9.600 F800
G0 Z5.000
G0 X0 Y0 Z5.000
G0 Z-243.000
G1 Z-244.000 F400
G1 X320.000 Y0.000 F800
G1 Y2.400 F800
G1 X0.000 Y2.400 F800
G1 Y4.800 F800
G1 X320.000 Y4.800 F800
G1 Y7.200 F800
G1 X0.000 Y7.200 F800
G1 Y9.600 F800
G1 X320.000 Y9.600 F800
G0 Z5.000
G0 X0 Y0 Z5.000
G0 Z-245.000
G1 Z-246.000 F400
G1 X320.000 Y0.000 F800
G1 Y2.400 F800
G1 X0.000 Y2.400 F800
G1 Y4.800 F800
G1 X320.000 Y4.800 F800
G1 Y7.200 F800
G1 X0.000 Y7.200 F800
G1 Y9.600 F800
G1 X320.000 Y9.600 F800
G0 Z5.000
G0 X0 Y0 Z5.000
G0 Z-247.000
G1 Z-248.000 F400
G1 X320.000 Y0.000 F800
G1 Y2.400 F800
G1 X0.000 Y2.400 F800
G1 Y4.800 F800
G1 X320.000 Y4.800 F800
G1 Y7.200 F800
G1 X0.000 Y7.200 F800
G1 Y9.600 F800
G1 X320.000 Y9.600 F800
G0 Z5.000
G0 X0 Y0 Z5.000
G0 Z-249.000
G1 Z-250.000 F400
G1 X320.000 Y0.000 F800
G1 Y2.400 F800
G1 X0.000 Y2.400 F800
G1 Y4.800 F800
G1 X320.000 Y4.800 F800
G1 Y7.200 F800
G1 X0.000 Y7.200 F800
G1 Y9.600 F800
G1 X320.000 Y9.600 F800
G0 Z5.000
G0 X0 Y0 Z5.000
G0 Z-251.000
G1 Z-252.000 F400
G1 X320.000 Y0.000 F800
G1 Y2.400 F800
G1 X0.000 Y2.400 F800
G1 Y4.800 F800
G1 X320.000 Y4.800 F800
G1 Y7.200 F800
G1 X0.000 Y7.200 F800
G1 Y9.600 F800
G1 X320.000 Y9.600 F800
G0 Z5.000
G0 X0 Y0 Z5.000
G0 Z-253.000
G1 Z-254.000 F400
G1 X320.000 Y0.000 F800
G1 Y2.400 F800
G1 X0.000 Y2.400 F800
G1 Y4.800 F800
G1 X320.000 Y4.800 F800
G1 Y7.200 F800
G1 X0.000 Y7.200 F800
G1 Y9.600 F800
G1 X320.000 Y9.600 F800
G0 Z5.000
G0 X0 Y0 Z5.000
G0 Z-255.000
G1 Z-256.000 F400
G1 X320.000 Y0.000 F800
G1 Y2.400 F800
G1 X0.000 Y2.400 F800
G1 Y4.800 F800
G1 X320.000 Y4.800 F800
G1 Y7.200 F800
G1 X0.000 Y7.200 F800
G1 Y9.600 F800
G1 X320.000 Y9.600 F800
G0 Z5.000
G0 X0 Y0 Z5.000
G0 Z-257.000
G1 Z-258.000 F400
G1 X320.000 Y0.000 F800
G1 Y2.400 F800
G1 X0.000 Y2.400 F800
G1 Y4.800 F800
G1 X320.000 Y4.800 F800
G1 Y7.200 F800
G1 X0.000 Y7.200 F800
G1 Y9.600 F800
G1 X320.000 Y9.600 F800
G0 Z5.000
G0 X0 Y0 Z5.000
G0 Z-259.000
G1 Z-260.000 F400
G1 X320.000 Y0.000 F800
G1 Y2.400 F800
G1 X0.000 Y2.400 F800
G1 Y4.800 F800
G1 X320.000 Y4.800 F800
G1 Y7.200 F800
G1 X0.000 Y7.200 F800
G1 Y9.600 F800
G1 X320.000 Y9.600 F800
G0 Z5.000
G0 X0 Y0 Z5.000
G0 Z-261.000
G1 Z-262.000 F400
G1 X320.000 Y0.000 F800
G1 Y2.400 F800
G1 X0.000 Y2.400 F800
G1 Y4.800 F800
G1 X320.000 Y4.800 F800
G1 Y7.200 F800
G1 X0.000 Y7.200 F800
G1 Y9.600 F800
G1 X320.000 Y9.600 F800
G0 Z5.000
G0 X0 Y0 Z5.000
G0 Z-263.000
G1 Z-264.000 F400
G1 X320.000 Y0.000 F800
G1 Y2.400 F800
G1 X0.000 Y2.400 F800
G1 Y4.800 F800
G1 X320.000 Y4.800 F800
G1 Y7.200 F800
G1 X0.000 Y7.200 F800
G1 Y9.600 F800
G1 X320.000 Y9.600 F800
G0 Z5.000
G0 X0 Y0 Z5.000
G0 Z-265.000
G1 Z-266.000 F400
G1 X320.000 Y0.000 F800
G1 Y2.400 F800
G1 X0.000 Y2.400 F800
G1 Y4.800 F800
G1 X320.000 Y4.800 F800
G1 Y7.200 F800
G1 X0.000 Y7.200 F800
G1 Y9.600 F800
G1 X320.000 Y9.600 F800
G0 Z5.000
G0 X0 Y0 Z5.000
G0 Z-267.000
G1 Z-268.000 F400
G1 X320.000 Y0.000 F800
G1 Y2.400 F800
G1 X0.000 Y2.400 F800
G1 Y4.800 F800
G1 X320.000 Y4.800 F800
G1 Y7.200 F800
G1 X0.000 Y7.200 F800
G1 Y9.600 F800
G1 X320.000 Y9.600 F800
G0 Z5.000
G0 X0 Y0 Z5.000
G0 Z-269.000
G1 Z-270.000 F400
G1 X320.000 Y0.000 F800
G1 Y2.400 F800
G1 X0.000 Y2.400 F800
G1 Y4.800 F800
G1 X320.000 Y4.800 F800
G1 Y7.200 F800
G1 X0.000 Y7.200 F800
G1 Y9.600 F800
G1 X320.000 Y9.600 F800
G0 Z5.000
G0 X0 Y0 Z5.000
G0 Z-271.000
G1 Z-272.000 F400
G1 X320.000 Y0.000 F800
G1 Y2.400 F800
G1 X0.000 Y2.400 F800
G1 Y4.800 F800
G1 X320.000 Y4.800 F800
G1 Y7.200 F800
G1 X0.000 Y7.200 F800
G1 Y9.600 F800
G1 X320.000 Y9.600 F800
G0 Z5.000
G0 X0 Y0 Z5.000
G0 Z-273.000
G1 Z-274.000 F400
G1 X320.000 Y0.000 F800
G1 Y2.400 F800
G1 X0.000 Y2.400 F800
G1 Y4.800 F800
G1 X320.000 Y4.800 F800
G1 Y7.200 F800
G1 X0.000 Y7.200 F800
G1 Y9.600 F800
G1 X320.000 Y9.600 F800
G0 Z5.000
G0 X0 Y0 Z5.000
G0 Z-275.000
G1 Z-276.000 F400
G1 X320.000 Y0.000 F800
G1 Y2.400 F800
G1 X0.000 Y2.400 F800
G1 Y4.800 F800
G1 X320.000 Y4.800 F800
G1 Y7.200 F800
G1 X0.000 Y7.200 F800
G1 Y9.600 F800
G1 X320.000 Y9.600 F800
G0 Z5.000
G0 X0 Y0 Z5.000
G0 Z-277.000
G1 Z-278.000 F400
G1 X320.000 Y0.000 F800
G1 Y2.400 F800
G1 X0.000 Y2.400 F800
G1 Y4.800 F800
G1 X320.000 Y4.800 F800
G1 Y7.200 F800
G1 X0.000 Y7.200 F800
G1 Y9.600 F800
G1 X320.000 Y9.600 F800
G0 Z5.000
G0 X0 Y0 Z5.000
G0 Z-279.000
G1 Z-280.000 F400
G1 X320.000 Y0.000 F800
G1 Y2.400 F800
G1 X0.000 Y2.400 F800
G1 Y4.800 F800
G1 X320.000 Y4.800 F800
G1 Y7.200 F800
G1 X0.000 Y7.200 F800
G1 Y9.600 F800
G1 X320.000 Y9.600 F800
G0 Z5.000
G0 X0 Y0 Z5.000
G0 Z-281.000
G1 Z-282.000 F400
G1 X320.000 Y0.000 F800
G1 Y2.400 F800
G1 X0.000 Y2.400 F800
G1 Y4.800 F800
G1 X320.000 Y4.800 F800
G1 Y7.200 F800
G1 X0.000 Y7.200 F800
G1 Y9.600 F800
G1 X320.000 Y9.600 F800
G0 Z5.000
G0 X0 Y0 Z5.000
G0 Z-283.000
G1 Z-284.000 F400
G1 X320.000 Y0.000 F800
G1 Y2.400 F800
G1 X0.000 Y2.400 F800
G1 Y4.800 F800
G1 X320.000 Y4.800 F800
G1 Y7.200 F800
G1 X0.000 Y7.200 F800
G1 Y9.600 F800
G1 X320.000 Y9.600 F800
G0 Z5.000
G0 X0 Y0 Z5.000
G0 Z-285.000
G1 Z-286.000 F400
G1 X320.000 Y0.000 F800
G1 Y2.400 F800
G1 X0.000 Y2.400 F800
G1 Y4.800 F800
G1 X320.000 Y4.800 F800
G1 Y7.200 F800
G1 X0.000 Y7.200 F800
G1 Y9.600 F800
G1 X320.000 Y9.600 F800
G0 Z5.000
G0 X0 Y0 Z5.000
G0 Z-287.000
G1 Z-288.000 F400
G1 X320.000 Y0.000 F800
G1 Y2.400 F800
G1 X0.000 Y2.400 F800
G1 Y4.800 F800
G1 X320.000 Y4.800 F800
G1 Y7.200 F800
G1 X0.000 Y7.200 F800
G1 Y9.600 F800
G1 X320.000 Y9.600 F800
G0 Z5.000
G0 X0 Y0 Z5.000
G0 Z-289.000
G1 Z-290.000 F400
G1 X320.000 Y0.000 F800
G1 Y2.400 F800
G1 X0.000 Y2.400 F800
G1 Y4.800 F800
G1 X320.000 Y4.800 F800
G1 Y7.200 F800
G1 X0.000 Y7.200 F800
G1 Y9.600 F800
G1 X320.000 Y9.600 F800
G0 Z5.000
G0 X0 Y0 Z5.000
G0 Z-291.000
G1 Z-292.000 F400
G1 X320.000 Y0.000 F800
G1 Y2.400 F800
G1 X0.000 Y2.400 F800
G1 Y4.800 F800
G1 X320.000 Y4.800 F800
G1 Y7.200 F800
G1 X0.000 Y7.200 F800
G1 Y9.600 F800
G1 X320.000 Y9.600 F800
G0 Z5.000
G0 X0 Y0 Z5.000
G0 Z-293.000
G1 Z-294.000 F400
G1 X320.000 Y0.000 F800
G1 Y2.400 F800
G1 X0.000 Y2.400 F800
G1 Y4.800 F800
G1 X320.000 Y4.800 F800
G1 Y7.200 F800
G1 X0.000 Y7.200 F800
G1 Y9.600 F800
G1 X320.000 Y9.600 F800
G0 Z5.000
G0 X0 Y0 Z5.000
G0 Z-295.000
G1 Z-296.000 F400
G1 X320.000 Y0.000 F800
G1 Y2.400 F800
G1 X0.000 Y2.400 F800
G1 Y4.800 F800
G1 X320.000 Y4.800 F800
G1 Y7.200 F800
G1 X0.000 Y7.200 F800
G1 Y9.600 F800
G1 X320.000 Y9.600 F800
G0 Z5.000
G0 X0 Y0 Z5.000
G0 Z-297.000
G1 Z-298.000 F400
G1 X320.000 Y0.000 F800
G1 Y2.400 F800
G1 X0.000 Y2.400 F800
G1 Y4.800 F800
G1 X320.000 Y4.800 F800
G1 Y7.200 F800
G1 X0.000 Y7.200 F800
G1 Y9.600 F800
G1 X320.000 Y9.600 F800
G0 Z5.000
G0 X0 Y0 Z5.000
G0 Z-299.000
G1 Z-300.000 F400
G1 X320.000 Y0.000 F800
G1 Y2.400 F800
G1 X0.000 Y2.400 F800
G1 Y4.800 F800
G1 X320.000 Y4.800 F800
G1 Y7.200 F800
G1 X0.000 Y7.200 F800
G1 Y9.600 F800
G1 X320.000 Y9.600 F800
G0 Z5.000
G0 X0 Y0 Z5.000
G0 Z-301.000
G1 Z-302.000 F400
G1 X320.000 Y0.000 F800
G1 Y2.400 F800
G1 X0.000 Y2.400 F800
G1 Y4.800 F800
G1 X320.000 Y4.800 F800
G1 Y7.200 F800
G1 X0.000 Y7.200 F800
G1 Y9.600 F800
G1 X320.000 Y9.600 F800
G0 Z5.000
G0 X0 Y0 Z5.000
G0 Z-303.000
G1 Z-304.000 F400
G1 X320.000 Y0.000 F800
G1 Y2.400 F800
G1 X0.000 Y2.400 F800
G1 Y4.800 F800
G1 X320.000 Y4.800 F800
G1 Y7.200 F800
G1 X0.000 Y7.200 F800
G1 Y9.600 F800
G1 X320.000 Y9.600 F800
G0 Z5.000
G0 X0 Y0 Z5.000
G0 Z-305.000
G1 Z-306.000 F400
G1 X320.000 Y0.000 F800
G1 Y2.400 F800
G1 X0.000 Y2.400 F800
G1 Y4.800 F800
G1 X320.000 Y4.800 F800
G1 Y7.200 F800
G1 X0.000 Y7.200 F800
G1 Y9.600 F800
G1 X320.000 Y9.600 F800
G0 Z5.000
G0 X0 Y0 Z5.000
G0 Z-307.000
G1 Z-308.000 F400
G1 X320.000 Y0.000 F800
G1 Y2.400 F800
G1 X0.000 Y2.400 F800
G1 Y4.800 F800
G1 X320.000 Y4.800 F800
G1 Y7.200 F800
G1 X0.000 Y7.200 F800
G1 Y9.600 F800
G1 X320.000 Y9.600 F800
G0 Z5.000
G0 X0 Y0 Z5.000
G0 Z-309.000
G1 Z-310.000 F400
G1 X320.000 Y0.000 F800
G1 Y2.400 F800
G1 X0.000 Y2.400 F800
G1 Y4.800 F800
G1 X320.000 Y4.800 F800
G1 Y7.200 F800
G1 X0.000 Y7.200 F800
G1 Y9.600 F800
G1 X320.000 Y9.600 F800
G0 Z5.000
G0 X0 Y0 Z5.000
G0 Z-311.000
G1 Z-312.000 F400
G1 X320.000 Y0.000 F800
G1 Y2.400 F800
G1 X0.000 Y2.400 F800
G1 Y4.800 F800
G1 X320.000 Y4.800 F800
G1 Y7.200 F800
G1 X0.000 Y7.200 F800
G1 Y9.600 F800
G1 X320.000 Y9.600 F800
G0 Z5.000
G0 X0 Y0 Z5.000
G0 Z-313.000
G1 Z-314.000 F400
G1 X320.000 Y0.000 F800
G1 Y2.400 F800
G1 X0.000 Y2.400 F800
G1 Y4.800 F800
G1 X320.000 Y4.800 F800
G1 Y7.200 F800
G1 X0.000 Y7.200 F800
G1 Y9.600 F800
G1 X320.000 Y9.600 F800
G0 Z5.000
G0 X0 Y0 Z5.000
G0 Z-315.000
G1 Z-316.000 F400
G1 X320.000 Y0.000 F800
G1 Y2.400 F800
G1 X0.000 Y2.400 F800
G1 Y4.800 F800
G1 X320.000 Y4.800 F800
G1 Y7.200 F800
G1 X0.000 Y7.200 F800
G1 Y9.600 F800
G1 X320.000 Y9.600 F800
G0 Z5.000
G0 X0 Y0 Z5.000
G0 Z-317.000
G1 Z-318.000 F400
G1 X320.000 Y0.000 F800
G1 Y2.400 F800
G1 X0.000 Y2.400 F800
G1 Y4.800 F800
G1 X320.000 Y4.800 F800
G1 Y7.200 F800
G1 X0.000 Y7.200 F800
G1 Y9.600 F800
G1 X320.000 Y9.600 F800
G0 Z5.000
G0 X0 Y0 Z5.000
G0 Z-319.000
G1 Z-320.000 F400
G1 X320.000 Y0.000 F800
G1 Y2.400 F800
G1 X0.000 Y2.400 F800
G1 Y4.800 F800
G1 X320.000 Y4.800 F800
G1 Y7.200 F800
G1 X0.000 Y7.200 F800
G1 Y9.600 F800
G1 X320.000 Y9.600 F800
G0 Z5.000
G0 X0 Y0 Z5.000
G0 Z-321.000
G1 Z-322.000 F400
G1 X320.000 Y0.000 F800
G1 Y2.400 F800
G1 X0.000 Y2.400 F800
G1 Y4.800 F800
G1 X320.000 Y4.800 F800
G1 Y7.200 F800
G1 X0.000 Y7.200 F800
G1 Y9.600 F800
G1 X320.000 Y9.600 F800
G0 Z5.000
G0 X0 Y0 Z5.000
G0 Z-323.000
G1 Z-324.000 F400
G1 X320.000 Y0.000 F800
G1 Y2.400 F800
G1 X0.000 Y2.400 F800
G1 Y4.800 F800
G1 X320.000 Y4.800 F800
G1 Y7.200 F800
G1 X0.000 Y7.200 F800
G1 Y9.600 F800
G1 X320.000 Y9.600 F800
G0 Z5.000
G0 X0 Y0 Z5.000
G0 Z-325.000
G1 Z-326.000 F400
G1 X320.000 Y0.000 F800
G1 Y2.400 F800
G1 X0.000 Y2.400 F800
G1 Y4.800 F800
G1 X320.000 Y4.800 F800
G1 Y7.200 F800
G1 X0.000 Y7.200 F800
G1 Y9.600 F800
G1 X320.000 Y9.600 F800
G0 Z5.000
G0 X0 Y0 Z5.000
G0 Z-327.000
G1 Z-328.000 F400
G1 X320.000 Y0.000 F800
G1 Y2.400 F800
G1 X0.000 Y2.400 F800
G1 Y4.800 F800
G1 X320.000 Y4.800 F800
G1 Y7.200 F800
G1 X0.000 Y7.200 F800
G1 Y9.600 F800
G1 X320.000 Y9.600 F800
G0 Z5.000
G0 X0 Y0 Z5.000
G0 Z-329.000
G1 Z-330.000 F400
G1 X320.000 Y0.000 F800
G1 Y2.400 F800
G1 X0.000 Y2.400 F800
G1 Y4.800 F800
G1 X320.000 Y4.800 F800
G1 Y7.200 F800
G1 X0.000 Y7.200 F800
G1 Y9.600 F800
G1 X320.000 Y9.600 F800
G0 Z5.000
G0 X0 Y0 Z5.000
G0 Z-331.000
G1 Z-332.000 F400
G1 X320.000 Y0.000 F800
G1 Y2.400 F800
G1 X0.000 Y2.400 F800
G1 Y4.800 F800
G1 X320.000 Y4.800 F800
G1 Y7.200 F800
G1 X0.000 Y7.200 F800
G1 Y9.600 F800
G1 X320.000 Y9.600 F800
G0 Z5.000
G0 X0 Y0 Z5.000
G0 Z-333.000
G1 Z-334.000 F400
G1 X320.000 Y0.000 F800
G1 Y2.400 F800
G1 X0.000 Y2.400 F800
G1 Y4.800 F800
G1 X320.000 Y4.800 F800
G1 Y7.200 F800
G1 X0.000 Y7.200 F800
G1 Y9.600 F800
G1 X320.000 Y9.600 F800
G0 Z5.000
G0 X0 Y0 Z5.000
G0 Z-335.000
G1 Z-336.000 F400
G1 X320.000 Y0.000 F800
G1 Y2.400 F800
G1 X0.000 Y2.400 F800
G1 Y4.800 F800
G1 X320.000 Y4.800 F800
G1 Y7.200 F800
G1 X0.000 Y7.200 F800
G1 Y9.600 F800
G1 X320.000 Y9.600 F800
G0 Z5.000
G0 X0 Y0 Z5.000
G0 Z-337.000
G1 Z-338.000 F400
G1 X320.000 Y0.000 F800
G1 Y2.400 F800
G1 X0.000 Y2.400 F800
G1 Y4.800 F800
G1 X320.000 Y4.800 F800
G1 Y7.200 F800
G1 X0.000 Y7.200 F800
G1 Y9.600 F800
G1 X320.000 Y9.600 F800
G0 Z5.000
G0 X0 Y0 Z5.000
G0 Z-339.000
G1 Z-340.000 F400
G1 X320.000 Y0.000 F800
G1 Y2.400 F800
G1 X0.000 Y2.400 F800
G1 Y4.800 F800
G1 X320.000 Y4.800 F800
G1 Y7.200 F800
G1 X0.000 Y7.200 F800
G1 Y9.600 F800
G1 X320.000 Y9.600 F800
G0 Z5.000
G0 X0 Y0 Z5.000
G0 Z-341.000
G1 Z-342.000 F400
G1 X320.000 Y0.000 F800
G1 Y2.400 F800
G1 X0.000 Y2.400 F800
G1 Y4.800 F800
G1 X320.000 Y4.800 F800
G1 Y7.200 F800
G1 X0.000 Y7.200 F800
G1 Y9.600 F800
G1 X320.000 Y9.600 F800
G0 Z5.000
G0 X0 Y0 Z5.000
G0 Z-343.000
G1 Z-344.000 F400
G1 X320.000 Y0.000 F800
G1 Y2.400 F800
G1 X0.000 Y2.400 F800
G1 Y4.800 F800
G1 X320.000 Y4.800 F800
G1 Y7.200 F800
G1 X0.000 Y7.200 F800
G1 Y9.600 F800
G1 X320.000 Y9.600 F800
G0 Z5.000
G0 X0 Y0 Z5.000
G0 Z-345.000
G1 Z-346.000 F400
G1 X320.000 Y0.000 F800
G1 Y2.400 F800
G1 X0.000 Y2.400 F800
G1 Y4.800 F800
G1 X320.000 Y4.800 F800
G1 Y7.200 F800
G1 X0.000 Y7.200 F800
G1 Y9.600 F800
G1 X320.000 Y9.600 F800
G0 Z5.000
G0 X0 Y0 Z5.000
G0 Z-347.000
G1 Z-348.000 F400
G1 X320.000 Y0.000 F800
G1 Y2.400 F800
G1 X0.000 Y2.400 F800
G1 Y4.800 F800
G1 X320.000 Y4.800 F800
G1 Y7.200 F800
G1 X0.000 Y7.200 F800
G1 Y9.600 F800
G1 X320.000 Y9.600 F800
G0 Z5.000
G0 X0 Y0 Z5.000
G0 Z-349.000
G1 Z-350.000 F400
G1 X320.000 Y0.000 F800
G1 Y2.400 F800
G1 X0.000 Y2.400 F800
G1 Y4.800 F800
G1 X320.000 Y4.800 F800
G1 Y7.200 F800
G1 X0.000 Y7.200 F800
G1 Y9.600 F800
G1 X320.000 Y9.600 F800
G0 Z5.000
G0 X0 Y0 Z5.000
G0 Z-351.000
G1 Z-352.000 F400
G1 X320.000 Y0.000 F800
G1 Y2.400 F800
G1 X0.000 Y2.400 F800
G1 Y4.800 F800
G1 X320.000 Y4.800 F800
G1 Y7.200 F800
G1 X0.000 Y7.200 F800
G1 Y9.600 F800
G1 X320.000 Y9.600 F800
G0 Z5.000
G0 X0 Y0 Z5.000
G0 Z-353.000
G1 Z-354.000 F400
G1 X320.000 Y0.000 F800
G1 Y2.400 F800
G1 X0.000 Y2.400 F800
G1 Y4.800 F800
G1 X320.000 Y4.800 F800
G1 Y7.200 F800
G1 X0.000 Y7.200 F800
G1 Y9.600 F800
G1 X320.000 Y9.600 F800
G0 Z5.000
G0 X0 Y0 Z5.000
G0 Z-355.000
G1 Z-356.000 F400
G1 X320.000 Y0.000 F800
G1 Y2.400 F800
G1 X0.000 Y2.400 F800
G1 Y4.800 F800
G1 X320.000 Y4.800 F800
G1 Y7.200 F800
G1 X0.000 Y7.200 F800
G1 Y9.600 F800
G1 X320.000 Y9.600 F800
G0 Z5.000
G0 X0 Y0 Z5.000
G0 Z-357.000
G1 Z-358.000 F400
G1 X320.000 Y0.000 F800
G1 Y2.400 F800
G1 X0.000 Y2.400 F800
G1 Y4.800 F800
G1 X320.000 Y4.800 F800
G1 Y7.200 F800
G1 X0.000 Y7.200 F800
G1 Y9.600 F800
G1 X320.000 Y9.600 F800
G0 Z5.000
G0 X0 Y0 Z5.000
G0 Z-359.000
G1 Z-360.000 F400
G1 X320.000 Y0.000 F800
G1 Y2.400 F800
G1 X0.000 Y2.400 F800
G1 Y4.800 F800
G1 X320.000 Y4.800 F800
G1 Y7.200 F800
G1 X0.000 Y7.200 F800
G1 Y9.600 F800
G1 X320.000 Y9.600 F800
G0 Z5.000
G0 X0 Y0 Z5.000
G0 Z-361.000
G1 Z-362.000 F400
G1 X320.000 Y0.000 F800
G1 Y2.400 F800
G1 X0.000 Y2.400 F800
G1 Y4.800 F800
G1 X320.000 Y4.800 F800
G1 Y7.200 F800
G1 X0.000 Y7.200 F800
G1 Y9.600 F800
G1 X320.000 Y9.600 F800
G0 Z5.000
G0 X0 Y0 Z5.000
G0 Z-363.000
G1 Z-364.000 F400
G1 X320.000 Y0.000 F800
G1 Y2.400 F800
G1 X0.000 Y2.400 F800
G1 Y4.800 F800
G1 X320.000 Y4.800 F800
G1 Y7.200 F800
G1 X0.000 Y7.200 F800
G1 Y9.600 F800
G1 X320.000 Y9.600 F800
G0 Z5.000
G0 X0 Y0 Z5.000
G0 Z-365.000
G1 Z-366.000 F400
G1 X320.000 Y0.000 F800
G1 Y2.400 F800
G1 X0.000 Y2.400 F800
G1 Y4.800 F800
G1 X320.000 Y4.800 F800
G1 Y7.200 F800
G1 X0.000 Y7.200 F800
G1 Y9.600 F800
G1 X320.000 Y9.600 F800
G0 Z5.000
G0 X0 Y0 Z5.000
G0 Z-367.000
G1 Z-368.000 F400
G1 X320.000 Y0.000 F800
G1 Y2.400 F800
G1 X0.000 Y2.400 F800
G1 Y4.800 F800
G1 X320.000 Y4.800 F800
G1 Y7.200 F800
G1 X0.000 Y7.200 F800
G1 Y9.600 F800
G1 X320.000 Y9.600 F800
G0 Z5.000
G0 X0 Y0 Z5.000
G0 Z-369.000
G1 Z-370.000 F400
G1 X320.000 Y0.000 F800
G1 Y2.400 F800
G1 X0.000 Y2.400 F800
G1 Y4.800 F800
G1 X320.000 Y4.800 F800
G1 Y7.200 F800
G1 X0.000 Y7.200 F800
G1 Y9.600 F800
G1 X320.000 Y9.600 F800
G0 Z5.000
G0 X0 Y0 Z5.000
G0 Z-371.000
G1 Z-372.000 F400
G1 X320.000 Y0.000 F800
G1 Y2.400 F800
G1 X0.000 Y2.400 F800
G1 Y4.800 F800
G1 X320.000 Y4.800 F800
G1 Y7.200 F800
G1 X0.000 Y7.200 F800
G1 Y9.600 F800
G1 X320.000 Y9.600 F800
G0 Z5.000
G0 X0 Y0 Z5.000
G0 Z-373.000
G1 Z-374.000 F400
G1 X320.000 Y0.000 F800
G1 Y2.400 F800
G1 X0.000 Y2.400 F800
G1 Y4.800 F800
G1 X320.000 Y4.800 F800
G1 Y7.200 F800
G1 X0.000 Y7.200 F800
G1 Y9.600 F800
G1 X320.000 Y9.600 F800
G0 Z5.000
G0 X0 Y0 Z5.000
G0 Z-375.000
G1 Z-376.000 F400
G1 X320.000 Y0.000 F800
G1 Y2.400 F800
G1 X0.000 Y2.400 F800
G1 Y4.800 F800
G1 X320.000 Y4.800 F800
G1 Y7.200 F800
G1 X0.000 Y7.200 F800
G1 Y9.600 F800
G1 X320.000 Y9.600 F800
G0 Z5.000
G0 X0 Y0 Z5.000
G0 Z-377.000
G1 Z-378.000 F400
G1 X320.000 Y0.000 F800
G1 Y2.400 F800
G1 X0.000 Y2.400 F800
G1 Y4.800 F800
G1 X320.000 Y4.800 F800
G1 Y7.200 F800
G1 X0.000 Y7.200 F800
G1 Y9.600 F800
G1 X320.000 Y9.600 F800
G0 Z5.000
G0 X0 Y0 Z5.000
G0 Z-379.000
G1 Z-380.000 F400
G1 X320.000 Y0.000 F800
G1 Y2.400 F800
G1 X0.000 Y2.400 F800
G1 Y4.800 F800
G1 X320.000 Y4.800 F800
G1 Y7.200 F800
G1 X0.000 Y7.200 F800
G1 Y9.600 F800
G1 X320.000 Y9.600 F800
G0 Z5.000
G0 X0 Y0 Z5.000
G0 Z-381.000
G1 Z-382.000 F400
G1 X320.000 Y0.000 F800
G1 Y2.400 F800
G1 X0.000 Y2.400 F800
G1 Y4.800 F800
G1 X320.000 Y4.800 F800
G1 Y7.200 F800
G1 X0.000 Y7.200 F800
G1 Y9.600 F800
G1 X320.000 Y9.600 F800
G0 Z5.000
G0 X0 Y0 Z5.000
G0 Z-383.000
G1 Z-384.000 F400
G1 X320.000 Y0.000 F800
G1 Y2.400 F800
G1 X0.000 Y2.400 F800
G1 Y4.800 F800
G1 X320.000 Y4.800 F800
G1 Y7.200 F800
G1 X0.000 Y7.200 F800
G1 Y9.600 F800
G1 X320.000 Y9.600 F800
G0 Z5.000
G0 X0 Y0 Z5.000
G0 Z-384.000
G1 Z-385.000 F400
G1 X320.000 Y0.000 F800
G1 Y2.400 F800
G1 X0.000 Y2.400 F800
G1 Y4.800 F800
G1 X320.000 Y4.800 F800
G1 Y7.200 F800
G1 X0.000 Y7.200 F800
G1 Y9.600 F800
G1 X320.000 Y9.600 F800
G0 Z5.000
G0 X0 Y0
M5
M30
