(Cloud CAM Generated for Job 22d8c4e4-63c3-4f50-8b10-5054e76aee26)
(Model: 556.3 x 110.0 x 20.0 mm)
(Params: step_down=2.0 spindle=4000 feed=800.0)
G17 (XY plane selection)
G21 (metric)
G90 (absolute positioning)
G40 (cancel cutter radius compensation)
G49 (cancel tool length offset)
(Strategy: stock_aware_fallback)
(--- Tool T6: D8 平底铣刀, Roughing ---)
T6 M6
S4000 M3
G4 P1 (dwell 1s for spindle ramp-up)
G0 Z10.000
G0 X1.000 Y1.000 Z10.000
G1 Z1.000 F400
G1 X555.350 Y1.000 F800
G0 Z10.000
G0 X555.350 Y4.200 Z10.000
G1 Z1.000 F400
G1 X1.000 Y4.200 F800
G0 Z10.000
G0 X1.000 Y7.400 Z10.000
G1 Z1.000 F400
G1 X555.350 Y7.400 F800
G0 Z10.000
G0 X555.350 Y10.600 Z10.000
G1 Z1.000 F400
G1 X1.000 Y10.600 F800
G0 Z10.000
G0 X1.000 Y13.800 Z10.000
G1 Z1.000 F400
G1 X555.350 Y13.800 F800
G0 Z10.000
G0 X555.350 Y17.000 Z10.000
G1 Z1.000 F400
G1 X1.000 Y17.000 F800
G0 Z10.000
G0 X1.000 Y20.200 Z10.000
G1 Z1.000 F400
G1 X555.350 Y20.200 F800
G0 Z10.000
G0 X555.350 Y23.400 Z10.000
G1 Z1.000 F400
G1 X1.000 Y23.400 F800
G0 Z10.000
G0 X1.000 Y26.600 Z10.000
G1 Z1.000 F400
G1 X555.350 Y26.600 F800
G0 Z10.000
G0 X555.350 Y29.800 Z10.000
G1 Z1.000 F400
G1 X1.000 Y29.800 F800
G0 Z10.000
G0 X1.000 Y33.000 Z10.000
G1 Z1.000 F400
G1 X555.350 Y33.000 F800
G0 Z10.000
G0 X555.350 Y36.200 Z10.000
G1 Z1.000 F400
G1 X1.000 Y36.200 F800
G0 Z10.000
G0 X1.000 Y39.400 Z10.000
G1 Z1.000 F400
G1 X555.350 Y39.400 F800
G0 Z10.000
G0 X555.350 Y42.600 Z10.000
G1 Z1.000 F400
G1 X1.000 Y42.600 F800
G0 Z10.000
G0 X1.000 Y45.800 Z10.000
G1 Z1.000 F400
G1 X555.350 Y45.800 F800
G0 Z10.000
G0 X555.350 Y49.000 Z10.000
G1 Z1.000 F400
G1 X1.000 Y49.000 F800
G0 Z10.000
G0 X1.000 Y52.200 Z10.000
G1 Z1.000 F400
G1 X555.350 Y52.200 F800
G0 Z10.000
G0 X555.350 Y55.400 Z10.000
G1 Z1.000 F400
G1 X1.000 Y55.400 F800
G0 Z10.000
G0 X1.000 Y58.600 Z10.000
G1 Z1.000 F400
G1 X555.350 Y58.600 F800
G0 Z10.000
G0 X555.350 Y61.800 Z10.000
G1 Z1.000 F400
G1 X1.000 Y61.800 F800
G0 Z10.000
G0 X1.000 Y65.000 Z10.000
G1 Z1.000 F400
G1 X555.350 Y65.000 F800
G0 Z10.000
G0 X555.350 Y68.200 Z10.000
G1 Z1.000 F400
G1 X1.000 Y68.200 F800
G0 Z10.000
G0 X1.000 Y71.400 Z10.000
G1 Z1.000 F400
G1 X555.350 Y71.400 F800
G0 Z10.000
G0 X555.350 Y74.600 Z10.000
G1 Z1.000 F400
G1 X1.000 Y74.600 F800
G0 Z10.000
G0 X1.000 Y77.800 Z10.000
G1 Z1.000 F400
G1 X555.350 Y77.800 F800
G0 Z10.000
G0 X555.350 Y81.000 Z10.000
G1 Z1.000 F400
G1 X1.000 Y81.000 F800
G0 Z10.000
G0 X1.000 Y84.200 Z10.000
G1 Z1.000 F400
G1 X555.350 Y84.200 F800
G0 Z10.000
G0 X555.350 Y87.400 Z10.000
G1 Z1.000 F400
G1 X1.000 Y87.400 F800
G0 Z10.000
G0 X1.000 Y90.600 Z10.000
G1 Z1.000 F400
G1 X555.350 Y90.600 F800
G0 Z10.000
G0 X555.350 Y93.800 Z10.000
G1 Z1.000 F400
G1 X1.000 Y93.800 F800
G0 Z10.000
G0 X1.000 Y97.000 Z10.000
G1 Z1.000 F400
G1 X555.350 Y97.000 F800
G0 Z10.000
G0 X555.350 Y100.200 Z10.000
G1 Z1.000 F400
G1 X1.000 Y100.200 F800
G0 Z10.000
G0 X1.000 Y103.400 Z10.000
G1 Z1.000 F400
G1 X555.350 Y103.400 F800
G0 Z10.000
G0 X555.350 Y106.600 Z10.000
G1 Z1.000 F400
G1 X1.000 Y106.600 F800
G0 Z10.000
G0 X277.357 Y20.060 Z10.000
G1 Z-1.000 F400
G1 X284.327 Y20.060 F800
G0 Z10.000
G0 X317.357 Y20.060 Z10.000
G1 Z-1.000 F400
G1 X324.327 Y20.060 F800
G0 Z10.000
G0 X322.797 Y23.260 Z10.000
G1 Z-1.000 F400
G1 X318.887 Y23.260 F800
G0 Z10.000
G0 X282.797 Y23.260 Z10.000
G1 Z-1.000 F400
G1 X278.887 Y23.260 F800
G0 Z10.000
G0 X291.135 Y39.260 Z10.000
G1 Z-1.000 F400
G1 X310.549 Y39.260 F800
G0 Z10.000
G0 X314.428 Y42.460 Z10.000
G1 Z-1.000 F400
G1 X287.256 Y42.460 F800
G0 Z10.000
G0 X43.267 Y45.660 Z10.000
G1 Z-1.000 F400
G1 X228.319 Y45.660 F800
G0 Z10.000
G0 X284.882 Y45.660 Z10.000
G1 Z-1.000 F400
G1 X316.801 Y45.660 F800
G0 Z10.000
G0 X371.837 Y45.660 Z10.000
G1 Z-1.000 F400
G1 X511.889 Y45.660 F800
G0 Z10.000
G0 X514.666 Y48.860 Z10.000
G1 Z-1.000 F400
G1 X369.058 Y48.860 F800
G0 Z10.000
G0 X318.282 Y48.860 Z10.000
G1 Z-1.000 F400
G1 X283.402 Y48.860 F800
G0 Z10.000
G0 X231.097 Y48.860 Z10.000
G1 Z-1.000 F400
G1 X40.488 Y48.860 F800
G0 Z10.000
G0 X39.163 Y52.060 Z10.000
G1 Z-1.000 F400
G1 X232.421 Y52.060 F800
G0 Z10.000
G0 X258.947 Y52.060 Z10.000
G1 Z-1.000 F400
G1 X262.737 Y52.060 F800
G0 Z10.000
G0 X282.588 Y52.060 Z10.000
G1 Z-1.000 F400
G1 X319.096 Y52.060 F800
G0 Z10.000
G0 X338.947 Y52.060 Z10.000
G1 Z-1.000 F400
G1 X342.737 Y52.060 F800
G0 Z10.000
G0 X367.732 Y52.060 Z10.000
G1 Z-1.000 F400
G1 X515.991 Y52.060 F800
G0 Z10.000
G0 X516.356 Y55.260 Z10.000
G1 Z-1.000 F400
G1 X367.368 Y55.260 F800
G0 Z10.000
G0 X344.331 Y55.260 Z10.000
G1 Z-1.000 F400
G1 X337.353 Y55.260 F800
G0 Z10.000
G0 X319.330 Y55.260 Z10.000
G1 Z-1.000 F400
G1 X282.354 Y55.260 F800
G0 Z10.000
G0 X264.331 Y55.260 Z10.000
G1 Z-1.000 F400
G1 X257.353 Y55.260 F800
G0 Z10.000
G0 X232.787 Y55.260 Z10.000
G1 Z-1.000 F400
G1 X38.799 Y55.260 F800
G0 Z10.000
G0 X39.307 Y58.460 Z10.000
G1 Z-1.000 F400
G1 X232.276 Y58.460 F800
G0 Z10.000
G0 X260.325 Y58.460 Z10.000
G1 Z-1.000 F400
G1 X261.359 Y58.460 F800
G0 Z10.000
G0 X282.679 Y58.460 Z10.000
G1 Z-1.000 F400
G1 X319.005 Y58.460 F800
G0 Z10.000
G0 X340.325 Y58.460 Z10.000
G1 Z-1.000 F400
G1 X341.359 Y58.460 F800
G0 Z10.000
G0 X367.876 Y58.460 Z10.000
G1 Z-1.000 F400
G1 X515.846 Y58.460 F800
G0 Z10.000
G0 X514.337 Y61.660 Z10.000
G1 Z-1.000 F400
G1 X369.386 Y61.660 F800
G0 Z10.000
G0 X318.093 Y61.660 Z10.000
G1 Z-1.000 F400
G1 X283.591 Y61.660 F800
G0 Z10.000
G0 X230.768 Y61.660 Z10.000
G1 Z-1.000 F400
G1 X40.816 Y61.660 F800
G0 Z10.000
G0 X43.961 Y64.860 Z10.000
G1 Z-1.000 F400
G1 X227.625 Y64.860 F800
G0 Z10.000
G0 X285.200 Y64.860 Z10.000
G1 Z-1.000 F400
G1 X316.483 Y64.860 F800
G0 Z10.000
G0 X372.530 Y64.860 Z10.000
G1 Z-1.000 F400
G1 X511.195 Y64.860 F800
G0 Z10.000
G0 X313.930 Y68.060 Z10.000
G1 Z-1.000 F400
G1 X287.754 Y68.060 F800
G0 Z10.000
G0 X292.033 Y71.260 Z10.000
G1 Z-1.000 F400
G1 X309.651 Y71.260 F800
G0 Z10.000
G0 X323.404 Y87.260 Z10.000
G1 Z-1.000 F400
G1 X318.280 Y87.260 F800
G0 Z10.000
G0 X283.404 Y87.260 Z10.000
G1 Z-1.000 F400
G1 X278.280 Y87.260 F800
G0 Z10.000
G0 X277.441 Y90.460 Z10.000
G1 Z-1.000 F400
G1 X284.243 Y90.460 F800
G0 Z10.000
G0 X317.441 Y90.460 Z10.000
G1 Z-1.000 F400
G1 X324.243 Y90.460 F800
G0 Z10.000
G0 X277.357 Y20.060 Z10.000
G1 Z-3.000 F400
G1 X284.327 Y20.060 F800
G0 Z10.000
G0 X317.357 Y20.060 Z10.000
G1 Z-3.000 F400
G1 X324.327 Y20.060 F800
G0 Z10.000
G0 X322.797 Y23.260 Z10.000
G1 Z-3.000 F400
G1 X318.887 Y23.260 F800
G0 Z10.000
G0 X282.797 Y23.260 Z10.000
G1 Z-3.000 F400
G1 X278.887 Y23.260 F800
G0 Z10.000
G0 X291.135 Y39.260 Z10.000
G1 Z-3.000 F400
G1 X310.549 Y39.260 F800
G0 Z10.000
G0 X314.428 Y42.460 Z10.000
G1 Z-3.000 F400
G1 X287.256 Y42.460 F800
G0 Z10.000
G0 X43.267 Y45.660 Z10.000
G1 Z-3.000 F400
G1 X228.319 Y45.660 F800
G0 Z10.000
G0 X284.882 Y45.660 Z10.000
G1 Z-3.000 F400
G1 X316.801 Y45.660 F800
G0 Z10.000
G0 X371.836 Y45.660 Z10.000
G1 Z-3.000 F400
G1 X511.889 Y45.660 F800
G0 Z10.000
G0 X514.666 Y48.860 Z10.000
G1 Z-3.000 F400
G1 X369.056 Y48.860 F800
G0 Z10.000
G0 X318.282 Y48.860 Z10.000
G1 Z-3.000 F400
G1 X283.402 Y48.860 F800
G0 Z10.000
G0 X231.098 Y48.860 Z10.000
G1 Z-3.000 F400
G1 X40.487 Y48.860 F800
G0 Z10.000
G0 X39.163 Y52.060 Z10.000
G1 Z-3.000 F400
G1 X232.421 Y52.060 F800
G0 Z10.000
G0 X258.947 Y52.060 Z10.000
G1 Z-3.000 F400
G1 X262.737 Y52.060 F800
G0 Z10.000
G0 X282.588 Y52.060 Z10.000
G1 Z-3.000 F400
G1 X319.096 Y52.060 F800
G0 Z10.000
G0 X338.947 Y52.060 Z10.000
G1 Z-3.000 F400
G1 X342.737 Y52.060 F800
G0 Z10.000
G0 X367.732 Y52.060 Z10.000
G1 Z-3.000 F400
G1 X515.991 Y52.060 F800
G0 Z10.000
G0 X516.357 Y55.260 Z10.000
G1 Z-3.000 F400
G1 X367.368 Y55.260 F800
G0 Z10.000
G0 X344.331 Y55.260 Z10.000
G1 Z-3.000 F400
G1 X337.353 Y55.260 F800
G0 Z10.000
G0 X319.330 Y55.260 Z10.000
G1 Z-3.000 F400
G1 X282.354 Y55.260 F800
G0 Z10.000
G0 X264.331 Y55.260 Z10.000
G1 Z-3.000 F400
G1 X257.353 Y55.260 F800
G0 Z10.000
G0 X232.787 Y55.260 Z10.000
G1 Z-3.000 F400
G1 X38.799 Y55.260 F800
G0 Z10.000
G0 X39.307 Y58.460 Z10.000
G1 Z-3.000 F400
G1 X232.278 Y58.460 F800
G0 Z10.000
G0 X260.325 Y58.460 Z10.000
G1 Z-3.000 F400
G1 X261.359 Y58.460 F800
G0 Z10.000
G0 X282.679 Y58.460 Z10.000
G1 Z-3.000 F400
G1 X319.005 Y58.460 F800
G0 Z10.000
G0 X340.325 Y58.460 Z10.000
G1 Z-3.000 F400
G1 X341.359 Y58.460 F800
G0 Z10.000
G0 X367.876 Y58.460 Z10.000
G1 Z-3.000 F400
G1 X515.846 Y58.460 F800
G0 Z10.000
G0 X514.338 Y61.660 Z10.000
G1 Z-3.000 F400
G1 X369.385 Y61.660 F800
G0 Z10.000
G0 X318.093 Y61.660 Z10.000
G1 Z-3.000 F400
G1 X283.591 Y61.660 F800
G0 Z10.000
G0 X230.768 Y61.660 Z10.000
G1 Z-3.000 F400
G1 X40.815 Y61.660 F800
G0 Z10.000
G0 X43.961 Y64.860 Z10.000
G1 Z-3.000 F400
G1 X227.626 Y64.860 F800
G0 Z10.000
G0 X285.200 Y64.860 Z10.000
G1 Z-3.000 F400
G1 X316.483 Y64.860 F800
G0 Z10.000
G0 X372.530 Y64.860 Z10.000
G1 Z-3.000 F400
G1 X511.195 Y64.860 F800
G0 Z10.000
G0 X313.930 Y68.060 Z10.000
G1 Z-3.000 F400
G1 X287.754 Y68.060 F800
G0 Z10.000
G0 X292.033 Y71.260 Z10.000
G1 Z-3.000 F400
G1 X309.651 Y71.260 F800
G0 Z10.000
G0 X323.404 Y87.260 Z10.000
G1 Z-3.000 F400
G1 X318.280 Y87.260 F800
G0 Z10.000
G0 X283.404 Y87.260 Z10.000
G1 Z-3.000 F400
G1 X278.280 Y87.260 F800
G0 Z10.000
G0 X277.441 Y90.460 Z10.000
G1 Z-3.000 F400
G1 X284.243 Y90.460 F800
G0 Z10.000
G0 X317.441 Y90.460 Z10.000
G1 Z-3.000 F400
G1 X324.243 Y90.460 F800
G0 Z10.000
G0 X277.357 Y20.060 Z10.000
G1 Z-5.000 F400
G1 X284.327 Y20.060 F800
G0 Z10.000
G0 X317.357 Y20.060 Z10.000
G1 Z-5.000 F400
G1 X324.327 Y20.060 F800
G0 Z10.000
G0 X322.797 Y23.260 Z10.000
G1 Z-5.000 F400
G1 X318.887 Y23.260 F800
G0 Z10.000
G0 X282.797 Y23.260 Z10.000
G1 Z-5.000 F400
G1 X278.887 Y23.260 F800
G0 Z10.000
G0 X291.135 Y39.260 Z10.000
G1 Z-5.000 F400
G1 X310.549 Y39.260 F800
G0 Z10.000
G0 X314.428 Y42.460 Z10.000
G1 Z-5.000 F400
G1 X287.256 Y42.460 F800
G0 Z10.000
G0 X43.267 Y45.660 Z10.000
G1 Z-5.000 F400
G1 X228.319 Y45.660 F800
G0 Z10.000
G0 X284.882 Y45.660 Z10.000
G1 Z-5.000 F400
G1 X316.801 Y45.660 F800
G0 Z10.000
G0 X371.836 Y45.660 Z10.000
G1 Z-5.000 F400
G1 X511.889 Y45.660 F800
G0 Z10.000
G0 X514.667 Y48.860 Z10.000
G1 Z-5.000 F400
G1 X369.056 Y48.860 F800
G0 Z10.000
G0 X318.282 Y48.860 Z10.000
G1 Z-5.000 F400
G1 X283.402 Y48.860 F800
G0 Z10.000
G0 X231.098 Y48.860 Z10.000
G1 Z-5.000 F400
G1 X40.487 Y48.860 F800
G0 Z10.000
G0 X39.163 Y52.060 Z10.000
G1 Z-5.000 F400
G1 X232.421 Y52.060 F800
G0 Z10.000
G0 X258.947 Y52.060 Z10.000
G1 Z-5.000 F400
G1 X262.737 Y52.060 F800
G0 Z10.000
G0 X282.588 Y52.060 Z10.000
G1 Z-5.000 F400
G1 X319.096 Y52.060 F800
G0 Z10.000
G0 X338.947 Y52.060 Z10.000
G1 Z-5.000 F400
G1 X342.737 Y52.060 F800
G0 Z10.000
G0 X367.732 Y52.060 Z10.000
G1 Z-5.000 F400
G1 X515.991 Y52.060 F800
G0 Z10.000
G0 X516.357 Y55.260 Z10.000
G1 Z-5.000 F400
G1 X367.368 Y55.260 F800
G0 Z10.000
G0 X344.331 Y55.260 Z10.000
G1 Z-5.000 F400
G1 X337.353 Y55.260 F800
G0 Z10.000
G0 X319.330 Y55.260 Z10.000
G1 Z-5.000 F400
G1 X282.354 Y55.260 F800
G0 Z10.000
G0 X264.331 Y55.260 Z10.000
G1 Z-5.000 F400
G1 X257.353 Y55.260 F800
G0 Z10.000
G0 X232.787 Y55.260 Z10.000
G1 Z-5.000 F400
G1 X38.799 Y55.260 F800
G0 Z10.000
G0 X39.307 Y58.460 Z10.000
G1 Z-5.000 F400
G1 X232.278 Y58.460 F800
G0 Z10.000
G0 X260.325 Y58.460 Z10.000
G1 Z-5.000 F400
G1 X261.359 Y58.460 F800
G0 Z10.000
G0 X282.679 Y58.460 Z10.000
G1 Z-5.000 F400
G1 X319.005 Y58.460 F800
G0 Z10.000
G0 X340.325 Y58.460 Z10.000
G1 Z-5.000 F400
G1 X341.359 Y58.460 F800
G0 Z10.000
G0 X367.876 Y58.460 Z10.000
G1 Z-5.000 F400
G1 X515.846 Y58.460 F800
G0 Z10.000
G0 X514.338 Y61.660 Z10.000
G1 Z-5.000 F400
G1 X369.385 Y61.660 F800
G0 Z10.000
G0 X318.093 Y61.660 Z10.000
G1 Z-5.000 F400
G1 X283.591 Y61.660 F800
G0 Z10.000
G0 X230.768 Y61.660 Z10.000
G1 Z-5.000 F400
G1 X40.815 Y61.660 F800
G0 Z10.000
G0 X43.961 Y64.860 Z10.000
G1 Z-5.000 F400
G1 X227.626 Y64.860 F800
G0 Z10.000
G0 X285.200 Y64.860 Z10.000
G1 Z-5.000 F400
G1 X316.483 Y64.860 F800
G0 Z10.000
G0 X372.530 Y64.860 Z10.000
G1 Z-5.000 F400
G1 X511.195 Y64.860 F800
G0 Z10.000
G0 X313.930 Y68.060 Z10.000
G1 Z-5.000 F400
G1 X287.754 Y68.060 F800
G0 Z10.000
G0 X292.033 Y71.260 Z10.000
G1 Z-5.000 F400
G1 X309.651 Y71.260 F800
G0 Z10.000
G0 X323.404 Y87.260 Z10.000
G1 Z-5.000 F400
G1 X318.280 Y87.260 F800
G0 Z10.000
G0 X283.404 Y87.260 Z10.000
G1 Z-5.000 F400
G1 X278.280 Y87.260 F800
G0 Z10.000
G0 X277.441 Y90.460 Z10.000
G1 Z-5.000 F400
G1 X284.243 Y90.460 F800
G0 Z10.000
G0 X317.441 Y90.460 Z10.000
G1 Z-5.000 F400
G1 X324.243 Y90.460 F800
G0 Z10.000
G0 X277.357 Y20.060 Z10.000
G1 Z-7.000 F400
G1 X284.327 Y20.060 F800
G0 Z10.000
G0 X317.357 Y20.060 Z10.000
G1 Z-7.000 F400
G1 X324.327 Y20.060 F800
G0 Z10.000
G0 X322.797 Y23.260 Z10.000
G1 Z-7.000 F400
G1 X318.887 Y23.260 F800
G0 Z10.000
G0 X282.797 Y23.260 Z10.000
G1 Z-7.000 F400
G1 X278.887 Y23.260 F800
G0 Z10.000
G0 X291.135 Y39.260 Z10.000
G1 Z-7.000 F400
G1 X310.549 Y39.260 F800
G0 Z10.000
G0 X314.428 Y42.460 Z10.000
G1 Z-7.000 F400
G1 X287.256 Y42.460 F800
G0 Z10.000
G0 X43.266 Y45.660 Z10.000
G1 Z-7.000 F400
G1 X228.319 Y45.660 F800
G0 Z10.000
G0 X284.882 Y45.660 Z10.000
G1 Z-7.000 F400
G1 X316.801 Y45.660 F800
G0 Z10.000
G0 X371.836 Y45.660 Z10.000
G1 Z-7.000 F400
G1 X511.889 Y45.660 F800
G0 Z10.000
G0 X514.667 Y48.860 Z10.000
G1 Z-7.000 F400
G1 X369.056 Y48.860 F800
G0 Z10.000
G0 X318.282 Y48.860 Z10.000
G1 Z-7.000 F400
G1 X283.402 Y48.860 F800
G0 Z10.000
G0 X231.098 Y48.860 Z10.000
G1 Z-7.000 F400
G1 X40.487 Y48.860 F800
G0 Z10.000
G0 X39.163 Y52.060 Z10.000
G1 Z-7.000 F400
G1 X232.421 Y52.060 F800
G0 Z10.000
G0 X258.947 Y52.060 Z10.000
G1 Z-7.000 F400
G1 X262.737 Y52.060 F800
G0 Z10.000
G0 X282.588 Y52.060 Z10.000
G1 Z-7.000 F400
G1 X319.096 Y52.060 F800
G0 Z10.000
G0 X338.947 Y52.060 Z10.000
G1 Z-7.000 F400
G1 X342.737 Y52.060 F800
G0 Z10.000
G0 X367.732 Y52.060 Z10.000
G1 Z-7.000 F400
G1 X515.991 Y52.060 F800
G0 Z10.000
G0 X516.357 Y55.260 Z10.000
G1 Z-7.000 F400
G1 X367.368 Y55.260 F800
G0 Z10.000
G0 X344.331 Y55.260 Z10.000
G1 Z-7.000 F400
G1 X337.353 Y55.260 F800
G0 Z10.000
G0 X319.330 Y55.260 Z10.000
G1 Z-7.000 F400
G1 X282.354 Y55.260 F800
G0 Z10.000
G0 X264.331 Y55.260 Z10.000
G1 Z-7.000 F400
G1 X257.353 Y55.260 F800
G0 Z10.000
G0 X232.787 Y55.260 Z10.000
G1 Z-7.000 F400
G1 X38.799 Y55.260 F800
G0 Z10.000
G0 X39.307 Y58.460 Z10.000
G1 Z-7.000 F400
G1 X232.278 Y58.460 F800
G0 Z10.000
G0 X260.325 Y58.460 Z10.000
G1 Z-7.000 F400
G1 X261.359 Y58.460 F800
G0 Z10.000
G0 X282.679 Y58.460 Z10.000
G1 Z-7.000 F400
G1 X319.005 Y58.460 F800
G0 Z10.000
G0 X340.325 Y58.460 Z10.000
G1 Z-7.000 F400
G1 X341.359 Y58.460 F800
G0 Z10.000
G0 X367.876 Y58.460 Z10.000
G1 Z-7.000 F400
G1 X515.846 Y58.460 F800
G0 Z10.000
G0 X514.338 Y61.660 Z10.000
G1 Z-7.000 F400
G1 X369.385 Y61.660 F800
G0 Z10.000
G0 X318.093 Y61.660 Z10.000
G1 Z-7.000 F400
G1 X283.591 Y61.660 F800
G0 Z10.000
G0 X230.768 Y61.660 Z10.000
G1 Z-7.000 F400
G1 X40.815 Y61.660 F800
G0 Z10.000
G0 X43.961 Y64.860 Z10.000
G1 Z-7.000 F400
G1 X227.626 Y64.860 F800
G0 Z10.000
G0 X285.200 Y64.860 Z10.000
G1 Z-7.000 F400
G1 X316.483 Y64.860 F800
G0 Z10.000
G0 X372.530 Y64.860 Z10.000
G1 Z-7.000 F400
G1 X511.195 Y64.860 F800
G0 Z10.000
G0 X313.930 Y68.060 Z10.000
G1 Z-7.000 F400
G1 X287.754 Y68.060 F800
G0 Z10.000
G0 X292.033 Y71.260 Z10.000
G1 Z-7.000 F400
G1 X309.651 Y71.260 F800
G0 Z10.000
G0 X323.404 Y87.260 Z10.000
G1 Z-7.000 F400
G1 X318.280 Y87.260 F800
G0 Z10.000
G0 X283.404 Y87.260 Z10.000
G1 Z-7.000 F400
G1 X278.280 Y87.260 F800
G0 Z10.000
G0 X277.441 Y90.460 Z10.000
G1 Z-7.000 F400
G1 X284.243 Y90.460 F800
G0 Z10.000
G0 X317.441 Y90.460 Z10.000
G1 Z-7.000 F400
G1 X324.243 Y90.460 F800
G0 Z10.000
G0 X277.357 Y20.060 Z10.000
G1 Z-9.000 F400
G1 X284.327 Y20.060 F800
G0 Z10.000
G0 X317.357 Y20.060 Z10.000
G1 Z-9.000 F400
G1 X324.327 Y20.060 F800
G0 Z10.000
G0 X322.797 Y23.260 Z10.000
G1 Z-9.000 F400
G1 X318.887 Y23.260 F800
G0 Z10.000
G0 X282.797 Y23.260 Z10.000
G1 Z-9.000 F400
G1 X278.887 Y23.260 F800
G0 Z10.000
G0 X291.135 Y39.260 Z10.000
G1 Z-9.000 F400
G1 X310.549 Y39.260 F800
G0 Z10.000
G0 X314.428 Y42.460 Z10.000
G1 Z-9.000 F400
G1 X287.256 Y42.460 F800
G0 Z10.000
G0 X43.266 Y45.660 Z10.000
G1 Z-9.000 F400
G1 X228.319 Y45.660 F800
G0 Z10.000
G0 X284.882 Y45.660 Z10.000
G1 Z-9.000 F400
G1 X316.801 Y45.660 F800
G0 Z10.000
G0 X371.836 Y45.660 Z10.000
G1 Z-9.000 F400
G1 X511.889 Y45.660 F800
G0 Z10.000
G0 X514.667 Y48.860 Z10.000
G1 Z-9.000 F400
G1 X369.056 Y48.860 F800
G0 Z10.000
G0 X318.282 Y48.860 Z10.000
G1 Z-9.000 F400
G1 X283.402 Y48.860 F800
G0 Z10.000
G0 X231.098 Y48.860 Z10.000
G1 Z-9.000 F400
G1 X40.487 Y48.860 F800
G0 Z10.000
G0 X39.163 Y52.060 Z10.000
G1 Z-9.000 F400
G1 X232.421 Y52.060 F800
G0 Z10.000
G0 X258.947 Y52.060 Z10.000
G1 Z-9.000 F400
G1 X262.737 Y52.060 F800
G0 Z10.000
G0 X282.588 Y52.060 Z10.000
G1 Z-9.000 F400
G1 X319.096 Y52.060 F800
G0 Z10.000
G0 X338.947 Y52.060 Z10.000
G1 Z-9.000 F400
G1 X342.737 Y52.060 F800
G0 Z10.000
G0 X367.732 Y52.060 Z10.000
G1 Z-9.000 F400
G1 X515.991 Y52.060 F800
G0 Z10.000
G0 X516.357 Y55.260 Z10.000
G1 Z-9.000 F400
G1 X367.368 Y55.260 F800
G0 Z10.000
G0 X344.331 Y55.260 Z10.000
G1 Z-9.000 F400
G1 X337.353 Y55.260 F800
G0 Z10.000
G0 X319.330 Y55.260 Z10.000
G1 Z-9.000 F400
G1 X282.354 Y55.260 F800
G0 Z10.000
G0 X264.331 Y55.260 Z10.000
G1 Z-9.000 F400
G1 X257.353 Y55.260 F800
G0 Z10.000
G0 X232.787 Y55.260 Z10.000
G1 Z-9.000 F400
G1 X38.798 Y55.260 F800
G0 Z10.000
G0 X39.307 Y58.460 Z10.000
G1 Z-9.000 F400
G1 X232.278 Y58.460 F800
G0 Z10.000
G0 X260.325 Y58.460 Z10.000
G1 Z-9.000 F400
G1 X261.359 Y58.460 F800
G0 Z10.000
G0 X282.679 Y58.460 Z10.000
G1 Z-9.000 F400
G1 X319.005 Y58.460 F800
G0 Z10.000
G0 X340.325 Y58.460 Z10.000
G1 Z-9.000 F400
G1 X341.359 Y58.460 F800
G0 Z10.000
G0 X367.876 Y58.460 Z10.000
G1 Z-9.000 F400
G1 X515.847 Y58.460 F800
G0 Z10.000
G0 X514.338 Y61.660 Z10.000
G1 Z-9.000 F400
G1 X369.385 Y61.660 F800
G0 Z10.000
G0 X318.093 Y61.660 Z10.000
G1 Z-9.000 F400
G1 X283.591 Y61.660 F800
G0 Z10.000
G0 X230.768 Y61.660 Z10.000
G1 Z-9.000 F400
G1 X40.815 Y61.660 F800
G0 Z10.000
G0 X43.960 Y64.860 Z10.000
G1 Z-9.000 F400
G1 X227.626 Y64.860 F800
G0 Z10.000
G0 X285.200 Y64.860 Z10.000
G1 Z-9.000 F400
G1 X316.483 Y64.860 F800
G0 Z10.000
G0 X372.528 Y64.860 Z10.000
G1 Z-9.000 F400
G1 X511.195 Y64.860 F800
G0 Z10.000
G0 X313.930 Y68.060 Z10.000
G1 Z-9.000 F400
G1 X287.754 Y68.060 F800
G0 Z10.000
G0 X292.033 Y71.260 Z10.000
G1 Z-9.000 F400
G1 X309.651 Y71.260 F800
G0 Z10.000
G0 X323.404 Y87.260 Z10.000
G1 Z-9.000 F400
G1 X318.280 Y87.260 F800
G0 Z10.000
G0 X283.404 Y87.260 Z10.000
G1 Z-9.000 F400
G1 X278.280 Y87.260 F800
G0 Z10.000
G0 X277.441 Y90.460 Z10.000
G1 Z-9.000 F400
G1 X284.243 Y90.460 F800
G0 Z10.000
G0 X317.441 Y90.460 Z10.000
G1 Z-9.000 F400
G1 X324.243 Y90.460 F800
G0 Z10.000
G0 X291.474 Y39.060 Z10.000
G1 Z-11.000 F400
G1 X310.210 Y39.060 F800
G0 Z10.000
G0 X314.242 Y42.260 Z10.000
G1 Z-11.000 F400
G1 X287.442 Y42.260 F800
G0 Z10.000
G0 X43.516 Y45.460 Z10.000
G1 Z-11.000 F400
G1 X228.068 Y45.460 F800
G0 Z10.000
G0 X285.005 Y45.460 Z10.000
G1 Z-11.000 F400
G1 X316.679 Y45.460 F800
G0 Z10.000
G0 X372.086 Y45.460 Z10.000
G1 Z-11.000 F400
G1 X511.638 Y45.460 F800
G0 Z10.000
G0 X514.544 Y48.660 Z10.000
G1 Z-11.000 F400
G1 X369.178 Y48.660 F800
G0 Z10.000
G0 X318.209 Y48.660 Z10.000
G1 Z-11.000 F400
G1 X283.475 Y48.660 F800
G0 Z10.000
G0 X230.975 Y48.660 Z10.000
G1 Z-11.000 F400
G1 X40.609 Y48.660 F800
G0 Z10.000
G0 X39.214 Y51.860 Z10.000
G1 Z-11.000 F400
G1 X232.370 Y51.860 F800
G0 Z10.000
G0 X282.618 Y51.860 Z10.000
G1 Z-11.000 F400
G1 X319.066 Y51.860 F800
G0 Z10.000
G0 X367.783 Y51.860 Z10.000
G1 Z-11.000 F400
G1 X515.940 Y51.860 F800
G0 Z10.000
G0 X516.357 Y55.060 Z10.000
G1 Z-11.000 F400
G1 X367.367 Y55.060 F800
G0 Z10.000
G0 X341.337 Y55.060 Z10.000
G1 Z-11.000 F400
G1 X340.347 Y55.060 F800
G0 Z10.000
G0 X319.330 Y55.060 Z10.000
G1 Z-11.000 F400
G1 X282.354 Y55.060 F800
G0 Z10.000
G0 X261.337 Y55.060 Z10.000
G1 Z-11.000 F400
G1 X260.347 Y55.060 F800
G0 Z10.000
G0 X232.787 Y55.060 Z10.000
G1 Z-11.000 F400
G1 X38.797 Y55.060 F800
G0 Z10.000
G0 X39.245 Y58.260 Z10.000
G1 Z-11.000 F400
G1 X232.339 Y58.260 F800
G0 Z10.000
G0 X282.639 Y58.260 Z10.000
G1 Z-11.000 F400
G1 X319.045 Y58.260 F800
G0 Z10.000
G0 X367.815 Y58.260 Z10.000
G1 Z-11.000 F400
G1 X515.907 Y58.260 F800
G0 Z10.000
G0 X514.471 Y61.460 Z10.000
G1 Z-11.000 F400
G1 X369.253 Y61.460 F800
G0 Z10.000
G0 X318.165 Y61.460 Z10.000
G1 Z-11.000 F400
G1 X283.519 Y61.460 F800
G0 Z10.000
G0 X230.902 Y61.460 Z10.000
G1 Z-11.000 F400
G1 X40.683 Y61.460 F800
G0 Z10.000
G0 X43.680 Y64.660 Z10.000
G1 Z-11.000 F400
G1 X227.903 Y64.660 F800
G0 Z10.000
G0 X285.078 Y64.660 Z10.000
G1 Z-11.000 F400
G1 X316.606 Y64.660 F800
G0 Z10.000
G0 X372.250 Y64.660 Z10.000
G1 Z-11.000 F400
G1 X511.474 Y64.660 F800
G0 Z10.000
G0 X314.130 Y67.860 Z10.000
G1 Z-11.000 F400
G1 X287.554 Y67.860 F800
G0 Z10.000
G0 X291.683 Y71.060 Z10.000
G1 Z-11.000 F400
G1 X310.001 Y71.060 F800
G0 Z10.000
G0 X291.474 Y39.060 Z10.000
G1 Z-13.000 F400
G1 X310.210 Y39.060 F800
G0 Z10.000
G0 X314.242 Y42.260 Z10.000
G1 Z-13.000 F400
G1 X287.442 Y42.260 F800
G0 Z10.000
G0 X43.516 Y45.460 Z10.000
G1 Z-13.000 F400
G1 X228.068 Y45.460 F800
G0 Z10.000
G0 X285.005 Y45.460 Z10.000
G1 Z-13.000 F400
G1 X316.679 Y45.460 F800
G0 Z10.000
G0 X372.086 Y45.460 Z10.000
G1 Z-13.000 F400
G1 X511.638 Y45.460 F800
G0 Z10.000
G0 X514.545 Y48.660 Z10.000
G1 Z-13.000 F400
G1 X369.178 Y48.660 F800
G0 Z10.000
G0 X318.209 Y48.660 Z10.000
G1 Z-13.000 F400
G1 X283.475 Y48.660 F800
G0 Z10.000
G0 X230.975 Y48.660 Z10.000
G1 Z-13.000 F400
G1 X40.609 Y48.660 F800
G0 Z10.000
G0 X39.214 Y51.860 Z10.000
G1 Z-13.000 F400
G1 X232.370 Y51.860 F800
G0 Z10.000
G0 X282.618 Y51.860 Z10.000
G1 Z-13.000 F400
G1 X319.066 Y51.860 F800
G0 Z10.000
G0 X367.783 Y51.860 Z10.000
G1 Z-13.000 F400
G1 X515.940 Y51.860 F800
G0 Z10.000
G0 X516.357 Y55.060 Z10.000
G1 Z-13.000 F400
G1 X367.367 Y55.060 F800
G0 Z10.000
G0 X341.337 Y55.060 Z10.000
G1 Z-13.000 F400
G1 X340.347 Y55.060 F800
G0 Z10.000
G0 X319.330 Y55.060 Z10.000
G1 Z-13.000 F400
G1 X282.354 Y55.060 F800
G0 Z10.000
G0 X261.337 Y55.060 Z10.000
G1 Z-13.000 F400
G1 X260.347 Y55.060 F800
G0 Z10.000
G0 X232.787 Y55.060 Z10.000
G1 Z-13.000 F400
G1 X38.797 Y55.060 F800
G0 Z10.000
G0 X39.245 Y58.260 Z10.000
G1 Z-13.000 F400
G1 X232.339 Y58.260 F800
G0 Z10.000
G0 X282.639 Y58.260 Z10.000
G1 Z-13.000 F400
G1 X319.045 Y58.260 F800
G0 Z10.000
G0 X367.815 Y58.260 Z10.000
G1 Z-13.000 F400
G1 X515.908 Y58.260 F800
G0 Z10.000
G0 X514.471 Y61.460 Z10.000
G1 Z-13.000 F400
G1 X369.253 Y61.460 F800
G0 Z10.000
G0 X318.165 Y61.460 Z10.000
G1 Z-13.000 F400
G1 X283.519 Y61.460 F800
G0 Z10.000
G0 X230.902 Y61.460 Z10.000
G1 Z-13.000 F400
G1 X40.683 Y61.460 F800
G0 Z10.000
G0 X43.680 Y64.660 Z10.000
G1 Z-13.000 F400
G1 X227.904 Y64.660 F800
G0 Z10.000
G0 X285.078 Y64.660 Z10.000
G1 Z-13.000 F400
G1 X316.606 Y64.660 F800
G0 Z10.000
G0 X372.250 Y64.660 Z10.000
G1 Z-13.000 F400
G1 X511.474 Y64.660 F800
G0 Z10.000
G0 X314.130 Y67.860 Z10.000
G1 Z-13.000 F400
G1 X287.554 Y67.860 F800
G0 Z10.000
G0 X291.683 Y71.060 Z10.000
G1 Z-13.000 F400
G1 X310.001 Y71.060 F800
G0 Z10.000
G0 X291.474 Y39.060 Z10.000
G1 Z-15.000 F400
G1 X310.210 Y39.060 F800
G0 Z10.000
G0 X314.242 Y42.260 Z10.000
G1 Z-15.000 F400
G1 X287.442 Y42.260 F800
G0 Z10.000
G0 X43.516 Y45.460 Z10.000
G1 Z-15.000 F400
G1 X228.068 Y45.460 F800
G0 Z10.000
G0 X285.005 Y45.460 Z10.000
G1 Z-15.000 F400
G1 X316.679 Y45.460 F800
G0 Z10.000
G0 X372.086 Y45.460 Z10.000
G1 Z-15.000 F400
G1 X511.638 Y45.460 F800
G0 Z10.000
G0 X514.545 Y48.660 Z10.000
G1 Z-15.000 F400
G1 X369.178 Y48.660 F800
G0 Z10.000
G0 X318.209 Y48.660 Z10.000
G1 Z-15.000 F400
G1 X283.475 Y48.660 F800
G0 Z10.000
G0 X230.975 Y48.660 Z10.000
G1 Z-15.000 F400
G1 X40.609 Y48.660 F800
G0 Z10.000
G0 X39.214 Y51.860 Z10.000
G1 Z-15.000 F400
G1 X232.370 Y51.860 F800
G0 Z10.000
G0 X282.618 Y51.860 Z10.000
G1 Z-15.000 F400
G1 X319.066 Y51.860 F800
G0 Z10.000
G0 X367.783 Y51.860 Z10.000
G1 Z-15.000 F400
G1 X515.940 Y51.860 F800
G0 Z10.000
G0 X516.357 Y55.060 Z10.000
G1 Z-15.000 F400
G1 X367.367 Y55.060 F800
G0 Z10.000
G0 X341.337 Y55.060 Z10.000
G1 Z-15.000 F400
G1 X340.347 Y55.060 F800
G0 Z10.000
G0 X319.330 Y55.060 Z10.000
G1 Z-15.000 F400
G1 X282.354 Y55.060 F800
G0 Z10.000
G0 X261.337 Y55.060 Z10.000
G1 Z-15.000 F400
G1 X260.347 Y55.060 F800
G0 Z10.000
G0 X232.787 Y55.060 Z10.000
G1 Z-15.000 F400
G1 X38.797 Y55.060 F800
G0 Z10.000
G0 X39.245 Y58.260 Z10.000
G1 Z-15.000 F400
G1 X232.339 Y58.260 F800
G0 Z10.000
G0 X282.639 Y58.260 Z10.000
G1 Z-15.000 F400
G1 X319.045 Y58.260 F800
G0 Z10.000
G0 X367.815 Y58.260 Z10.000
G1 Z-15.000 F400
G1 X515.908 Y58.260 F800
G0 Z10.000
G0 X514.471 Y61.460 Z10.000
G1 Z-15.000 F400
G1 X369.254 Y61.460 F800
G0 Z10.000
G0 X318.165 Y61.460 Z10.000
G1 Z-15.000 F400
G1 X283.519 Y61.460 F800
G0 Z10.000
G0 X230.902 Y61.460 Z10.000
G1 Z-15.000 F400
G1 X40.683 Y61.460 F800
G0 Z10.000
G0 X43.680 Y64.660 Z10.000
G1 Z-15.000 F400
G1 X227.904 Y64.660 F800
G0 Z10.000
G0 X285.078 Y64.660 Z10.000
G1 Z-15.000 F400
G1 X316.606 Y64.660 F800
G0 Z10.000
G0 X372.250 Y64.660 Z10.000
G1 Z-15.000 F400
G1 X511.474 Y64.660 F800
G0 Z10.000
G0 X314.130 Y67.860 Z10.000
G1 Z-15.000 F400
G1 X287.554 Y67.860 F800
G0 Z10.000
G0 X291.683 Y71.060 Z10.000
G1 Z-15.000 F400
G1 X310.001 Y71.060 F800
G0 Z10.000
G0 X291.474 Y39.060 Z10.000
G1 Z-17.000 F400
G1 X310.210 Y39.060 F800
G0 Z10.000
G0 X314.242 Y42.260 Z10.000
G1 Z-17.000 F400
G1 X287.442 Y42.260 F800
G0 Z10.000
G0 X43.516 Y45.460 Z10.000
G1 Z-17.000 F400
G1 X228.068 Y45.460 F800
G0 Z10.000
G0 X285.005 Y45.460 Z10.000
G1 Z-17.000 F400
G1 X316.679 Y45.460 F800
G0 Z10.000
G0 X372.086 Y45.460 Z10.000
G1 Z-17.000 F400
G1 X511.638 Y45.460 F800
G0 Z10.000
G0 X514.545 Y48.660 Z10.000
G1 Z-17.000 F400
G1 X369.178 Y48.660 F800
G0 Z10.000
G0 X318.209 Y48.660 Z10.000
G1 Z-17.000 F400
G1 X283.475 Y48.660 F800
G0 Z10.000
G0 X230.975 Y48.660 Z10.000
G1 Z-17.000 F400
G1 X40.609 Y48.660 F800
G0 Z10.000
G0 X39.214 Y51.860 Z10.000
G1 Z-17.000 F400
G1 X232.370 Y51.860 F800
G0 Z10.000
G0 X282.618 Y51.860 Z10.000
G1 Z-17.000 F400
G1 X319.066 Y51.860 F800
G0 Z10.000
G0 X367.783 Y51.860 Z10.000
G1 Z-17.000 F400
G1 X515.940 Y51.860 F800
G0 Z10.000
G0 X516.357 Y55.060 Z10.000
G1 Z-17.000 F400
G1 X367.367 Y55.060 F800
G0 Z10.000
G0 X341.337 Y55.060 Z10.000
G1 Z-17.000 F400
G1 X340.347 Y55.060 F800
G0 Z10.000
G0 X319.330 Y55.060 Z10.000
G1 Z-17.000 F400
G1 X282.354 Y55.060 F800
G0 Z10.000
G0 X261.337 Y55.060 Z10.000
G1 Z-17.000 F400
G1 X260.347 Y55.060 F800
G0 Z10.000
G0 X232.787 Y55.060 Z10.000
G1 Z-17.000 F400
G1 X38.797 Y55.060 F800
G0 Z10.000
G0 X39.245 Y58.260 Z10.000
G1 Z-17.000 F400
G1 X232.339 Y58.260 F800
G0 Z10.000
G0 X282.639 Y58.260 Z10.000
G1 Z-17.000 F400
G1 X319.045 Y58.260 F800
G0 Z10.000
G0 X367.815 Y58.260 Z10.000
G1 Z-17.000 F400
G1 X515.908 Y58.260 F800
G0 Z10.000
G0 X514.471 Y61.460 Z10.000
G1 Z-17.000 F400
G1 X369.252 Y61.460 F800
G0 Z10.000
G0 X318.165 Y61.460 Z10.000
G1 Z-17.000 F400
G1 X283.519 Y61.460 F800
G0 Z10.000
G0 X230.902 Y61.460 Z10.000
G1 Z-17.000 F400
G1 X40.683 Y61.460 F800
G0 Z10.000
G0 X43.680 Y64.660 Z10.000
G1 Z-17.000 F400
G1 X227.904 Y64.660 F800
G0 Z10.000
G0 X285.078 Y64.660 Z10.000
G1 Z-17.000 F400
G1 X316.606 Y64.660 F800
G0 Z10.000
G0 X372.250 Y64.660 Z10.000
G1 Z-17.000 F400
G1 X511.474 Y64.660 F800
G0 Z10.000
G0 X314.130 Y67.860 Z10.000
G1 Z-17.000 F400
G1 X287.554 Y67.860 F800
G0 Z10.000
G0 X291.683 Y71.060 Z10.000
G1 Z-17.000 F400
G1 X310.001 Y71.060 F800
G0 Z10.000
G0 X291.474 Y39.060 Z10.000
G1 Z-19.000 F400
G1 X310.210 Y39.060 F800
G0 Z10.000
G0 X314.242 Y42.260 Z10.000
G1 Z-19.000 F400
G1 X287.442 Y42.260 F800
G0 Z10.000
G0 X43.516 Y45.460 Z10.000
G1 Z-19.000 F400
G1 X228.068 Y45.460 F800
G0 Z10.000
G0 X285.005 Y45.460 Z10.000
G1 Z-19.000 F400
G1 X316.679 Y45.460 F800
G0 Z10.000
G0 X372.086 Y45.460 Z10.000
G1 Z-19.000 F400
G1 X511.638 Y45.460 F800
G0 Z10.000
G0 X514.545 Y48.660 Z10.000
G1 Z-19.000 F400
G1 X369.178 Y48.660 F800
G0 Z10.000
G0 X318.209 Y48.660 Z10.000
G1 Z-19.000 F400
G1 X283.475 Y48.660 F800
G0 Z10.000
G0 X230.975 Y48.660 Z10.000
G1 Z-19.000 F400
G1 X40.609 Y48.660 F800
G0 Z10.000
G0 X39.214 Y51.860 Z10.000
G1 Z-19.000 F400
G1 X232.370 Y51.860 F800
G0 Z10.000
G0 X282.618 Y51.860 Z10.000
G1 Z-19.000 F400
G1 X319.066 Y51.860 F800
G0 Z10.000
G0 X367.783 Y51.860 Z10.000
G1 Z-19.000 F400
G1 X515.940 Y51.860 F800
G0 Z10.000
G0 X516.357 Y55.060 Z10.000
G1 Z-19.000 F400
G1 X367.367 Y55.060 F800
G0 Z10.000
G0 X341.337 Y55.060 Z10.000
G1 Z-19.000 F400
G1 X340.347 Y55.060 F800
G0 Z10.000
G0 X319.330 Y55.060 Z10.000
G1 Z-19.000 F400
G1 X282.354 Y55.060 F800
G0 Z10.000
G0 X261.337 Y55.060 Z10.000
G1 Z-19.000 F400
G1 X260.347 Y55.060 F800
G0 Z10.000
G0 X232.787 Y55.060 Z10.000
G1 Z-19.000 F400
G1 X38.797 Y55.060 F800
G0 Z10.000
G0 X39.245 Y58.260 Z10.000
G1 Z-19.000 F400
G1 X232.339 Y58.260 F800
G0 Z10.000
G0 X282.639 Y58.260 Z10.000
G1 Z-19.000 F400
G1 X319.045 Y58.260 F800
G0 Z10.000
G0 X367.815 Y58.260 Z10.000
G1 Z-19.000 F400
G1 X515.909 Y58.260 F800
G0 Z10.000
G0 X514.471 Y61.460 Z10.000
G1 Z-19.000 F400
G1 X369.252 Y61.460 F800
G0 Z10.000
G0 X318.165 Y61.460 Z10.000
G1 Z-19.000 F400
G1 X283.519 Y61.460 F800
G0 Z10.000
G0 X230.902 Y61.460 Z10.000
G1 Z-19.000 F400
G1 X40.683 Y61.460 F800
G0 Z10.000
G0 X43.680 Y64.660 Z10.000
G1 Z-19.000 F400
G1 X227.904 Y64.660 F800
G0 Z10.000
G0 X285.078 Y64.660 Z10.000
G1 Z-19.000 F400
G1 X316.606 Y64.660 F800
G0 Z10.000
G0 X372.250 Y64.660 Z10.000
G1 Z-19.000 F400
G1 X511.474 Y64.660 F800
G0 Z10.000
G0 X314.130 Y67.860 Z10.000
G1 Z-19.000 F400
G1 X287.554 Y67.860 F800
G0 Z10.000
G0 X291.683 Y71.060 Z10.000
G1 Z-19.000 F400
G1 X310.001 Y71.060 F800
G0 Z10.000
G0 X291.474 Y39.060 Z10.000
G1 Z-19.800 F400
G1 X310.210 Y39.060 F800
G0 Z10.000
G0 X314.242 Y42.260 Z10.000
G1 Z-19.800 F400
G1 X287.442 Y42.260 F800
G0 Z10.000
G0 X43.516 Y45.460 Z10.000
G1 Z-19.800 F400
G1 X228.068 Y45.460 F800
G0 Z10.000
G0 X285.005 Y45.460 Z10.000
G1 Z-19.800 F400
G1 X316.679 Y45.460 F800
G0 Z10.000
G0 X372.086 Y45.460 Z10.000
G1 Z-19.800 F400
G1 X511.638 Y45.460 F800
G0 Z10.000
G0 X514.545 Y48.660 Z10.000
G1 Z-19.800 F400
G1 X369.178 Y48.660 F800
G0 Z10.000
G0 X318.209 Y48.660 Z10.000
G1 Z-19.800 F400
G1 X283.475 Y48.660 F800
G0 Z10.000
G0 X230.975 Y48.660 Z10.000
G1 Z-19.800 F400
G1 X40.609 Y48.660 F800
G0 Z10.000
G0 X39.214 Y51.860 Z10.000
G1 Z-19.800 F400
G1 X232.370 Y51.860 F800
G0 Z10.000
G0 X282.618 Y51.860 Z10.000
G1 Z-19.800 F400
G1 X319.066 Y51.860 F800
G0 Z10.000
G0 X367.783 Y51.860 Z10.000
G1 Z-19.800 F400
G1 X515.940 Y51.860 F800
G0 Z10.000
G0 X516.357 Y55.060 Z10.000
G1 Z-19.800 F400
G1 X367.367 Y55.060 F800
G0 Z10.000
G0 X341.337 Y55.060 Z10.000
G1 Z-19.800 F400
G1 X340.347 Y55.060 F800
G0 Z10.000
G0 X319.330 Y55.060 Z10.000
G1 Z-19.800 F400
G1 X282.354 Y55.060 F800
G0 Z10.000
G0 X261.337 Y55.060 Z10.000
G1 Z-19.800 F400
G1 X260.347 Y55.060 F800
G0 Z10.000
G0 X232.787 Y55.060 Z10.000
G1 Z-19.800 F400
G1 X38.797 Y55.060 F800
G0 Z10.000
G0 X39.245 Y58.260 Z10.000
G1 Z-19.800 F400
G1 X232.339 Y58.260 F800
G0 Z10.000
G0 X282.639 Y58.260 Z10.000
G1 Z-19.800 F400
G1 X319.045 Y58.260 F800
G0 Z10.000
G0 X367.815 Y58.260 Z10.000
G1 Z-19.800 F400
G1 X515.909 Y58.260 F800
G0 Z10.000
G0 X514.471 Y61.460 Z10.000
G1 Z-19.800 F400
G1 X369.252 Y61.460 F800
G0 Z10.000
G0 X318.165 Y61.460 Z10.000
G1 Z-19.800 F400
G1 X283.519 Y61.460 F800
G0 Z10.000
G0 X230.902 Y61.460 Z10.000
G1 Z-19.800 F400
G1 X40.683 Y61.460 F800
G0 Z10.000
G0 X43.680 Y64.660 Z10.000
G1 Z-19.800 F400
G1 X227.904 Y64.660 F800
G0 Z10.000
G0 X285.078 Y64.660 Z10.000
G1 Z-19.800 F400
G1 X316.606 Y64.660 F800
G0 Z10.000
G0 X372.250 Y64.660 Z10.000
G1 Z-19.800 F400
G1 X511.474 Y64.660 F800
G0 Z10.000
G0 X314.130 Y67.860 Z10.000
G1 Z-19.800 F400
G1 X287.554 Y67.860 F800
G0 Z10.000
G0 X291.683 Y71.060 Z10.000
G1 Z-19.800 F400
G1 X310.001 Y71.060 F800
G0 Z10.000
M5 (spindle stop after roughing)
G0 X0 Y0 Z10.000
(--- Tool T5: D6 平底铣刀, 孔径 8.2mm → 选 D6 钻铣 ---)
T5 M6
S5333 M3
G4 P1 (dwell 1s for spindle ramp-up)
G0 Z10.000
(Hole D8.2 at X316.1 Y20.4)
G0 X317.192 Y20.359 Z10.000
G0 Z0.000
G2 X314.942 Y20.359 Z-0.500 I-1.125 J0.000 F180
G2 X317.192 Y20.359 Z-1.000 I1.125 J0.000 F180
G2 X314.942 Y20.359 Z-1.500 I-1.125 J0.000 F180
G2 X317.192 Y20.359 Z-2.000 I1.125 J0.000 F180
G2 X314.942 Y20.359 Z-2.500 I-1.125 J0.000 F180
G2 X317.192 Y20.359 Z-3.000 I1.125 J0.000 F180
G2 X314.942 Y20.359 Z-3.500 I-1.125 J0.000 F180
G2 X317.192 Y20.359 Z-4.000 I1.125 J0.000 F180
G2 X314.942 Y20.359 Z-4.500 I-1.125 J0.000 F180
G2 X317.192 Y20.359 Z-5.000 I1.125 J0.000 F180
G2 X314.942 Y20.359 Z-5.500 I-1.125 J0.000 F180
G2 X317.192 Y20.359 Z-6.000 I1.125 J0.000 F180
G2 X314.942 Y20.359 Z-6.500 I-1.125 J0.000 F180
G2 X317.192 Y20.359 Z-7.000 I1.125 J0.000 F180
G2 X314.942 Y20.359 Z-7.500 I-1.125 J0.000 F180
G2 X317.192 Y20.359 Z-8.000 I1.125 J0.000 F180
G2 X314.942 Y20.359 Z-8.500 I-1.125 J0.000 F180
G2 X317.192 Y20.359 Z-9.000 I1.125 J0.000 F180
G2 X314.942 Y20.359 Z-9.500 I-1.125 J0.000 F180
G2 X317.192 Y20.359 Z-10.000 I1.125 J0.000 F180
G2 X314.942 Y20.359 Z-10.500 I-1.125 J0.000 F180
G2 X317.192 Y20.359 Z-11.000 I1.125 J0.000 F180
G2 X314.942 Y20.359 Z-11.500 I-1.125 J0.000 F180
G2 X317.192 Y20.359 Z-12.000 I1.125 J0.000 F180
G2 X314.942 Y20.359 Z-12.500 I-1.125 J0.000 F180
G2 X317.192 Y20.359 Z-13.000 I1.125 J0.000 F180
G2 X314.942 Y20.359 Z-13.500 I-1.125 J0.000 F180
G2 X317.192 Y20.359 Z-14.000 I1.125 J0.000 F180
G2 X314.942 Y20.359 Z-14.500 I-1.125 J0.000 F180
G2 X317.192 Y20.359 Z-15.000 I1.125 J0.000 F180
G2 X314.942 Y20.359 I-1.125 J0.000 F600
G2 X317.192 Y20.359 I1.125 J0.000 F600
G0 Z10.000
(Hole D8.2 at X276.1 Y20.4)
G0 X277.192 Y20.359 Z10.000
G0 Z0.000
G2 X274.942 Y20.359 Z-0.500 I-1.125 J0.000 F180
G2 X277.192 Y20.359 Z-1.000 I1.125 J0.000 F180
G2 X274.942 Y20.359 Z-1.500 I-1.125 J0.000 F180
G2 X277.192 Y20.359 Z-2.000 I1.125 J0.000 F180
G2 X274.942 Y20.359 Z-2.500 I-1.125 J0.000 F180
G2 X277.192 Y20.359 Z-3.000 I1.125 J0.000 F180
G2 X274.942 Y20.359 Z-3.500 I-1.125 J0.000 F180
G2 X277.192 Y20.359 Z-4.000 I1.125 J0.000 F180
G2 X274.942 Y20.359 Z-4.500 I-1.125 J0.000 F180
G2 X277.192 Y20.359 Z-5.000 I1.125 J0.000 F180
G2 X274.942 Y20.359 Z-5.500 I-1.125 J0.000 F180
G2 X277.192 Y20.359 Z-6.000 I1.125 J0.000 F180
G2 X274.942 Y20.359 Z-6.500 I-1.125 J0.000 F180
G2 X277.192 Y20.359 Z-7.000 I1.125 J0.000 F180
G2 X274.942 Y20.359 Z-7.500 I-1.125 J0.000 F180
G2 X277.192 Y20.359 Z-8.000 I1.125 J0.000 F180
G2 X274.942 Y20.359 Z-8.500 I-1.125 J0.000 F180
G2 X277.192 Y20.359 Z-9.000 I1.125 J0.000 F180
G2 X274.942 Y20.359 Z-9.500 I-1.125 J0.000 F180
G2 X277.192 Y20.359 Z-10.000 I1.125 J0.000 F180
G2 X274.942 Y20.359 Z-10.500 I-1.125 J0.000 F180
G2 X277.192 Y20.359 Z-11.000 I1.125 J0.000 F180
G2 X274.942 Y20.359 Z-11.500 I-1.125 J0.000 F180
G2 X277.192 Y20.359 Z-12.000 I1.125 J0.000 F180
G2 X274.942 Y20.359 Z-12.500 I-1.125 J0.000 F180
G2 X277.192 Y20.359 Z-13.000 I1.125 J0.000 F180
G2 X274.942 Y20.359 Z-13.500 I-1.125 J0.000 F180
G2 X277.192 Y20.359 Z-14.000 I1.125 J0.000 F180
G2 X274.942 Y20.359 Z-14.500 I-1.125 J0.000 F180
G2 X277.192 Y20.359 Z-15.000 I1.125 J0.000 F180
G2 X274.942 Y20.359 I-1.125 J0.000 F600
G2 X277.192 Y20.359 I1.125 J0.000 F600
G0 Z10.000
(Hole D8.2 at X256.1 Y55.0)
G0 X257.192 Y55.000 Z10.000
G0 Z0.000
G2 X254.942 Y55.000 Z-0.500 I-1.125 J0.000 F180
G2 X257.192 Y55.000 Z-1.000 I1.125 J0.000 F180
G2 X254.942 Y55.000 Z-1.500 I-1.125 J0.000 F180
G2 X257.192 Y55.000 Z-2.000 I1.125 J0.000 F180
G2 X254.942 Y55.000 Z-2.500 I-1.125 J0.000 F180
G2 X257.192 Y55.000 Z-3.000 I1.125 J0.000 F180
G2 X254.942 Y55.000 Z-3.500 I-1.125 J0.000 F180
G2 X257.192 Y55.000 Z-4.000 I1.125 J0.000 F180
G2 X254.942 Y55.000 Z-4.500 I-1.125 J0.000 F180
G2 X257.192 Y55.000 Z-5.000 I1.125 J0.000 F180
G2 X254.942 Y55.000 Z-5.500 I-1.125 J0.000 F180
G2 X257.192 Y55.000 Z-6.000 I1.125 J0.000 F180
G2 X254.942 Y55.000 Z-6.500 I-1.125 J0.000 F180
G2 X257.192 Y55.000 Z-7.000 I1.125 J0.000 F180
G2 X254.942 Y55.000 Z-7.500 I-1.125 J0.000 F180
G2 X257.192 Y55.000 Z-8.000 I1.125 J0.000 F180
G2 X254.942 Y55.000 Z-8.500 I-1.125 J0.000 F180
G2 X257.192 Y55.000 Z-9.000 I1.125 J0.000 F180
G2 X254.942 Y55.000 Z-9.500 I-1.125 J0.000 F180
G2 X257.192 Y55.000 Z-10.000 I1.125 J0.000 F180
G2 X254.942 Y55.000 Z-10.500 I-1.125 J0.000 F180
G2 X257.192 Y55.000 Z-11.000 I1.125 J0.000 F180
G2 X254.942 Y55.000 Z-11.500 I-1.125 J0.000 F180
G2 X257.192 Y55.000 Z-12.000 I1.125 J0.000 F180
G2 X254.942 Y55.000 Z-12.500 I-1.125 J0.000 F180
G2 X257.192 Y55.000 Z-13.000 I1.125 J0.000 F180
G2 X254.942 Y55.000 Z-13.500 I-1.125 J0.000 F180
G2 X257.192 Y55.000 Z-14.000 I1.125 J0.000 F180
G2 X254.942 Y55.000 Z-14.500 I-1.125 J0.000 F180
G2 X257.192 Y55.000 Z-15.000 I1.125 J0.000 F180
G2 X254.942 Y55.000 I-1.125 J0.000 F600
G2 X257.192 Y55.000 I1.125 J0.000 F600
G0 Z10.000
(Hole D8.2 at X276.1 Y89.6)
G0 X277.192 Y89.641 Z10.000
G0 Z0.000
G2 X274.942 Y89.641 Z-0.500 I-1.125 J0.000 F180
G2 X277.192 Y89.641 Z-1.000 I1.125 J0.000 F180
G2 X274.942 Y89.641 Z-1.500 I-1.125 J0.000 F180
G2 X277.192 Y89.641 Z-2.000 I1.125 J0.000 F180
G2 X274.942 Y89.641 Z-2.500 I-1.125 J0.000 F180
G2 X277.192 Y89.641 Z-3.000 I1.125 J0.000 F180
G2 X274.942 Y89.641 Z-3.500 I-1.125 J0.000 F180
G2 X277.192 Y89.641 Z-4.000 I1.125 J0.000 F180
G2 X274.942 Y89.641 Z-4.500 I-1.125 J0.000 F180
G2 X277.192 Y89.641 Z-5.000 I1.125 J0.000 F180
G2 X274.942 Y89.641 Z-5.500 I-1.125 J0.000 F180
G2 X277.192 Y89.641 Z-6.000 I1.125 J0.000 F180
G2 X274.942 Y89.641 Z-6.500 I-1.125 J0.000 F180
G2 X277.192 Y89.641 Z-7.000 I1.125 J0.000 F180
G2 X274.942 Y89.641 Z-7.500 I-1.125 J0.000 F180
G2 X277.192 Y89.641 Z-8.000 I1.125 J0.000 F180
G2 X274.942 Y89.641 Z-8.500 I-1.125 J0.000 F180
G2 X277.192 Y89.641 Z-9.000 I1.125 J0.000 F180
G2 X274.942 Y89.641 Z-9.500 I-1.125 J0.000 F180
G2 X277.192 Y89.641 Z-10.000 I1.125 J0.000 F180
G2 X274.942 Y89.641 Z-10.500 I-1.125 J0.000 F180
G2 X277.192 Y89.641 Z-11.000 I1.125 J0.000 F180
G2 X274.942 Y89.641 Z-11.500 I-1.125 J0.000 F180
G2 X277.192 Y89.641 Z-12.000 I1.125 J0.000 F180
G2 X274.942 Y89.641 Z-12.500 I-1.125 J0.000 F180
G2 X277.192 Y89.641 Z-13.000 I1.125 J0.000 F180
G2 X274.942 Y89.641 Z-13.500 I-1.125 J0.000 F180
G2 X277.192 Y89.641 Z-14.000 I1.125 J0.000 F180
G2 X274.942 Y89.641 Z-14.500 I-1.125 J0.000 F180
G2 X277.192 Y89.641 Z-15.000 I1.125 J0.000 F180
G2 X274.942 Y89.641 I-1.125 J0.000 F600
G2 X277.192 Y89.641 I1.125 J0.000 F600
G0 Z10.000
(Hole D8.2 at X316.1 Y89.6)
G0 X317.192 Y89.641 Z10.000
G0 Z0.000
G2 X314.942 Y89.641 Z-0.500 I-1.125 J0.000 F180
G2 X317.192 Y89.641 Z-1.000 I1.125 J0.000 F180
G2 X314.942 Y89.641 Z-1.500 I-1.125 J0.000 F180
G2 X317.192 Y89.641 Z-2.000 I1.125 J0.000 F180
G2 X314.942 Y89.641 Z-2.500 I-1.125 J0.000 F180
G2 X317.192 Y89.641 Z-3.000 I1.125 J0.000 F180
G2 X314.942 Y89.641 Z-3.500 I-1.125 J0.000 F180
G2 X317.192 Y89.641 Z-4.000 I1.125 J0.000 F180
G2 X314.942 Y89.641 Z-4.500 I-1.125 J0.000 F180
G2 X317.192 Y89.641 Z-5.000 I1.125 J0.000 F180
G2 X314.942 Y89.641 Z-5.500 I-1.125 J0.000 F180
G2 X317.192 Y89.641 Z-6.000 I1.125 J0.000 F180
G2 X314.942 Y89.641 Z-6.500 I-1.125 J0.000 F180
G2 X317.192 Y89.641 Z-7.000 I1.125 J0.000 F180
G2 X314.942 Y89.641 Z-7.500 I-1.125 J0.000 F180
G2 X317.192 Y89.641 Z-8.000 I1.125 J0.000 F180
G2 X314.942 Y89.641 Z-8.500 I-1.125 J0.000 F180
G2 X317.192 Y89.641 Z-9.000 I1.125 J0.000 F180
G2 X314.942 Y89.641 Z-9.500 I-1.125 J0.000 F180
G2 X317.192 Y89.641 Z-10.000 I1.125 J0.000 F180
G2 X314.942 Y89.641 Z-10.500 I-1.125 J0.000 F180
G2 X317.192 Y89.641 Z-11.000 I1.125 J0.000 F180
G2 X314.942 Y89.641 Z-11.500 I-1.125 J0.000 F180
G2 X317.192 Y89.641 Z-12.000 I1.125 J0.000 F180
G2 X314.942 Y89.641 Z-12.500 I-1.125 J0.000 F180
G2 X317.192 Y89.641 Z-13.000 I1.125 J0.000 F180
G2 X314.942 Y89.641 Z-13.500 I-1.125 J0.000 F180
G2 X317.192 Y89.641 Z-14.000 I1.125 J0.000 F180
G2 X314.942 Y89.641 Z-14.500 I-1.125 J0.000 F180
G2 X317.192 Y89.641 Z-15.000 I1.125 J0.000 F180
G2 X314.942 Y89.641 I-1.125 J0.000 F600
G2 X317.192 Y89.641 I1.125 J0.000 F600
G0 Z10.000
(Hole D8.2 at X336.1 Y55.0)
G0 X337.192 Y55.000 Z10.000
G0 Z0.000
G2 X334.942 Y55.000 Z-0.500 I-1.125 J0.000 F180
G2 X337.192 Y55.000 Z-1.000 I1.125 J0.000 F180
G2 X334.942 Y55.000 Z-1.500 I-1.125 J0.000 F180
G2 X337.192 Y55.000 Z-2.000 I1.125 J0.000 F180
G2 X334.942 Y55.000 Z-2.500 I-1.125 J0.000 F180
G2 X337.192 Y55.000 Z-3.000 I1.125 J0.000 F180
G2 X334.942 Y55.000 Z-3.500 I-1.125 J0.000 F180
G2 X337.192 Y55.000 Z-4.000 I1.125 J0.000 F180
G2 X334.942 Y55.000 Z-4.500 I-1.125 J0.000 F180
G2 X337.192 Y55.000 Z-5.000 I1.125 J0.000 F180
G2 X334.942 Y55.000 Z-5.500 I-1.125 J0.000 F180
G2 X337.192 Y55.000 Z-6.000 I1.125 J0.000 F180
G2 X334.942 Y55.000 Z-6.500 I-1.125 J0.000 F180
G2 X337.192 Y55.000 Z-7.000 I1.125 J0.000 F180
G2 X334.942 Y55.000 Z-7.500 I-1.125 J0.000 F180
G2 X337.192 Y55.000 Z-8.000 I1.125 J0.000 F180
G2 X334.942 Y55.000 Z-8.500 I-1.125 J0.000 F180
G2 X337.192 Y55.000 Z-9.000 I1.125 J0.000 F180
G2 X334.942 Y55.000 Z-9.500 I-1.125 J0.000 F180
G2 X337.192 Y55.000 Z-10.000 I1.125 J0.000 F180
G2 X334.942 Y55.000 Z-10.500 I-1.125 J0.000 F180
G2 X337.192 Y55.000 Z-11.000 I1.125 J0.000 F180
G2 X334.942 Y55.000 Z-11.500 I-1.125 J0.000 F180
G2 X337.192 Y55.000 Z-12.000 I1.125 J0.000 F180
G2 X334.942 Y55.000 Z-12.500 I-1.125 J0.000 F180
G2 X337.192 Y55.000 Z-13.000 I1.125 J0.000 F180
G2 X334.942 Y55.000 Z-13.500 I-1.125 J0.000 F180
G2 X337.192 Y55.000 Z-14.000 I1.125 J0.000 F180
G2 X334.942 Y55.000 Z-14.500 I-1.125 J0.000 F180
G2 X337.192 Y55.000 Z-15.000 I1.125 J0.000 F180
G2 X334.942 Y55.000 I-1.125 J0.000 F600
G2 X337.192 Y55.000 I1.125 J0.000 F600
G0 Z10.000
(Hole D8.2 at X345.6 Y55.0)
G0 X346.742 Y55.000 Z10.000
G0 Z0.000
G2 X344.492 Y55.000 Z-0.500 I-1.125 J0.000 F180
G2 X346.742 Y55.000 Z-1.000 I1.125 J0.000 F180
G2 X344.492 Y55.000 Z-1.500 I-1.125 J0.000 F180
G2 X346.742 Y55.000 Z-2.000 I1.125 J0.000 F180
G2 X344.492 Y55.000 Z-2.500 I-1.125 J0.000 F180
G2 X346.742 Y55.000 Z-3.000 I1.125 J0.000 F180
G2 X344.492 Y55.000 Z-3.500 I-1.125 J0.000 F180
G2 X346.742 Y55.000 Z-4.000 I1.125 J0.000 F180
G2 X344.492 Y55.000 Z-4.500 I-1.125 J0.000 F180
G2 X346.742 Y55.000 Z-5.000 I1.125 J0.000 F180
G2 X344.492 Y55.000 Z-5.500 I-1.125 J0.000 F180
G2 X346.742 Y55.000 Z-6.000 I1.125 J0.000 F180
G2 X344.492 Y55.000 Z-6.500 I-1.125 J0.000 F180
G2 X346.742 Y55.000 Z-7.000 I1.125 J0.000 F180
G2 X344.492 Y55.000 Z-7.500 I-1.125 J0.000 F180
G2 X346.742 Y55.000 Z-8.000 I1.125 J0.000 F180
G2 X344.492 Y55.000 Z-8.500 I-1.125 J0.000 F180
G2 X346.742 Y55.000 Z-9.000 I1.125 J0.000 F180
G2 X344.492 Y55.000 Z-9.500 I-1.125 J0.000 F180
G2 X346.742 Y55.000 Z-10.000 I1.125 J0.000 F180
G2 X344.492 Y55.000 Z-10.500 I-1.125 J0.000 F180
G2 X346.742 Y55.000 Z-11.000 I1.125 J0.000 F180
G2 X344.492 Y55.000 Z-11.500 I-1.125 J0.000 F180
G2 X346.742 Y55.000 Z-12.000 I1.125 J0.000 F180
G2 X344.492 Y55.000 Z-12.500 I-1.125 J0.000 F180
G2 X346.742 Y55.000 Z-13.000 I1.125 J0.000 F180
G2 X344.492 Y55.000 Z-13.500 I-1.125 J0.000 F180
G2 X346.742 Y55.000 Z-14.000 I1.125 J0.000 F180
G2 X344.492 Y55.000 Z-14.500 I-1.125 J0.000 F180
G2 X346.742 Y55.000 Z-15.000 I1.125 J0.000 F180
G2 X344.492 Y55.000 I-1.125 J0.000 F600
G2 X346.742 Y55.000 I1.125 J0.000 F600
G0 Z10.000
(Hole D8.2 at X325.6 Y89.6)
G0 X326.742 Y89.641 Z10.000
G0 Z0.000
G2 X324.492 Y89.641 Z-0.500 I-1.125 J0.000 F180
G2 X326.742 Y89.641 Z-1.000 I1.125 J0.000 F180
G2 X324.492 Y89.641 Z-1.500 I-1.125 J0.000 F180
G2 X326.742 Y89.641 Z-2.000 I1.125 J0.000 F180
G2 X324.492 Y89.641 Z-2.500 I-1.125 J0.000 F180
G2 X326.742 Y89.641 Z-3.000 I1.125 J0.000 F180
G2 X324.492 Y89.641 Z-3.500 I-1.125 J0.000 F180
G2 X326.742 Y89.641 Z-4.000 I1.125 J0.000 F180
G2 X324.492 Y89.641 Z-4.500 I-1.125 J0.000 F180
G2 X326.742 Y89.641 Z-5.000 I1.125 J0.000 F180
G2 X324.492 Y89.641 Z-5.500 I-1.125 J0.000 F180
G2 X326.742 Y89.641 Z-6.000 I1.125 J0.000 F180
G2 X324.492 Y89.641 Z-6.500 I-1.125 J0.000 F180
G2 X326.742 Y89.641 Z-7.000 I1.125 J0.000 F180
G2 X324.492 Y89.641 Z-7.500 I-1.125 J0.000 F180
G2 X326.742 Y89.641 Z-8.000 I1.125 J0.000 F180
G2 X324.492 Y89.641 Z-8.500 I-1.125 J0.000 F180
G2 X326.742 Y89.641 Z-9.000 I1.125 J0.000 F180
G2 X324.492 Y89.641 Z-9.500 I-1.125 J0.000 F180
G2 X326.742 Y89.641 Z-10.000 I1.125 J0.000 F180
G2 X324.492 Y89.641 Z-10.500 I-1.125 J0.000 F180
G2 X326.742 Y89.641 Z-11.000 I1.125 J0.000 F180
G2 X324.492 Y89.641 Z-11.500 I-1.125 J0.000 F180
G2 X326.742 Y89.641 Z-12.000 I1.125 J0.000 F180
G2 X324.492 Y89.641 Z-12.500 I-1.125 J0.000 F180
G2 X326.742 Y89.641 Z-13.000 I1.125 J0.000 F180
G2 X324.492 Y89.641 Z-13.500 I-1.125 J0.000 F180
G2 X326.742 Y89.641 Z-14.000 I1.125 J0.000 F180
G2 X324.492 Y89.641 Z-14.500 I-1.125 J0.000 F180
G2 X326.742 Y89.641 Z-15.000 I1.125 J0.000 F180
G2 X324.492 Y89.641 I-1.125 J0.000 F600
G2 X326.742 Y89.641 I1.125 J0.000 F600
G0 Z10.000
(Hole D8.2 at X285.6 Y89.6)
G0 X286.742 Y89.641 Z10.000
G0 Z0.000
G2 X284.492 Y89.641 Z-0.500 I-1.125 J0.000 F180
G2 X286.742 Y89.641 Z-1.000 I1.125 J0.000 F180
G2 X284.492 Y89.641 Z-1.500 I-1.125 J0.000 F180
G2 X286.742 Y89.641 Z-2.000 I1.125 J0.000 F180
G2 X284.492 Y89.641 Z-2.500 I-1.125 J0.000 F180
G2 X286.742 Y89.641 Z-3.000 I1.125 J0.000 F180
G2 X284.492 Y89.641 Z-3.500 I-1.125 J0.000 F180
G2 X286.742 Y89.641 Z-4.000 I1.125 J0.000 F180
G2 X284.492 Y89.641 Z-4.500 I-1.125 J0.000 F180
G2 X286.742 Y89.641 Z-5.000 I1.125 J0.000 F180
G2 X284.492 Y89.641 Z-5.500 I-1.125 J0.000 F180
G2 X286.742 Y89.641 Z-6.000 I1.125 J0.000 F180
G2 X284.492 Y89.641 Z-6.500 I-1.125 J0.000 F180
G2 X286.742 Y89.641 Z-7.000 I1.125 J0.000 F180
G2 X284.492 Y89.641 Z-7.500 I-1.125 J0.000 F180
G2 X286.742 Y89.641 Z-8.000 I1.125 J0.000 F180
G2 X284.492 Y89.641 Z-8.500 I-1.125 J0.000 F180
G2 X286.742 Y89.641 Z-9.000 I1.125 J0.000 F180
G2 X284.492 Y89.641 Z-9.500 I-1.125 J0.000 F180
G2 X286.742 Y89.641 Z-10.000 I1.125 J0.000 F180
G2 X284.492 Y89.641 Z-10.500 I-1.125 J0.000 F180
G2 X286.742 Y89.641 Z-11.000 I1.125 J0.000 F180
G2 X284.492 Y89.641 Z-11.500 I-1.125 J0.000 F180
G2 X286.742 Y89.641 Z-12.000 I1.125 J0.000 F180
G2 X284.492 Y89.641 Z-12.500 I-1.125 J0.000 F180
G2 X286.742 Y89.641 Z-13.000 I1.125 J0.000 F180
G2 X284.492 Y89.641 Z-13.500 I-1.125 J0.000 F180
G2 X286.742 Y89.641 Z-14.000 I1.125 J0.000 F180
G2 X284.492 Y89.641 Z-14.500 I-1.125 J0.000 F180
G2 X286.742 Y89.641 Z-15.000 I1.125 J0.000 F180
G2 X284.492 Y89.641 I-1.125 J0.000 F600
G2 X286.742 Y89.641 I1.125 J0.000 F600
G0 Z10.000
(Hole D8.2 at X265.6 Y55.0)
G0 X266.742 Y55.000 Z10.000
G0 Z0.000
G2 X264.492 Y55.000 Z-0.500 I-1.125 J0.000 F180
G2 X266.742 Y55.000 Z-1.000 I1.125 J0.000 F180
G2 X264.492 Y55.000 Z-1.500 I-1.125 J0.000 F180
G2 X266.742 Y55.000 Z-2.000 I1.125 J0.000 F180
G2 X264.492 Y55.000 Z-2.500 I-1.125 J0.000 F180
G2 X266.742 Y55.000 Z-3.000 I1.125 J0.000 F180
G2 X264.492 Y55.000 Z-3.500 I-1.125 J0.000 F180
G2 X266.742 Y55.000 Z-4.000 I1.125 J0.000 F180
G2 X264.492 Y55.000 Z-4.500 I-1.125 J0.000 F180
G2 X266.742 Y55.000 Z-5.000 I1.125 J0.000 F180
G2 X264.492 Y55.000 Z-5.500 I-1.125 J0.000 F180
G2 X266.742 Y55.000 Z-6.000 I1.125 J0.000 F180
G2 X264.492 Y55.000 Z-6.500 I-1.125 J0.000 F180
G2 X266.742 Y55.000 Z-7.000 I1.125 J0.000 F180
G2 X264.492 Y55.000 Z-7.500 I-1.125 J0.000 F180
G2 X266.742 Y55.000 Z-8.000 I1.125 J0.000 F180
G2 X264.492 Y55.000 Z-8.500 I-1.125 J0.000 F180
G2 X266.742 Y55.000 Z-9.000 I1.125 J0.000 F180
G2 X264.492 Y55.000 Z-9.500 I-1.125 J0.000 F180
G2 X266.742 Y55.000 Z-10.000 I1.125 J0.000 F180
G2 X264.492 Y55.000 Z-10.500 I-1.125 J0.000 F180
G2 X266.742 Y55.000 Z-11.000 I1.125 J0.000 F180
G2 X264.492 Y55.000 Z-11.500 I-1.125 J0.000 F180
G2 X266.742 Y55.000 Z-12.000 I1.125 J0.000 F180
G2 X264.492 Y55.000 Z-12.500 I-1.125 J0.000 F180
G2 X266.742 Y55.000 Z-13.000 I1.125 J0.000 F180
G2 X264.492 Y55.000 Z-13.500 I-1.125 J0.000 F180
G2 X266.742 Y55.000 Z-14.000 I1.125 J0.000 F180
G2 X264.492 Y55.000 Z-14.500 I-1.125 J0.000 F180
G2 X266.742 Y55.000 Z-15.000 I1.125 J0.000 F180
G2 X264.492 Y55.000 I-1.125 J0.000 F600
G2 X266.742 Y55.000 I1.125 J0.000 F600
G0 Z10.000
(Hole D8.2 at X285.6 Y20.4)
G0 X286.742 Y20.359 Z10.000
G0 Z0.000
G2 X284.492 Y20.359 Z-0.500 I-1.125 J0.000 F180
G2 X286.742 Y20.359 Z-1.000 I1.125 J0.000 F180
G2 X284.492 Y20.359 Z-1.500 I-1.125 J0.000 F180
G2 X286.742 Y20.359 Z-2.000 I1.125 J0.000 F180
G2 X284.492 Y20.359 Z-2.500 I-1.125 J0.000 F180
G2 X286.742 Y20.359 Z-3.000 I1.125 J0.000 F180
G2 X284.492 Y20.359 Z-3.500 I-1.125 J0.000 F180
G2 X286.742 Y20.359 Z-4.000 I1.125 J0.000 F180
G2 X284.492 Y20.359 Z-4.500 I-1.125 J0.000 F180
G2 X286.742 Y20.359 Z-5.000 I1.125 J0.000 F180
G2 X284.492 Y20.359 Z-5.500 I-1.125 J0.000 F180
G2 X286.742 Y20.359 Z-6.000 I1.125 J0.000 F180
G2 X284.492 Y20.359 Z-6.500 I-1.125 J0.000 F180
G2 X286.742 Y20.359 Z-7.000 I1.125 J0.000 F180
G2 X284.492 Y20.359 Z-7.500 I-1.125 J0.000 F180
G2 X286.742 Y20.359 Z-8.000 I1.125 J0.000 F180
G2 X284.492 Y20.359 Z-8.500 I-1.125 J0.000 F180
G2 X286.742 Y20.359 Z-9.000 I1.125 J0.000 F180
G2 X284.492 Y20.359 Z-9.500 I-1.125 J0.000 F180
G2 X286.742 Y20.359 Z-10.000 I1.125 J0.000 F180
G2 X284.492 Y20.359 Z-10.500 I-1.125 J0.000 F180
G2 X286.742 Y20.359 Z-11.000 I1.125 J0.000 F180
G2 X284.492 Y20.359 Z-11.500 I-1.125 J0.000 F180
G2 X286.742 Y20.359 Z-12.000 I1.125 J0.000 F180
G2 X284.492 Y20.359 Z-12.500 I-1.125 J0.000 F180
G2 X286.742 Y20.359 Z-13.000 I1.125 J0.000 F180
G2 X284.492 Y20.359 Z-13.500 I-1.125 J0.000 F180
G2 X286.742 Y20.359 Z-14.000 I1.125 J0.000 F180
G2 X284.492 Y20.359 Z-14.500 I-1.125 J0.000 F180
G2 X286.742 Y20.359 Z-15.000 I1.125 J0.000 F180
G2 X284.492 Y20.359 I-1.125 J0.000 F600
G2 X286.742 Y20.359 I1.125 J0.000 F600
G0 Z10.000
(Hole D8.2 at X325.6 Y20.4)
G0 X326.742 Y20.359 Z10.000
G0 Z0.000
G2 X324.492 Y20.359 Z-0.500 I-1.125 J0.000 F180
G2 X326.742 Y20.359 Z-1.000 I1.125 J0.000 F180
G2 X324.492 Y20.359 Z-1.500 I-1.125 J0.000 F180
G2 X326.742 Y20.359 Z-2.000 I1.125 J0.000 F180
G2 X324.492 Y20.359 Z-2.500 I-1.125 J0.000 F180
G2 X326.742 Y20.359 Z-3.000 I1.125 J0.000 F180
G2 X324.492 Y20.359 Z-3.500 I-1.125 J0.000 F180
G2 X326.742 Y20.359 Z-4.000 I1.125 J0.000 F180
G2 X324.492 Y20.359 Z-4.500 I-1.125 J0.000 F180
G2 X326.742 Y20.359 Z-5.000 I1.125 J0.000 F180
G2 X324.492 Y20.359 Z-5.500 I-1.125 J0.000 F180
G2 X326.742 Y20.359 Z-6.000 I1.125 J0.000 F180
G2 X324.492 Y20.359 Z-6.500 I-1.125 J0.000 F180
G2 X326.742 Y20.359 Z-7.000 I1.125 J0.000 F180
G2 X324.492 Y20.359 Z-7.500 I-1.125 J0.000 F180
G2 X326.742 Y20.359 Z-8.000 I1.125 J0.000 F180
G2 X324.492 Y20.359 Z-8.500 I-1.125 J0.000 F180
G2 X326.742 Y20.359 Z-9.000 I1.125 J0.000 F180
G2 X324.492 Y20.359 Z-9.500 I-1.125 J0.000 F180
G2 X326.742 Y20.359 Z-10.000 I1.125 J0.000 F180
G2 X324.492 Y20.359 Z-10.500 I-1.125 J0.000 F180
G2 X326.742 Y20.359 Z-11.000 I1.125 J0.000 F180
G2 X324.492 Y20.359 Z-11.500 I-1.125 J0.000 F180
G2 X326.742 Y20.359 Z-12.000 I1.125 J0.000 F180
G2 X324.492 Y20.359 Z-12.500 I-1.125 J0.000 F180
G2 X326.742 Y20.359 Z-13.000 I1.125 J0.000 F180
G2 X324.492 Y20.359 Z-13.500 I-1.125 J0.000 F180
G2 X326.742 Y20.359 Z-14.000 I1.125 J0.000 F180
G2 X324.492 Y20.359 Z-14.500 I-1.125 J0.000 F180
G2 X326.742 Y20.359 Z-15.000 I1.125 J0.000 F180
G2 X324.492 Y20.359 I-1.125 J0.000 F600
G2 X326.742 Y20.359 I1.125 J0.000 F600
G0 Z10.000
M5 (spindle stop)
(--- Tool T6: D8 平底铣刀, 孔径 18.0mm → 选 D8 钻铣 ---)
T6 M6
S4000 M3
G4 P1 (dwell 1s for spindle ramp-up)
G0 Z10.000
(Hole D21.2 at X286.5 Y55.0)
G0 X293.145 Y55.000 Z10.000
G0 Z0.000
G2 X279.897 Y55.000 Z-0.500 I-6.624 J0.000 F240
G2 X293.145 Y55.000 Z-1.000 I6.624 J0.000 F240
G2 X279.897 Y55.000 Z-1.500 I-6.624 J0.000 F240
G2 X293.145 Y55.000 Z-2.000 I6.624 J0.000 F240
G2 X279.897 Y55.000 Z-2.500 I-6.624 J0.000 F240
G2 X293.145 Y55.000 Z-3.000 I6.624 J0.000 F240
G2 X279.897 Y55.000 Z-3.500 I-6.624 J0.000 F240
G2 X293.145 Y55.000 Z-4.000 I6.624 J0.000 F240
G2 X279.897 Y55.000 Z-4.500 I-6.624 J0.000 F240
G2 X293.145 Y55.000 Z-5.000 I6.624 J0.000 F240
G2 X279.897 Y55.000 Z-5.500 I-6.624 J0.000 F240
G2 X293.145 Y55.000 Z-6.000 I6.624 J0.000 F240
G2 X279.897 Y55.000 Z-6.500 I-6.624 J0.000 F240
G2 X293.145 Y55.000 Z-7.000 I6.624 J0.000 F240
G2 X279.897 Y55.000 Z-7.500 I-6.624 J0.000 F240
G2 X293.145 Y55.000 Z-8.000 I6.624 J0.000 F240
G2 X279.897 Y55.000 Z-8.500 I-6.624 J0.000 F240
G2 X293.145 Y55.000 Z-9.000 I6.624 J0.000 F240
G2 X279.897 Y55.000 Z-9.500 I-6.624 J0.000 F240
G2 X293.145 Y55.000 Z-10.000 I6.624 J0.000 F240
G2 X279.897 Y55.000 Z-10.500 I-6.624 J0.000 F240
G2 X293.145 Y55.000 Z-11.000 I6.624 J0.000 F240
G2 X279.897 Y55.000 Z-11.500 I-6.624 J0.000 F240
G2 X293.145 Y55.000 Z-12.000 I6.624 J0.000 F240
G2 X279.897 Y55.000 Z-12.500 I-6.624 J0.000 F240
G2 X293.145 Y55.000 Z-13.000 I6.624 J0.000 F240
G2 X279.897 Y55.000 Z-13.500 I-6.624 J0.000 F240
G2 X293.145 Y55.000 Z-14.000 I6.624 J0.000 F240
G2 X279.897 Y55.000 Z-14.500 I-6.624 J0.000 F240
G2 X293.145 Y55.000 Z-15.000 I6.624 J0.000 F240
G2 X279.897 Y55.000 Z-15.500 I-6.624 J0.000 F240
G2 X293.145 Y55.000 Z-16.000 I6.624 J0.000 F240
G2 X279.897 Y55.000 Z-16.500 I-6.624 J0.000 F240
G2 X293.145 Y55.000 Z-17.000 I6.624 J0.000 F240
G2 X279.897 Y55.000 Z-17.500 I-6.624 J0.000 F240
G2 X293.145 Y55.000 Z-18.000 I6.624 J0.000 F240
G2 X279.897 Y55.000 Z-18.500 I-6.624 J0.000 F240
G2 X293.145 Y55.000 Z-19.000 I6.624 J0.000 F240
G2 X279.897 Y55.000 Z-19.500 I-6.624 J0.000 F240
G2 X293.145 Y55.000 Z-20.000 I6.624 J0.000 F240
G2 X279.897 Y55.000 I-6.624 J0.000 F800
G2 X293.145 Y55.000 I6.624 J0.000 F800
G0 Z10.000
(Hole D21.2 at X315.2 Y55.0)
G0 X321.787 Y55.000 Z10.000
G0 Z0.000
G2 X308.539 Y55.000 Z-0.500 I-6.624 J0.000 F240
G2 X321.787 Y55.000 Z-1.000 I6.624 J0.000 F240
G2 X308.539 Y55.000 Z-1.500 I-6.624 J0.000 F240
G2 X321.787 Y55.000 Z-2.000 I6.624 J0.000 F240
G2 X308.539 Y55.000 Z-2.500 I-6.624 J0.000 F240
G2 X321.787 Y55.000 Z-3.000 I6.624 J0.000 F240
G2 X308.539 Y55.000 Z-3.500 I-6.624 J0.000 F240
G2 X321.787 Y55.000 Z-4.000 I6.624 J0.000 F240
G2 X308.539 Y55.000 Z-4.500 I-6.624 J0.000 F240
G2 X321.787 Y55.000 Z-5.000 I6.624 J0.000 F240
G2 X308.539 Y55.000 Z-5.500 I-6.624 J0.000 F240
G2 X321.787 Y55.000 Z-6.000 I6.624 J0.000 F240
G2 X308.539 Y55.000 Z-6.500 I-6.624 J0.000 F240
G2 X321.787 Y55.000 Z-7.000 I6.624 J0.000 F240
G2 X308.539 Y55.000 Z-7.500 I-6.624 J0.000 F240
G2 X321.787 Y55.000 Z-8.000 I6.624 J0.000 F240
G2 X308.539 Y55.000 Z-8.500 I-6.624 J0.000 F240
G2 X321.787 Y55.000 Z-9.000 I6.624 J0.000 F240
G2 X308.539 Y55.000 Z-9.500 I-6.624 J0.000 F240
G2 X321.787 Y55.000 Z-10.000 I6.624 J0.000 F240
G2 X308.539 Y55.000 Z-10.500 I-6.624 J0.000 F240
G2 X321.787 Y55.000 Z-11.000 I6.624 J0.000 F240
G2 X308.539 Y55.000 Z-11.500 I-6.624 J0.000 F240
G2 X321.787 Y55.000 Z-12.000 I6.624 J0.000 F240
G2 X308.539 Y55.000 Z-12.500 I-6.624 J0.000 F240
G2 X321.787 Y55.000 Z-13.000 I6.624 J0.000 F240
G2 X308.539 Y55.000 Z-13.500 I-6.624 J0.000 F240
G2 X321.787 Y55.000 Z-14.000 I6.624 J0.000 F240
G2 X308.539 Y55.000 Z-14.500 I-6.624 J0.000 F240
G2 X321.787 Y55.000 Z-15.000 I6.624 J0.000 F240
G2 X308.539 Y55.000 Z-15.500 I-6.624 J0.000 F240
G2 X321.787 Y55.000 Z-16.000 I6.624 J0.000 F240
G2 X308.539 Y55.000 Z-16.500 I-6.624 J0.000 F240
G2 X321.787 Y55.000 Z-17.000 I6.624 J0.000 F240
G2 X308.539 Y55.000 Z-17.500 I-6.624 J0.000 F240
G2 X321.787 Y55.000 Z-18.000 I6.624 J0.000 F240
G2 X308.539 Y55.000 Z-18.500 I-6.624 J0.000 F240
G2 X321.787 Y55.000 Z-19.000 I6.624 J0.000 F240
G2 X308.539 Y55.000 Z-19.500 I-6.624 J0.000 F240
G2 X321.787 Y55.000 Z-20.000 I6.624 J0.000 F240
G2 X308.539 Y55.000 I-6.624 J0.000 F800
G2 X321.787 Y55.000 I6.624 J0.000 F800
G0 Z10.000
(Pocket 125.0x20.0 depth 20.0 at X441.9 Y39.0)
G0 X496.362 Y33.000 Z10.000
G1 X496.362 Y33.000 Z-2.000 F240
G1 X500.362 Y37.000 F800
G2 X496.362 Y45.000 I-4.000 J4.000 F800
G1 X387.362 Y45.000 F800
G2 X383.362 Y41.000 I0.000 J-4.000 F800
G1 X383.362 Y37.000 F800
G2 X387.362 Y33.000 I4.000 J0.000 F800
G1 X496.362 Y33.000 F800
G2 X500.362 Y37.000 I0.000 J4.000 F800
G1 X496.362 Y33.000 Z-4.000 F240
G1 X500.362 Y37.000 F800
G2 X496.362 Y45.000 I-4.000 J4.000 F800
G1 X387.362 Y45.000 F800
G2 X383.362 Y41.000 I0.000 J-4.000 F800
G1 X383.362 Y37.000 F800
G2 X387.362 Y33.000 I4.000 J0.000 F800
G1 X496.362 Y33.000 F800
G2 X500.362 Y37.000 I0.000 J4.000 F800
G1 X496.362 Y33.000 Z-6.000 F240
G1 X500.362 Y37.000 F800
G2 X496.362 Y45.000 I-4.000 J4.000 F800
G1 X387.362 Y45.000 F800
G2 X383.362 Y41.000 I0.000 J-4.000 F800
G1 X383.362 Y37.000 F800
G2 X387.362 Y33.000 I4.000 J0.000 F800
G1 X496.362 Y33.000 F800
G2 X500.362 Y37.000 I0.000 J4.000 F800
G1 X496.362 Y33.000 Z-8.000 F240
G1 X500.362 Y37.000 F800
G2 X496.362 Y45.000 I-4.000 J4.000 F800
G1 X387.362 Y45.000 F800
G2 X383.362 Y41.000 I0.000 J-4.000 F800
G1 X383.362 Y37.000 F800
G2 X387.362 Y33.000 I4.000 J0.000 F800
G1 X496.362 Y33.000 F800
G2 X500.362 Y37.000 I0.000 J4.000 F800
G1 X496.362 Y33.000 Z-10.000 F240
G1 X500.362 Y37.000 F800
G2 X496.362 Y45.000 I-4.000 J4.000 F800
G1 X387.362 Y45.000 F800
G2 X383.362 Y41.000 I0.000 J-4.000 F800
G1 X383.362 Y37.000 F800
G2 X387.362 Y33.000 I4.000 J0.000 F800
G1 X496.362 Y33.000 F800
G2 X500.362 Y37.000 I0.000 J4.000 F800
G1 X496.362 Y33.000 Z-12.000 F240
G1 X500.362 Y37.000 F800
G2 X496.362 Y45.000 I-4.000 J4.000 F800
G1 X387.362 Y45.000 F800
G2 X383.362 Y41.000 I0.000 J-4.000 F800
G1 X383.362 Y37.000 F800
G2 X387.362 Y33.000 I4.000 J0.000 F800
G1 X496.362 Y33.000 F800
G2 X500.362 Y37.000 I0.000 J4.000 F800
G1 X496.362 Y33.000 Z-14.000 F240
G1 X500.362 Y37.000 F800
G2 X496.362 Y45.000 I-4.000 J4.000 F800
G1 X387.362 Y45.000 F800
G2 X383.362 Y41.000 I0.000 J-4.000 F800
G1 X383.362 Y37.000 F800
G2 X387.362 Y33.000 I4.000 J0.000 F800
G1 X496.362 Y33.000 F800
G2 X500.362 Y37.000 I0.000 J4.000 F800
G1 X496.362 Y33.000 Z-16.000 F240
G1 X500.362 Y37.000 F800
G2 X496.362 Y45.000 I-4.000 J4.000 F800
G1 X387.362 Y45.000 F800
G2 X383.362 Y41.000 I0.000 J-4.000 F800
G1 X383.362 Y37.000 F800
G2 X387.362 Y33.000 I4.000 J0.000 F800
G1 X496.362 Y33.000 F800
G2 X500.362 Y37.000 I0.000 J4.000 F800
G1 X496.362 Y33.000 Z-18.000 F240
G1 X500.362 Y37.000 F800
G2 X496.362 Y45.000 I-4.000 J4.000 F800
G1 X387.362 Y45.000 F800
G2 X383.362 Y41.000 I0.000 J-4.000 F800
G1 X383.362 Y37.000 F800
G2 X387.362 Y33.000 I4.000 J0.000 F800
G1 X496.362 Y33.000 F800
G2 X500.362 Y37.000 I0.000 J4.000 F800
G1 X496.362 Y33.000 Z-20.000 F240
G1 X500.362 Y37.000 F800
G2 X496.362 Y45.000 I-4.000 J4.000 F800
G1 X387.362 Y45.000 F800
G2 X383.362 Y41.000 I0.000 J-4.000 F800
G1 X383.362 Y37.000 F800
G2 X387.362 Y33.000 I4.000 J0.000 F800
G1 X496.362 Y33.000 F800
G2 X500.362 Y37.000 I0.000 J4.000 F800
G1 X496.362 Y33.000 Z-20.000 F240
G1 X500.362 Y37.000 F800
G2 X496.362 Y45.000 I-4.000 J4.000 F800
G1 X387.362 Y45.000 F800
G2 X383.362 Y41.000 I0.000 J-4.000 F800
G1 X383.362 Y37.000 F800
G2 X387.362 Y33.000 I4.000 J0.000 F800
G1 X496.362 Y33.000 F800
G2 X500.362 Y37.000 I0.000 J4.000 F800
G0 Z10.000
(Hole D18.0 at X514.5 Y55.0)
G0 X519.548 Y55.000 Z10.000
G0 Z0.000
G2 X509.548 Y55.000 Z-0.500 I-5.000 J0.000 F240
G2 X519.548 Y55.000 Z-1.000 I5.000 J0.000 F240
G2 X509.548 Y55.000 Z-1.500 I-5.000 J0.000 F240
G2 X519.548 Y55.000 Z-2.000 I5.000 J0.000 F240
G2 X509.548 Y55.000 Z-2.500 I-5.000 J0.000 F240
G2 X519.548 Y55.000 Z-3.000 I5.000 J0.000 F240
G2 X509.548 Y55.000 Z-3.500 I-5.000 J0.000 F240
G2 X519.548 Y55.000 Z-4.000 I5.000 J0.000 F240
G2 X509.548 Y55.000 Z-4.500 I-5.000 J0.000 F240
G2 X519.548 Y55.000 Z-5.000 I5.000 J0.000 F240
G2 X509.548 Y55.000 Z-5.500 I-5.000 J0.000 F240
G2 X519.548 Y55.000 Z-6.000 I5.000 J0.000 F240
G2 X509.548 Y55.000 Z-6.500 I-5.000 J0.000 F240
G2 X519.548 Y55.000 Z-7.000 I5.000 J0.000 F240
G2 X509.548 Y55.000 Z-7.500 I-5.000 J0.000 F240
G2 X519.548 Y55.000 Z-8.000 I5.000 J0.000 F240
G2 X509.548 Y55.000 Z-8.500 I-5.000 J0.000 F240
G2 X519.548 Y55.000 Z-9.000 I5.000 J0.000 F240
G2 X509.548 Y55.000 Z-9.500 I-5.000 J0.000 F240
G2 X519.548 Y55.000 Z-10.000 I5.000 J0.000 F240
G2 X509.548 Y55.000 Z-10.500 I-5.000 J0.000 F240
G2 X519.548 Y55.000 Z-11.000 I5.000 J0.000 F240
G2 X509.548 Y55.000 Z-11.500 I-5.000 J0.000 F240
G2 X519.548 Y55.000 Z-12.000 I5.000 J0.000 F240
G2 X509.548 Y55.000 Z-12.500 I-5.000 J0.000 F240
G2 X519.548 Y55.000 Z-13.000 I5.000 J0.000 F240
G2 X509.548 Y55.000 Z-13.500 I-5.000 J0.000 F240
G2 X519.548 Y55.000 Z-14.000 I5.000 J0.000 F240
G2 X509.548 Y55.000 Z-14.500 I-5.000 J0.000 F240
G2 X519.548 Y55.000 Z-15.000 I5.000 J0.000 F240
G2 X509.548 Y55.000 Z-15.500 I-5.000 J0.000 F240
G2 X519.548 Y55.000 Z-16.000 I5.000 J0.000 F240
G2 X509.548 Y55.000 Z-16.500 I-5.000 J0.000 F240
G2 X519.548 Y55.000 Z-17.000 I5.000 J0.000 F240
G2 X509.548 Y55.000 Z-17.500 I-5.000 J0.000 F240
G2 X519.548 Y55.000 Z-18.000 I5.000 J0.000 F240
G2 X509.548 Y55.000 Z-18.500 I-5.000 J0.000 F240
G2 X519.548 Y55.000 Z-19.000 I5.000 J0.000 F240
G2 X509.548 Y55.000 Z-19.500 I-5.000 J0.000 F240
G2 X519.548 Y55.000 Z-20.000 I5.000 J0.000 F240
G2 X509.548 Y55.000 I-5.000 J0.000 F800
G2 X519.548 Y55.000 I5.000 J0.000 F800
G0 Z10.000
(Hole D18.0 at X369.2 Y55.0)
G0 X374.176 Y55.000 Z10.000
G0 Z0.000
G2 X364.176 Y55.000 Z-0.500 I-5.000 J0.000 F240
G2 X374.176 Y55.000 Z-1.000 I5.000 J0.000 F240
G2 X364.176 Y55.000 Z-1.500 I-5.000 J0.000 F240
G2 X374.176 Y55.000 Z-2.000 I5.000 J0.000 F240
G2 X364.176 Y55.000 Z-2.500 I-5.000 J0.000 F240
G2 X374.176 Y55.000 Z-3.000 I5.000 J0.000 F240
G2 X364.176 Y55.000 Z-3.500 I-5.000 J0.000 F240
G2 X374.176 Y55.000 Z-4.000 I5.000 J0.000 F240
G2 X364.176 Y55.000 Z-4.500 I-5.000 J0.000 F240
G2 X374.176 Y55.000 Z-5.000 I5.000 J0.000 F240
G2 X364.176 Y55.000 Z-5.500 I-5.000 J0.000 F240
G2 X374.176 Y55.000 Z-6.000 I5.000 J0.000 F240
G2 X364.176 Y55.000 Z-6.500 I-5.000 J0.000 F240
G2 X374.176 Y55.000 Z-7.000 I5.000 J0.000 F240
G2 X364.176 Y55.000 Z-7.500 I-5.000 J0.000 F240
G2 X374.176 Y55.000 Z-8.000 I5.000 J0.000 F240
G2 X364.176 Y55.000 Z-8.500 I-5.000 J0.000 F240
G2 X374.176 Y55.000 Z-9.000 I5.000 J0.000 F240
G2 X364.176 Y55.000 Z-9.500 I-5.000 J0.000 F240
G2 X374.176 Y55.000 Z-10.000 I5.000 J0.000 F240
G2 X364.176 Y55.000 Z-10.500 I-5.000 J0.000 F240
G2 X374.176 Y55.000 Z-11.000 I5.000 J0.000 F240
G2 X364.176 Y55.000 Z-11.500 I-5.000 J0.000 F240
G2 X374.176 Y55.000 Z-12.000 I5.000 J0.000 F240
G2 X364.176 Y55.000 Z-12.500 I-5.000 J0.000 F240
G2 X374.176 Y55.000 Z-13.000 I5.000 J0.000 F240
G2 X364.176 Y55.000 Z-13.500 I-5.000 J0.000 F240
G2 X374.176 Y55.000 Z-14.000 I5.000 J0.000 F240
G2 X364.176 Y55.000 Z-14.500 I-5.000 J0.000 F240
G2 X374.176 Y55.000 Z-15.000 I5.000 J0.000 F240
G2 X364.176 Y55.000 Z-15.500 I-5.000 J0.000 F240
G2 X374.176 Y55.000 Z-16.000 I5.000 J0.000 F240
G2 X364.176 Y55.000 Z-16.500 I-5.000 J0.000 F240
G2 X374.176 Y55.000 Z-17.000 I5.000 J0.000 F240
G2 X364.176 Y55.000 Z-17.500 I-5.000 J0.000 F240
G2 X374.176 Y55.000 Z-18.000 I5.000 J0.000 F240
G2 X364.176 Y55.000 Z-18.500 I-5.000 J0.000 F240
G2 X374.176 Y55.000 Z-19.000 I5.000 J0.000 F240
G2 X364.176 Y55.000 Z-19.500 I-5.000 J0.000 F240
G2 X374.176 Y55.000 Z-20.000 I5.000 J0.000 F240
G2 X364.176 Y55.000 I-5.000 J0.000 F800
G2 X374.176 Y55.000 I5.000 J0.000 F800
G0 Z10.000
(Pocket 170.0x20.0 depth 20.0 at X135.8 Y39.0)
G0 X212.792 Y33.000 Z10.000
G1 X212.792 Y33.000 Z-2.000 F240
G1 X216.792 Y37.000 F800
G2 X212.792 Y45.000 I-4.000 J4.000 F800
G1 X58.792 Y45.000 F800
G2 X54.792 Y41.000 I0.000 J-4.000 F800
G1 X54.792 Y37.000 F800
G2 X58.792 Y33.000 I4.000 J0.000 F800
G1 X212.792 Y33.000 F800
G2 X216.792 Y37.000 I0.000 J4.000 F800
G1 X212.792 Y33.000 Z-4.000 F240
G1 X216.792 Y37.000 F800
G2 X212.792 Y45.000 I-4.000 J4.000 F800
G1 X58.792 Y45.000 F800
G2 X54.792 Y41.000 I0.000 J-4.000 F800
G1 X54.792 Y37.000 F800
G2 X58.792 Y33.000 I4.000 J0.000 F800
G1 X212.792 Y33.000 F800
G2 X216.792 Y37.000 I0.000 J4.000 F800
G1 X212.792 Y33.000 Z-6.000 F240
G1 X216.792 Y37.000 F800
G2 X212.792 Y45.000 I-4.000 J4.000 F800
G1 X58.792 Y45.000 F800
G2 X54.792 Y41.000 I0.000 J-4.000 F800
G1 X54.792 Y37.000 F800
G2 X58.792 Y33.000 I4.000 J0.000 F800
G1 X212.792 Y33.000 F800
G2 X216.792 Y37.000 I0.000 J4.000 F800
G1 X212.792 Y33.000 Z-8.000 F240
G1 X216.792 Y37.000 F800
G2 X212.792 Y45.000 I-4.000 J4.000 F800
G1 X58.792 Y45.000 F800
G2 X54.792 Y41.000 I0.000 J-4.000 F800
G1 X54.792 Y37.000 F800
G2 X58.792 Y33.000 I4.000 J0.000 F800
G1 X212.792 Y33.000 F800
G2 X216.792 Y37.000 I0.000 J4.000 F800
G1 X212.792 Y33.000 Z-10.000 F240
G1 X216.792 Y37.000 F800
G2 X212.792 Y45.000 I-4.000 J4.000 F800
G1 X58.792 Y45.000 F800
G2 X54.792 Y41.000 I0.000 J-4.000 F800
G1 X54.792 Y37.000 F800
G2 X58.792 Y33.000 I4.000 J0.000 F800
G1 X212.792 Y33.000 F800
G2 X216.792 Y37.000 I0.000 J4.000 F800
G1 X212.792 Y33.000 Z-12.000 F240
G1 X216.792 Y37.000 F800
G2 X212.792 Y45.000 I-4.000 J4.000 F800
G1 X58.792 Y45.000 F800
G2 X54.792 Y41.000 I0.000 J-4.000 F800
G1 X54.792 Y37.000 F800
G2 X58.792 Y33.000 I4.000 J0.000 F800
G1 X212.792 Y33.000 F800
G2 X216.792 Y37.000 I0.000 J4.000 F800
G1 X212.792 Y33.000 Z-14.000 F240
G1 X216.792 Y37.000 F800
G2 X212.792 Y45.000 I-4.000 J4.000 F800
G1 X58.792 Y45.000 F800
G2 X54.792 Y41.000 I0.000 J-4.000 F800
G1 X54.792 Y37.000 F800
G2 X58.792 Y33.000 I4.000 J0.000 F800
G1 X212.792 Y33.000 F800
G2 X216.792 Y37.000 I0.000 J4.000 F800
G1 X212.792 Y33.000 Z-16.000 F240
G1 X216.792 Y37.000 F800
G2 X212.792 Y45.000 I-4.000 J4.000 F800
G1 X58.792 Y45.000 F800
G2 X54.792 Y41.000 I0.000 J-4.000 F800
G1 X54.792 Y37.000 F800
G2 X58.792 Y33.000 I4.000 J0.000 F800
G1 X212.792 Y33.000 F800
G2 X216.792 Y37.000 I0.000 J4.000 F800
G1 X212.792 Y33.000 Z-18.000 F240
G1 X216.792 Y37.000 F800
G2 X212.792 Y45.000 I-4.000 J4.000 F800
G1 X58.792 Y45.000 F800
G2 X54.792 Y41.000 I0.000 J-4.000 F800
G1 X54.792 Y37.000 F800
G2 X58.792 Y33.000 I4.000 J0.000 F800
G1 X212.792 Y33.000 F800
G2 X216.792 Y37.000 I0.000 J4.000 F800
G1 X212.792 Y33.000 Z-20.000 F240
G1 X216.792 Y37.000 F800
G2 X212.792 Y45.000 I-4.000 J4.000 F800
G1 X58.792 Y45.000 F800
G2 X54.792 Y41.000 I0.000 J-4.000 F800
G1 X54.792 Y37.000 F800
G2 X58.792 Y33.000 I4.000 J0.000 F800
G1 X212.792 Y33.000 F800
G2 X216.792 Y37.000 I0.000 J4.000 F800
G1 X212.792 Y33.000 Z-20.000 F240
G1 X216.792 Y37.000 F800
G2 X212.792 Y45.000 I-4.000 J4.000 F800
G1 X58.792 Y45.000 F800
G2 X54.792 Y41.000 I0.000 J-4.000 F800
G1 X54.792 Y37.000 F800
G2 X58.792 Y33.000 I4.000 J0.000 F800
G1 X212.792 Y33.000 F800
G2 X216.792 Y37.000 I0.000 J4.000 F800
G0 Z10.000
(Hole D18.0 at X231.0 Y55.0)
G0 X235.978 Y55.000 Z10.000
G0 Z0.000
G2 X225.978 Y55.000 Z-0.500 I-5.000 J0.000 F240
G2 X235.978 Y55.000 Z-1.000 I5.000 J0.000 F240
G2 X225.978 Y55.000 Z-1.500 I-5.000 J0.000 F240
G2 X235.978 Y55.000 Z-2.000 I5.000 J0.000 F240
G2 X225.978 Y55.000 Z-2.500 I-5.000 J0.000 F240
G2 X235.978 Y55.000 Z-3.000 I5.000 J0.000 F240
G2 X225.978 Y55.000 Z-3.500 I-5.000 J0.000 F240
G2 X235.978 Y55.000 Z-4.000 I5.000 J0.000 F240
G2 X225.978 Y55.000 Z-4.500 I-5.000 J0.000 F240
G2 X235.978 Y55.000 Z-5.000 I5.000 J0.000 F240
G2 X225.978 Y55.000 Z-5.500 I-5.000 J0.000 F240
G2 X235.978 Y55.000 Z-6.000 I5.000 J0.000 F240
G2 X225.978 Y55.000 Z-6.500 I-5.000 J0.000 F240
G2 X235.978 Y55.000 Z-7.000 I5.000 J0.000 F240
G2 X225.978 Y55.000 Z-7.500 I-5.000 J0.000 F240
G2 X235.978 Y55.000 Z-8.000 I5.000 J0.000 F240
G2 X225.978 Y55.000 Z-8.500 I-5.000 J0.000 F240
G2 X235.978 Y55.000 Z-9.000 I5.000 J0.000 F240
G2 X225.978 Y55.000 Z-9.500 I-5.000 J0.000 F240
G2 X235.978 Y55.000 Z-10.000 I5.000 J0.000 F240
G2 X225.978 Y55.000 Z-10.500 I-5.000 J0.000 F240
G2 X235.978 Y55.000 Z-11.000 I5.000 J0.000 F240
G2 X225.978 Y55.000 Z-11.500 I-5.000 J0.000 F240
G2 X235.978 Y55.000 Z-12.000 I5.000 J0.000 F240
G2 X225.978 Y55.000 Z-12.500 I-5.000 J0.000 F240
G2 X235.978 Y55.000 Z-13.000 I5.000 J0.000 F240
G2 X225.978 Y55.000 Z-13.500 I-5.000 J0.000 F240
G2 X235.978 Y55.000 Z-14.000 I5.000 J0.000 F240
G2 X225.978 Y55.000 Z-14.500 I-5.000 J0.000 F240
G2 X235.978 Y55.000 Z-15.000 I5.000 J0.000 F240
G2 X225.978 Y55.000 Z-15.500 I-5.000 J0.000 F240
G2 X235.978 Y55.000 Z-16.000 I5.000 J0.000 F240
G2 X225.978 Y55.000 Z-16.500 I-5.000 J0.000 F240
G2 X235.978 Y55.000 Z-17.000 I5.000 J0.000 F240
G2 X225.978 Y55.000 Z-17.500 I-5.000 J0.000 F240
G2 X235.978 Y55.000 Z-18.000 I5.000 J0.000 F240
G2 X225.978 Y55.000 Z-18.500 I-5.000 J0.000 F240
G2 X235.978 Y55.000 Z-19.000 I5.000 J0.000 F240
G2 X225.978 Y55.000 Z-19.500 I-5.000 J0.000 F240
G2 X235.978 Y55.000 Z-20.000 I5.000 J0.000 F240
G2 X225.978 Y55.000 I-5.000 J0.000 F800
G2 X235.978 Y55.000 I5.000 J0.000 F800
G0 Z10.000
(Hole D18.0 at X40.6 Y55.0)
G0 X45.606 Y55.000 Z10.000
G0 Z0.000
G2 X35.606 Y55.000 Z-0.500 I-5.000 J0.000 F240
G2 X45.606 Y55.000 Z-1.000 I5.000 J0.000 F240
G2 X35.606 Y55.000 Z-1.500 I-5.000 J0.000 F240
G2 X45.606 Y55.000 Z-2.000 I5.000 J0.000 F240
G2 X35.606 Y55.000 Z-2.500 I-5.000 J0.000 F240
G2 X45.606 Y55.000 Z-3.000 I5.000 J0.000 F240
G2 X35.606 Y55.000 Z-3.500 I-5.000 J0.000 F240
G2 X45.606 Y55.000 Z-4.000 I5.000 J0.000 F240
G2 X35.606 Y55.000 Z-4.500 I-5.000 J0.000 F240
G2 X45.606 Y55.000 Z-5.000 I5.000 J0.000 F240
G2 X35.606 Y55.000 Z-5.500 I-5.000 J0.000 F240
G2 X45.606 Y55.000 Z-6.000 I5.000 J0.000 F240
G2 X35.606 Y55.000 Z-6.500 I-5.000 J0.000 F240
G2 X45.606 Y55.000 Z-7.000 I5.000 J0.000 F240
G2 X35.606 Y55.000 Z-7.500 I-5.000 J0.000 F240
G2 X45.606 Y55.000 Z-8.000 I5.000 J0.000 F240
G2 X35.606 Y55.000 Z-8.500 I-5.000 J0.000 F240
G2 X45.606 Y55.000 Z-9.000 I5.000 J0.000 F240
G2 X35.606 Y55.000 Z-9.500 I-5.000 J0.000 F240
G2 X45.606 Y55.000 Z-10.000 I5.000 J0.000 F240
G2 X35.606 Y55.000 Z-10.500 I-5.000 J0.000 F240
G2 X45.606 Y55.000 Z-11.000 I5.000 J0.000 F240
G2 X35.606 Y55.000 Z-11.500 I-5.000 J0.000 F240
G2 X45.606 Y55.000 Z-12.000 I5.000 J0.000 F240
G2 X35.606 Y55.000 Z-12.500 I-5.000 J0.000 F240
G2 X45.606 Y55.000 Z-13.000 I5.000 J0.000 F240
G2 X35.606 Y55.000 Z-13.500 I-5.000 J0.000 F240
G2 X45.606 Y55.000 Z-14.000 I5.000 J0.000 F240
G2 X35.606 Y55.000 Z-14.500 I-5.000 J0.000 F240
G2 X45.606 Y55.000 Z-15.000 I5.000 J0.000 F240
G2 X35.606 Y55.000 Z-15.500 I-5.000 J0.000 F240
G2 X45.606 Y55.000 Z-16.000 I5.000 J0.000 F240
G2 X35.606 Y55.000 Z-16.500 I-5.000 J0.000 F240
G2 X45.606 Y55.000 Z-17.000 I5.000 J0.000 F240
G2 X35.606 Y55.000 Z-17.500 I-5.000 J0.000 F240
G2 X45.606 Y55.000 Z-18.000 I5.000 J0.000 F240
G2 X35.606 Y55.000 Z-18.500 I-5.000 J0.000 F240
G2 X45.606 Y55.000 Z-19.000 I5.000 J0.000 F240
G2 X35.606 Y55.000 Z-19.500 I-5.000 J0.000 F240
G2 X45.606 Y55.000 Z-20.000 I5.000 J0.000 F240
G2 X35.606 Y55.000 I-5.000 J0.000 F800
G2 X45.606 Y55.000 I5.000 J0.000 F800
G0 Z10.000
M5 (spindle stop)
G0 Z10.000 (retract)
G28 G91 Z0 (return Z home)
G28 G91 X0 Y0 (return XY home)
G90 (restore absolute)
M5 (spindle stop)
M9 (coolant off)
M30 (program end)
