(Cloud CAM Generated for Job df9f688c-6895-440b-9c07-d6cd82d9fd57)
(Model: 320.0 x 385.0 x 10.0 mm)
(Params: step_down=2.0 spindle=4000 feed=800.0)
(Strategy: stock_aware_fallback)
G21 (metric)
G90 (absolute)
S4000 M3
G0 Z5.0
G0 X112.381 Y1.000 Z5.000
G1 Z-2.000 F400
G1 X319.000 Y1.000 F800
G0 Z5.000
G0 X319.000 Y3.400 Z5.000
G1 Z-2.000 F400
G1 X112.381 Y3.400 F800
G0 Z5.000
G0 X112.381 Y5.800 Z5.000
G1 Z-2.000 F400
G1 X319.000 Y5.800 F800
G0 Z5.000
G0 X319.000 Y8.200 Z5.000
G1 Z-2.000 F400
G1 X112.381 Y8.200 F800
G0 Z5.000
G0 X112.381 Y10.600 Z5.000
G1 Z-2.000 F400
G1 X319.000 Y10.600 F800
G0 Z5.000
G0 X319.000 Y13.000 Z5.000
G1 Z-2.000 F400
G1 X112.381 Y13.000 F800
G0 Z5.000
G0 X112.381 Y15.400 Z5.000
G1 Z-2.000 F400
G1 X319.000 Y15.400 F800
G0 Z5.000
G0 X319.000 Y17.800 Z5.000
G1 Z-2.000 F400
G1 X112.381 Y17.800 F800
G0 Z5.000
G0 X112.381 Y20.200 Z5.000
G1 Z-2.000 F400
G1 X319.000 Y20.200 F800
G0 Z5.000
G0 X319.000 Y22.600 Z5.000
G1 Z-2.000 F400
G1 X112.381 Y22.600 F800
G0 Z5.000
G0 X112.381 Y25.000 Z5.000
G1 Z-2.000 F400
G1 X319.000 Y25.000 F800
G0 Z5.000
G0 X319.000 Y27.400 Z5.000
G1 Z-2.000 F400
G1 X112.381 Y27.400 F800
G0 Z5.000
G0 X112.381 Y29.800 Z5.000
G1 Z-2.000 F400
G1 X319.000 Y29.800 F800
G0 Z5.000
G0 X319.000 Y32.200 Z5.000
G1 Z-2.000 F400
G1 X112.381 Y32.200 F800
G0 Z5.000
G0 X112.381 Y34.600 Z5.000
G1 Z-2.000 F400
G1 X319.000 Y34.600 F800
G0 Z5.000
G0 X319.000 Y37.000 Z5.000
G1 Z-2.000 F400
G1 X112.381 Y37.000 F800
G0 Z5.000
G0 X112.381 Y39.400 Z5.000
G1 Z-2.000 F400
G1 X319.000 Y39.400 F800
G0 Z5.000
G0 X319.000 Y41.800 Z5.000
G1 Z-2.000 F400
G1 X112.381 Y41.800 F800
G0 Z5.000
G0 X112.381 Y44.200 Z5.000
G1 Z-2.000 F400
G1 X319.000 Y44.200 F800
G0 Z5.000
G0 X319.000 Y46.600 Z5.000
G1 Z-2.000 F400
G1 X112.381 Y46.600 F800
G0 Z5.000
G0 X76.165 Y46.600 Z5.000
G1 Z-2.000 F400
G1 X1.000 Y46.600 F800
G0 Z5.000
G0 X1.000 Y49.000 Z5.000
G1 Z-2.000 F400
G1 X75.702 Y49.000 F800
G0 Z5.000
G0 X112.381 Y49.000 Z5.000
G1 Z-2.000 F400
G1 X319.000 Y49.000 F800
G0 Z5.000
G0 X319.000 Y51.400 Z5.000
G1 Z-2.000 F400
G1 X112.381 Y51.400 F800
G0 Z5.000
G0 X112.381 Y53.800 Z5.000
G1 Z-2.000 F400
G1 X319.000 Y53.800 F800
G0 Z5.000
G0 X319.000 Y56.200 Z5.000
G1 Z-2.000 F400
G1 X112.381 Y56.200 F800
G0 Z5.000
G0 X112.381 Y58.600 Z5.000
G1 Z-2.000 F400
G1 X319.000 Y58.600 F800
G0 Z5.000
G0 X319.000 Y61.000 Z5.000
G1 Z-2.000 F400
G1 X112.381 Y61.000 F800
G0 Z5.000
G0 X112.381 Y63.400 Z5.000
G1 Z-2.000 F400
G1 X319.000 Y63.400 F800
G0 Z5.000
G0 X319.000 Y65.800 Z5.000
G1 Z-2.000 F400
G1 X112.381 Y65.800 F800
G0 Z5.000
G0 X112.381 Y68.200 Z5.000
G1 Z-2.000 F400
G1 X319.000 Y68.200 F800
G0 Z5.000
G0 X319.000 Y70.600 Z5.000
G1 Z-2.000 F400
G1 X112.381 Y70.600 F800
G0 Z5.000
G0 X112.381 Y73.000 Z5.000
G1 Z-2.000 F400
G1 X319.000 Y73.000 F800
G0 Z5.000
G0 X319.000 Y75.400 Z5.000
G1 Z-2.000 F400
G1 X112.381 Y75.400 F800
G0 Z5.000
G0 X112.381 Y77.800 Z5.000
G1 Z-2.000 F400
G1 X319.000 Y77.800 F800
G0 Z5.000
G0 X319.000 Y80.200 Z5.000
G1 Z-2.000 F400
G1 X112.381 Y80.200 F800
G0 Z5.000
G0 X112.381 Y82.600 Z5.000
G1 Z-2.000 F400
G1 X319.000 Y82.600 F800
G0 Z5.000
G0 X319.000 Y85.000 Z5.000
G1 Z-2.000 F400
G1 X112.381 Y85.000 F800
G0 Z5.000
G0 X112.381 Y87.400 Z5.000
G1 Z-2.000 F400
G1 X319.000 Y87.400 F800
G0 Z5.000
G0 X319.000 Y89.800 Z5.000
G1 Z-2.000 F400
G1 X112.381 Y89.800 F800
G0 Z5.000
G0 X28.428 Y92.200 Z5.000
G1 Z-2.000 F400
G1 X30.334 Y92.200 F800
G0 Z5.000
G0 X112.381 Y92.200 Z5.000
G1 Z-2.000 F400
G1 X319.000 Y92.200 F800
G0 Z5.000
G0 X319.000 Y94.600 Z5.000
G1 Z-2.000 F400
G1 X112.381 Y94.600 F800
G0 Z5.000
G0 X112.381 Y97.000 Z5.000
G1 Z-2.000 F400
G1 X319.000 Y97.000 F800
G0 Z5.000
G0 X319.000 Y99.400 Z5.000
G1 Z-2.000 F400
G1 X112.381 Y99.400 F800
G0 Z5.000
G0 X112.381 Y101.800 Z5.000
G1 Z-2.000 F400
G1 X319.000 Y101.800 F800
G0 Z5.000
G0 X319.000 Y104.200 Z5.000
G1 Z-2.000 F400
G1 X112.381 Y104.200 F800
G0 Z5.000
G0 X112.381 Y106.600 Z5.000
G1 Z-2.000 F400
G1 X319.000 Y106.600 F800
G0 Z5.000
G0 X319.000 Y109.000 Z5.000
G1 Z-2.000 F400
G1 X112.381 Y109.000 F800
G0 Z5.000
G0 X47.207 Y109.000 Z5.000
G1 Z-2.000 F400
G1 X41.554 Y109.000 F800
G0 Z5.000
G0 X41.729 Y111.400 Z5.000
G1 Z-2.000 F400
G1 X47.032 Y111.400 F800
G0 Z5.000
G0 X112.381 Y111.400 Z5.000
G1 Z-2.000 F400
G1 X319.000 Y111.400 F800
G0 Z5.000
G0 X319.000 Y113.800 Z5.000
G1 Z-2.000 F400
G1 X112.381 Y113.800 F800
G0 Z5.000
G0 X112.381 Y116.200 Z5.000
G1 Z-2.000 F400
G1 X319.000 Y116.200 F800
G0 Z5.000
G0 X319.000 Y118.600 Z5.000
G1 Z-2.000 F400
G1 X112.381 Y118.600 F800
G0 Z5.000
G0 X112.381 Y121.000 Z5.000
G1 Z-2.000 F400
G1 X319.000 Y121.000 F800
G0 Z5.000
G0 X319.000 Y123.400 Z5.000
G1 Z-2.000 F400
G1 X112.381 Y123.400 F800
G0 Z5.000
G0 X112.381 Y125.800 Z5.000
G1 Z-2.000 F400
G1 X319.000 Y125.800 F800
G0 Z5.000
G0 X319.000 Y128.200 Z5.000
G1 Z-2.000 F400
G1 X112.381 Y128.200 F800
G0 Z5.000
G0 X112.381 Y130.600 Z5.000
G1 Z-2.000 F400
G1 X319.000 Y130.600 F800
G0 Z5.000
G0 X319.000 Y133.000 Z5.000
G1 Z-2.000 F400
G1 X112.381 Y133.000 F800
G0 Z5.000
G0 X112.381 Y135.400 Z5.000
G1 Z-2.000 F400
G1 X319.000 Y135.400 F800
G0 Z5.000
G0 X319.000 Y137.800 Z5.000
G1 Z-2.000 F400
G1 X112.381 Y137.800 F800
G0 Z5.000
G0 X112.381 Y140.200 Z5.000
G1 Z-2.000 F400
G1 X319.000 Y140.200 F800
G0 Z5.000
G0 X319.000 Y142.600 Z5.000
G1 Z-2.000 F400
G1 X112.381 Y142.600 F800
G0 Z5.000
G0 X112.381 Y145.000 Z5.000
G1 Z-2.000 F400
G1 X319.000 Y145.000 F800
G0 Z5.000
G0 X319.000 Y147.400 Z5.000
G1 Z-2.000 F400
G1 X112.381 Y147.400 F800
G0 Z5.000
G0 X112.381 Y149.800 Z5.000
G1 Z-2.000 F400
G1 X319.000 Y149.800 F800
G0 Z5.000
G0 X319.000 Y152.200 Z5.000
G1 Z-2.000 F400
G1 X112.381 Y152.200 F800
G0 Z5.000
G0 X112.381 Y154.600 Z5.000
G1 Z-2.000 F400
G1 X319.000 Y154.600 F800
G0 Z5.000
G0 X319.000 Y157.000 Z5.000
G1 Z-2.000 F400
G1 X112.381 Y157.000 F800
G0 Z5.000
G0 X112.381 Y159.400 Z5.000
G1 Z-2.000 F400
G1 X319.000 Y159.400 F800
G0 Z5.000
G0 X319.000 Y161.800 Z5.000
G1 Z-2.000 F400
G1 X112.381 Y161.800 F800
G0 Z5.000
G0 X112.381 Y164.200 Z5.000
G1 Z-2.000 F400
G1 X319.000 Y164.200 F800
G0 Z5.000
G0 X319.000 Y166.600 Z5.000
G1 Z-2.000 F400
G1 X112.381 Y166.600 F800
G0 Z5.000
G0 X112.381 Y169.000 Z5.000
G1 Z-2.000 F400
G1 X319.000 Y169.000 F800
G0 Z5.000
G0 X319.000 Y171.400 Z5.000
G1 Z-2.000 F400
G1 X112.381 Y171.400 F800
G0 Z5.000
G0 X112.381 Y173.800 Z5.000
G1 Z-2.000 F400
G1 X319.000 Y173.800 F800
G0 Z5.000
G0 X319.000 Y176.200 Z5.000
G1 Z-2.000 F400
G1 X112.381 Y176.200 F800
G0 Z5.000
G0 X112.381 Y178.600 Z5.000
G1 Z-2.000 F400
G1 X319.000 Y178.600 F800
G0 Z5.000
G0 X319.000 Y181.000 Z5.000
G1 Z-2.000 F400
G1 X112.381 Y181.000 F800
G0 Z5.000
G0 X41.845 Y183.400 Z5.000
G1 Z-2.000 F400
G1 X46.917 Y183.400 F800
G0 Z5.000
G0 X112.381 Y183.400 Z5.000
G1 Z-2.000 F400
G1 X319.000 Y183.400 F800
G0 Z5.000
G0 X319.000 Y185.800 Z5.000
G1 Z-2.000 F400
G1 X112.381 Y185.800 F800
G0 Z5.000
G0 X47.271 Y185.800 Z5.000
G1 Z-2.000 F400
G1 X41.491 Y185.800 F800
G0 Z5.000
G0 X112.381 Y188.200 Z5.000
G1 Z-2.000 F400
G1 X319.000 Y188.200 F800
G0 Z5.000
G0 X319.000 Y190.600 Z5.000
G1 Z-2.000 F400
G1 X112.381 Y190.600 F800
G0 Z5.000
G0 X112.336 Y193.000 Z5.000
G1 Z-2.000 F400
G1 X319.000 Y193.000 F800
G0 Z5.000
G0 X319.000 Y195.400 Z5.000
G1 Z-2.000 F400
G1 X110.135 Y195.400 F800
G0 Z5.000
G0 X1.000 Y197.800 Z5.000
G1 Z-2.000 F400
G1 X319.000 Y197.800 F800
G0 Z5.000
G0 X319.000 Y200.200 Z5.000
G1 Z-2.000 F400
G1 X1.000 Y200.200 F800
G0 Z5.000
G0 X1.000 Y202.600 Z5.000
G1 Z-2.000 F400
G1 X319.000 Y202.600 F800
G0 Z5.000
G0 X319.000 Y205.000 Z5.000
G1 Z-2.000 F400
G1 X1.000 Y205.000 F800
G0 Z5.000
G0 X1.000 Y207.400 Z5.000
G1 Z-2.000 F400
G1 X319.000 Y207.400 F800
G0 Z5.000
G0 X319.000 Y209.800 Z5.000
G1 Z-2.000 F400
G1 X1.000 Y209.800 F800
G0 Z5.000
G0 X1.000 Y212.200 Z5.000
G1 Z-2.000 F400
G1 X319.000 Y212.200 F800
G0 Z5.000
G0 X319.000 Y214.600 Z5.000
G1 Z-2.000 F400
G1 X1.000 Y214.600 F800
G0 Z5.000
G0 X1.000 Y217.000 Z5.000
G1 Z-2.000 F400
G1 X319.000 Y217.000 F800
G0 Z5.000
G0 X319.000 Y219.400 Z5.000
G1 Z-2.000 F400
G1 X1.000 Y219.400 F800
G0 Z5.000
G0 X1.000 Y221.800 Z5.000
G1 Z-2.000 F400
G1 X319.000 Y221.800 F800
G0 Z5.000
G0 X319.000 Y224.200 Z5.000
G1 Z-2.000 F400
G1 X1.000 Y224.200 F800
G0 Z5.000
G0 X1.000 Y226.600 Z5.000
G1 Z-2.000 F400
G1 X319.000 Y226.600 F800
G0 Z5.000
G0 X319.000 Y229.000 Z5.000
G1 Z-2.000 F400
G1 X1.000 Y229.000 F800
G0 Z5.000
G0 X1.000 Y231.400 Z5.000
G1 Z-2.000 F400
G1 X319.000 Y231.400 F800
G0 Z5.000
G0 X319.000 Y233.800 Z5.000
G1 Z-2.000 F400
G1 X1.000 Y233.800 F800
G0 Z5.000
G0 X1.000 Y236.200 Z5.000
G1 Z-2.000 F400
G1 X319.000 Y236.200 F800
G0 Z5.000
G0 X319.000 Y238.600 Z5.000
G1 Z-2.000 F400
G1 X1.000 Y238.600 F800
G0 Z5.000
G0 X1.000 Y241.000 Z5.000
G1 Z-2.000 F400
G1 X319.000 Y241.000 F800
G0 Z5.000
G0 X319.000 Y243.400 Z5.000
G1 Z-2.000 F400
G1 X1.000 Y243.400 F800
G0 Z5.000
G0 X1.000 Y245.800 Z5.000
G1 Z-2.000 F400
G1 X319.000 Y245.800 F800
G0 Z5.000
G0 X319.000 Y248.200 Z5.000
G1 Z-2.000 F400
G1 X1.000 Y248.200 F800
G0 Z5.000
G0 X1.000 Y250.600 Z5.000
G1 Z-2.000 F400
G1 X319.000 Y250.600 F800
G0 Z5.000
G0 X319.000 Y253.000 Z5.000
G1 Z-2.000 F400
G1 X1.000 Y253.000 F800
G0 Z5.000
G0 X1.000 Y255.400 Z5.000
G1 Z-2.000 F400
G1 X319.000 Y255.400 F800
G0 Z5.000
G0 X319.000 Y257.800 Z5.000
G1 Z-2.000 F400
G1 X1.000 Y257.800 F800
G0 Z5.000
G0 X1.000 Y260.200 Z5.000
G1 Z-2.000 F400
G1 X319.000 Y260.200 F800
G0 Z5.000
G0 X319.000 Y262.600 Z5.000
G1 Z-2.000 F400
G1 X1.000 Y262.600 F800
G0 Z5.000
G0 X1.000 Y265.000 Z5.000
G1 Z-2.000 F400
G1 X319.000 Y265.000 F800
G0 Z5.000
G0 X319.000 Y267.400 Z5.000
G1 Z-2.000 F400
G1 X1.000 Y267.400 F800
G0 Z5.000
G0 X1.000 Y269.800 Z5.000
G1 Z-2.000 F400
G1 X319.000 Y269.800 F800
G0 Z5.000
G0 X319.000 Y272.200 Z5.000
G1 Z-2.000 F400
G1 X1.000 Y272.200 F800
G0 Z5.000
G0 X1.000 Y274.600 Z5.000
G1 Z-2.000 F400
G1 X319.000 Y274.600 F800
G0 Z5.000
G0 X319.000 Y277.000 Z5.000
G1 Z-2.000 F400
G1 X1.000 Y277.000 F800
G0 Z5.000
G0 X1.000 Y279.400 Z5.000
G1 Z-2.000 F400
G1 X319.000 Y279.400 F800
G0 Z5.000
G0 X319.000 Y281.800 Z5.000
G1 Z-2.000 F400
G1 X1.000 Y281.800 F800
G0 Z5.000
G0 X1.000 Y284.200 Z5.000
G1 Z-2.000 F400
G1 X319.000 Y284.200 F800
G0 Z5.000
G0 X319.000 Y286.600 Z5.000
G1 Z-2.000 F400
G1 X1.000 Y286.600 F800
G0 Z5.000
G0 X1.000 Y289.000 Z5.000
G1 Z-2.000 F400
G1 X319.000 Y289.000 F800
G0 Z5.000
G0 X319.000 Y291.400 Z5.000
G1 Z-2.000 F400
G1 X1.000 Y291.400 F800
G0 Z5.000
G0 X1.000 Y293.800 Z5.000
G1 Z-2.000 F400
G1 X319.000 Y293.800 F800
G0 Z5.000
G0 X319.000 Y296.200 Z5.000
G1 Z-2.000 F400
G1 X1.000 Y296.200 F800
G0 Z5.000
G0 X1.000 Y298.600 Z5.000
G1 Z-2.000 F400
G1 X319.000 Y298.600 F800
G0 Z5.000
G0 X319.000 Y301.000 Z5.000
G1 Z-2.000 F400
G1 X1.000 Y301.000 F800
G0 Z5.000
G0 X1.000 Y303.400 Z5.000
G1 Z-2.000 F400
G1 X319.000 Y303.400 F800
G0 Z5.000
G0 X319.000 Y305.800 Z5.000
G1 Z-2.000 F400
G1 X1.000 Y305.800 F800
G0 Z5.000
G0 X1.000 Y308.200 Z5.000
G1 Z-2.000 F400
G1 X319.000 Y308.200 F800
G0 Z5.000
G0 X319.000 Y310.600 Z5.000
G1 Z-2.000 F400
G1 X1.000 Y310.600 F800
G0 Z5.000
G0 X1.000 Y313.000 Z5.000
G1 Z-2.000 F400
G1 X319.000 Y313.000 F800
G0 Z5.000
G0 X319.000 Y315.400 Z5.000
G1 Z-2.000 F400
G1 X1.000 Y315.400 F800
G0 Z5.000
G0 X1.000 Y317.800 Z5.000
G1 Z-2.000 F400
G1 X319.000 Y317.800 F800
G0 Z5.000
G0 X319.000 Y320.200 Z5.000
G1 Z-2.000 F400
G1 X1.000 Y320.200 F800
G0 Z5.000
G0 X1.000 Y322.600 Z5.000
G1 Z-2.000 F400
G1 X319.000 Y322.600 F800
G0 Z5.000
G0 X319.000 Y325.000 Z5.000
G1 Z-2.000 F400
G1 X1.000 Y325.000 F800
G0 Z5.000
G0 X1.000 Y327.400 Z5.000
G1 Z-2.000 F400
G1 X319.000 Y327.400 F800
G0 Z5.000
G0 X319.000 Y329.800 Z5.000
G1 Z-2.000 F400
G1 X1.000 Y329.800 F800
G0 Z5.000
G0 X1.000 Y332.200 Z5.000
G1 Z-2.000 F400
G1 X319.000 Y332.200 F800
G0 Z5.000
G0 X319.000 Y334.600 Z5.000
G1 Z-2.000 F400
G1 X1.000 Y334.600 F800
G0 Z5.000
G0 X1.000 Y337.000 Z5.000
G1 Z-2.000 F400
G1 X319.000 Y337.000 F800
G0 Z5.000
G0 X319.000 Y339.400 Z5.000
G1 Z-2.000 F400
G1 X1.000 Y339.400 F800
G0 Z5.000
G0 X1.000 Y341.800 Z5.000
G1 Z-2.000 F400
G1 X319.000 Y341.800 F800
G0 Z5.000
G0 X319.000 Y344.200 Z5.000
G1 Z-2.000 F400
G1 X1.000 Y344.200 F800
G0 Z5.000
G0 X1.000 Y346.600 Z5.000
G1 Z-2.000 F400
G1 X319.000 Y346.600 F800
G0 Z5.000
G0 X319.000 Y349.000 Z5.000
G1 Z-2.000 F400
G1 X1.000 Y349.000 F800
G0 Z5.000
G0 X1.000 Y351.400 Z5.000
G1 Z-2.000 F400
G1 X319.000 Y351.400 F800
G0 Z5.000
G0 X319.000 Y353.800 Z5.000
G1 Z-2.000 F400
G1 X1.000 Y353.800 F800
G0 Z5.000
G0 X1.000 Y356.200 Z5.000
G1 Z-2.000 F400
G1 X319.000 Y356.200 F800
G0 Z5.000
G0 X319.000 Y358.600 Z5.000
G1 Z-2.000 F400
G1 X1.000 Y358.600 F800
G0 Z5.000
G0 X1.000 Y361.000 Z5.000
G1 Z-2.000 F400
G1 X319.000 Y361.000 F800
G0 Z5.000
G0 X319.000 Y363.400 Z5.000
G1 Z-2.000 F400
G1 X1.000 Y363.400 F800
G0 Z5.000
G0 X1.000 Y365.800 Z5.000
G1 Z-2.000 F400
G1 X319.000 Y365.800 F800
G0 Z5.000
G0 X319.000 Y368.200 Z5.000
G1 Z-2.000 F400
G1 X1.000 Y368.200 F800
G0 Z5.000
G0 X1.000 Y370.600 Z5.000
G1 Z-2.000 F400
G1 X319.000 Y370.600 F800
G0 Z5.000
G0 X319.000 Y373.000 Z5.000
G1 Z-2.000 F400
G1 X1.000 Y373.000 F800
G0 Z5.000
G0 X1.000 Y375.400 Z5.000
G1 Z-2.000 F400
G1 X319.000 Y375.400 F800
G0 Z5.000
G0 X319.000 Y377.800 Z5.000
G1 Z-2.000 F400
G1 X1.000 Y377.800 F800
G0 Z5.000
G0 X1.000 Y380.200 Z5.000
G1 Z-2.000 F400
G1 X319.000 Y380.200 F800
G0 Z5.000
G0 X319.000 Y382.600 Z5.000
G1 Z-2.000 F400
G1 X1.000 Y382.600 F800
G0 Z5.000
G0 X150.626 Y1.000 Z5.000
G1 Z-4.000 F400
G1 X319.000 Y1.000 F800
G0 Z5.000
G0 X319.000 Y3.400 Z5.000
G1 Z-4.000 F400
G1 X150.626 Y3.400 F800
G0 Z5.000
G0 X150.626 Y5.800 Z5.000
G1 Z-4.000 F400
G1 X319.000 Y5.800 F800
G0 Z5.000
G0 X319.000 Y8.200 Z5.000
G1 Z-4.000 F400
G1 X150.626 Y8.200 F800
G0 Z5.000
G0 X150.626 Y10.600 Z5.000
G1 Z-4.000 F400
G1 X319.000 Y10.600 F800
G0 Z5.000
G0 X319.000 Y13.000 Z5.000
G1 Z-4.000 F400
G1 X150.626 Y13.000 F800
G0 Z5.000
G0 X150.626 Y15.400 Z5.000
G1 Z-4.000 F400
G1 X319.000 Y15.400 F800
G0 Z5.000
G0 X319.000 Y17.800 Z5.000
G1 Z-4.000 F400
G1 X150.626 Y17.800 F800
G0 Z5.000
G0 X150.626 Y20.200 Z5.000
G1 Z-4.000 F400
G1 X319.000 Y20.200 F800
G0 Z5.000
G0 X319.000 Y22.600 Z5.000
G1 Z-4.000 F400
G1 X150.626 Y22.600 F800
G0 Z5.000
G0 X150.626 Y25.000 Z5.000
G1 Z-4.000 F400
G1 X319.000 Y25.000 F800
G0 Z5.000
G0 X319.000 Y27.400 Z5.000
G1 Z-4.000 F400
G1 X150.626 Y27.400 F800
G0 Z5.000
G0 X150.626 Y29.800 Z5.000
G1 Z-4.000 F400
G1 X319.000 Y29.800 F800
G0 Z5.000
G0 X319.000 Y32.200 Z5.000
G1 Z-4.000 F400
G1 X150.626 Y32.200 F800
G0 Z5.000
G0 X150.626 Y34.600 Z5.000
G1 Z-4.000 F400
G1 X319.000 Y34.600 F800
G0 Z5.000
G0 X319.000 Y37.000 Z5.000
G1 Z-4.000 F400
G1 X150.626 Y37.000 F800
G0 Z5.000
G0 X150.626 Y39.400 Z5.000
G1 Z-4.000 F400
G1 X319.000 Y39.400 F800
G0 Z5.000
G0 X319.000 Y41.800 Z5.000
G1 Z-4.000 F400
G1 X150.626 Y41.800 F800
G0 Z5.000
G0 X150.626 Y44.200 Z5.000
G1 Z-4.000 F400
G1 X319.000 Y44.200 F800
G0 Z5.000
G0 X319.000 Y46.600 Z5.000
G1 Z-4.000 F400
G1 X150.626 Y46.600 F800
G0 Z5.000
G0 X74.409 Y46.600 Z5.000
G1 Z-4.000 F400
G1 X1.000 Y46.600 F800
G0 Z5.000
G0 X1.000 Y49.000 Z5.000
G1 Z-4.000 F400
G1 X73.951 Y49.000 F800
G0 Z5.000
G0 X150.626 Y49.000 Z5.000
G1 Z-4.000 F400
G1 X319.000 Y49.000 F800
G0 Z5.000
G0 X319.000 Y51.400 Z5.000
G1 Z-4.000 F400
G1 X150.626 Y51.400 F800
G0 Z5.000
G0 X150.626 Y53.800 Z5.000
G1 Z-4.000 F400
G1 X319.000 Y53.800 F800
G0 Z5.000
G0 X319.000 Y56.200 Z5.000
G1 Z-4.000 F400
G1 X150.626 Y56.200 F800
G0 Z5.000
G0 X150.626 Y58.600 Z5.000
G1 Z-4.000 F400
G1 X319.000 Y58.600 F800
G0 Z5.000
G0 X319.000 Y61.000 Z5.000
G1 Z-4.000 F400
G1 X150.626 Y61.000 F800
G0 Z5.000
G0 X150.626 Y63.400 Z5.000
G1 Z-4.000 F400
G1 X319.000 Y63.400 F800
G0 Z5.000
G0 X319.000 Y65.800 Z5.000
G1 Z-4.000 F400
G1 X150.626 Y65.800 F800
G0 Z5.000
G0 X150.626 Y68.200 Z5.000
G1 Z-4.000 F400
G1 X319.000 Y68.200 F800
G0 Z5.000
G0 X319.000 Y70.600 Z5.000
G1 Z-4.000 F400
G1 X150.626 Y70.600 F800
G0 Z5.000
G0 X150.626 Y73.000 Z5.000
G1 Z-4.000 F400
G1 X319.000 Y73.000 F800
G0 Z5.000
G0 X319.000 Y75.400 Z5.000
G1 Z-4.000 F400
G1 X150.626 Y75.400 F800
G0 Z5.000
G0 X150.626 Y77.800 Z5.000
G1 Z-4.000 F400
G1 X319.000 Y77.800 F800
G0 Z5.000
G0 X319.000 Y80.200 Z5.000
G1 Z-4.000 F400
G1 X150.626 Y80.200 F800
G0 Z5.000
G0 X150.626 Y82.600 Z5.000
G1 Z-4.000 F400
G1 X319.000 Y82.600 F800
G0 Z5.000
G0 X319.000 Y85.000 Z5.000
G1 Z-4.000 F400
G1 X150.626 Y85.000 F800
G0 Z5.000
G0 X150.626 Y87.400 Z5.000
G1 Z-4.000 F400
G1 X319.000 Y87.400 F800
G0 Z5.000
G0 X319.000 Y89.800 Z5.000
G1 Z-4.000 F400
G1 X150.626 Y89.800 F800
G0 Z5.000
G0 X26.675 Y92.200 Z5.000
G1 Z-4.000 F400
G1 X28.578 Y92.200 F800
G0 Z5.000
G0 X150.626 Y92.200 Z5.000
G1 Z-4.000 F400
G1 X319.000 Y92.200 F800
G0 Z5.000
G0 X319.000 Y94.600 Z5.000
G1 Z-4.000 F400
G1 X150.626 Y94.600 F800
G0 Z5.000
G0 X150.626 Y97.000 Z5.000
G1 Z-4.000 F400
G1 X319.000 Y97.000 F800
G0 Z5.000
G0 X319.000 Y99.400 Z5.000
G1 Z-4.000 F400
G1 X150.626 Y99.400 F800
G0 Z5.000
G0 X150.626 Y101.800 Z5.000
G1 Z-4.000 F400
G1 X319.000 Y101.800 F800
G0 Z5.000
G0 X319.000 Y104.200 Z5.000
G1 Z-4.000 F400
G1 X150.626 Y104.200 F800
G0 Z5.000
G0 X150.626 Y106.600 Z5.000
G1 Z-4.000 F400
G1 X319.000 Y106.600 F800
G0 Z5.000
G0 X319.000 Y109.000 Z5.000
G1 Z-4.000 F400
G1 X150.626 Y109.000 F800
G0 Z5.000
G0 X45.451 Y109.000 Z5.000
G1 Z-4.000 F400
G1 X39.801 Y109.000 F800
G0 Z5.000
G0 X39.973 Y111.400 Z5.000
G1 Z-4.000 F400
G1 X45.280 Y111.400 F800
G0 Z5.000
G0 X150.626 Y111.400 Z5.000
G1 Z-4.000 F400
G1 X319.000 Y111.400 F800
G0 Z5.000
G0 X319.000 Y113.800 Z5.000
G1 Z-4.000 F400
G1 X150.626 Y113.800 F800
G0 Z5.000
G0 X150.626 Y116.200 Z5.000
G1 Z-4.000 F400
G1 X319.000 Y116.200 F800
G0 Z5.000
G0 X319.000 Y118.600 Z5.000
G1 Z-4.000 F400
G1 X150.626 Y118.600 F800
G0 Z5.000
G0 X150.626 Y121.000 Z5.000
G1 Z-4.000 F400
G1 X319.000 Y121.000 F800
G0 Z5.000
G0 X319.000 Y123.400 Z5.000
G1 Z-4.000 F400
G1 X150.626 Y123.400 F800
G0 Z5.000
G0 X150.626 Y125.800 Z5.000
G1 Z-4.000 F400
G1 X319.000 Y125.800 F800
G0 Z5.000
G0 X319.000 Y128.200 Z5.000
G1 Z-4.000 F400
G1 X150.626 Y128.200 F800
G0 Z5.000
G0 X150.626 Y130.600 Z5.000
G1 Z-4.000 F400
G1 X319.000 Y130.600 F800
G0 Z5.000
G0 X319.000 Y133.000 Z5.000
G1 Z-4.000 F400
G1 X150.626 Y133.000 F800
G0 Z5.000
G0 X150.626 Y135.400 Z5.000
G1 Z-4.000 F400
G1 X319.000 Y135.400 F800
G0 Z5.000
G0 X319.000 Y137.800 Z5.000
G1 Z-4.000 F400
G1 X150.626 Y137.800 F800
G0 Z5.000
G0 X150.626 Y140.200 Z5.000
G1 Z-4.000 F400
G1 X319.000 Y140.200 F800
G0 Z5.000
G0 X319.000 Y142.600 Z5.000
G1 Z-4.000 F400
G1 X150.626 Y142.600 F800
G0 Z5.000
G0 X150.626 Y145.000 Z5.000
G1 Z-4.000 F400
G1 X319.000 Y145.000 F800
G0 Z5.000
G0 X319.000 Y147.400 Z5.000
G1 Z-4.000 F400
G1 X150.626 Y147.400 F800
G0 Z5.000
G0 X150.626 Y149.800 Z5.000
G1 Z-4.000 F400
G1 X319.000 Y149.800 F800
G0 Z5.000
G0 X319.000 Y152.200 Z5.000
G1 Z-4.000 F400
G1 X150.626 Y152.200 F800
G0 Z5.000
G0 X150.626 Y154.600 Z5.000
G1 Z-4.000 F400
G1 X319.000 Y154.600 F800
G0 Z5.000
G0 X319.000 Y157.000 Z5.000
G1 Z-4.000 F400
G1 X150.626 Y157.000 F800
G0 Z5.000
G0 X150.626 Y159.400 Z5.000
G1 Z-4.000 F400
G1 X319.000 Y159.400 F800
G0 Z5.000
G0 X319.000 Y161.800 Z5.000
G1 Z-4.000 F400
G1 X150.626 Y161.800 F800
G0 Z5.000
G0 X150.626 Y164.200 Z5.000
G1 Z-4.000 F400
G1 X319.000 Y164.200 F800
G0 Z5.000
G0 X319.000 Y166.600 Z5.000
G1 Z-4.000 F400
G1 X150.626 Y166.600 F800
G0 Z5.000
G0 X150.626 Y169.000 Z5.000
G1 Z-4.000 F400
G1 X319.000 Y169.000 F800
G0 Z5.000
G0 X319.000 Y171.400 Z5.000
G1 Z-4.000 F400
G1 X150.626 Y171.400 F800
G0 Z5.000
G0 X150.626 Y173.800 Z5.000
G1 Z-4.000 F400
G1 X319.000 Y173.800 F800
G0 Z5.000
G0 X319.000 Y176.200 Z5.000
G1 Z-4.000 F400
G1 X150.626 Y176.200 F800
G0 Z5.000
G0 X150.626 Y178.600 Z5.000
G1 Z-4.000 F400
G1 X319.000 Y178.600 F800
G0 Z5.000
G0 X319.000 Y181.000 Z5.000
G1 Z-4.000 F400
G1 X150.626 Y181.000 F800
G0 Z5.000
G0 X40.093 Y183.400 Z5.000
G1 Z-4.000 F400
G1 X45.160 Y183.400 F800
G0 Z5.000
G0 X150.592 Y183.400 Z5.000
G1 Z-4.000 F400
G1 X319.000 Y183.400 F800
G0 Z5.000
G0 X319.000 Y185.800 Z5.000
G1 Z-4.000 F400
G1 X150.199 Y185.800 F800
G0 Z5.000
G0 X45.517 Y185.800 Z5.000
G1 Z-4.000 F400
G1 X39.735 Y185.800 F800
G0 Z5.000
G0 X149.310 Y188.200 Z5.000
G1 Z-4.000 F400
G1 X319.000 Y188.200 F800
G0 Z5.000
G0 X319.000 Y190.600 Z5.000
G1 Z-4.000 F400
G1 X147.794 Y190.600 F800
G0 Z5.000
G0 X145.294 Y193.000 Z5.000
G1 Z-4.000 F400
G1 X319.000 Y193.000 F800
G0 Z5.000
G0 X319.000 Y195.400 Z5.000
G1 Z-4.000 F400
G1 X139.242 Y195.400 F800
G0 Z5.000
G0 X1.000 Y197.800 Z5.000
G1 Z-4.000 F400
G1 X319.000 Y197.800 F800
G0 Z5.000
G0 X319.000 Y200.200 Z5.000
G1 Z-4.000 F400
G1 X1.000 Y200.200 F800
G0 Z5.000
G0 X1.000 Y202.600 Z5.000
G1 Z-4.000 F400
G1 X319.000 Y202.600 F800
G0 Z5.000
G0 X319.000 Y205.000 Z5.000
G1 Z-4.000 F400
G1 X1.000 Y205.000 F800
G0 Z5.000
G0 X1.000 Y207.400 Z5.000
G1 Z-4.000 F400
G1 X319.000 Y207.400 F800
G0 Z5.000
G0 X319.000 Y209.800 Z5.000
G1 Z-4.000 F400
G1 X1.000 Y209.800 F800
G0 Z5.000
G0 X1.000 Y212.200 Z5.000
G1 Z-4.000 F400
G1 X319.000 Y212.200 F800
G0 Z5.000
G0 X319.000 Y214.600 Z5.000
G1 Z-4.000 F400
G1 X1.000 Y214.600 F800
G0 Z5.000
G0 X1.000 Y217.000 Z5.000
G1 Z-4.000 F400
G1 X319.000 Y217.000 F800
G0 Z5.000
G0 X319.000 Y219.400 Z5.000
G1 Z-4.000 F400
G1 X1.000 Y219.400 F800
G0 Z5.000
G0 X1.000 Y221.800 Z5.000
G1 Z-4.000 F400
G1 X319.000 Y221.800 F800
G0 Z5.000
G0 X319.000 Y224.200 Z5.000
G1 Z-4.000 F400
G1 X1.000 Y224.200 F800
G0 Z5.000
G0 X1.000 Y226.600 Z5.000
G1 Z-4.000 F400
G1 X319.000 Y226.600 F800
G0 Z5.000
G0 X319.000 Y229.000 Z5.000
G1 Z-4.000 F400
G1 X1.000 Y229.000 F800
G0 Z5.000
G0 X1.000 Y231.400 Z5.000
G1 Z-4.000 F400
G1 X319.000 Y231.400 F800
G0 Z5.000
G0 X319.000 Y233.800 Z5.000
G1 Z-4.000 F400
G1 X1.000 Y233.800 F800
G0 Z5.000
G0 X1.000 Y236.200 Z5.000
G1 Z-4.000 F400
G1 X319.000 Y236.200 F800
G0 Z5.000
G0 X319.000 Y238.600 Z5.000
G1 Z-4.000 F400
G1 X1.000 Y238.600 F800
G0 Z5.000
G0 X1.000 Y241.000 Z5.000
G1 Z-4.000 F400
G1 X319.000 Y241.000 F800
G0 Z5.000
G0 X319.000 Y243.400 Z5.000
G1 Z-4.000 F400
G1 X1.000 Y243.400 F800
G0 Z5.000
G0 X1.000 Y245.800 Z5.000
G1 Z-4.000 F400
G1 X319.000 Y245.800 F800
G0 Z5.000
G0 X319.000 Y248.200 Z5.000
G1 Z-4.000 F400
G1 X1.000 Y248.200 F800
G0 Z5.000
G0 X1.000 Y250.600 Z5.000
G1 Z-4.000 F400
G1 X319.000 Y250.600 F800
G0 Z5.000
G0 X319.000 Y253.000 Z5.000
G1 Z-4.000 F400
G1 X1.000 Y253.000 F800
G0 Z5.000
G0 X1.000 Y255.400 Z5.000
G1 Z-4.000 F400
G1 X319.000 Y255.400 F800
G0 Z5.000
G0 X319.000 Y257.800 Z5.000
G1 Z-4.000 F400
G1 X1.000 Y257.800 F800
G0 Z5.000
G0 X1.000 Y260.200 Z5.000
G1 Z-4.000 F400
G1 X319.000 Y260.200 F800
G0 Z5.000
G0 X319.000 Y262.600 Z5.000
G1 Z-4.000 F400
G1 X1.000 Y262.600 F800
G0 Z5.000
G0 X1.000 Y265.000 Z5.000
G1 Z-4.000 F400
G1 X319.000 Y265.000 F800
G0 Z5.000
G0 X319.000 Y267.400 Z5.000
G1 Z-4.000 F400
G1 X1.000 Y267.400 F800
G0 Z5.000
G0 X1.000 Y269.800 Z5.000
G1 Z-4.000 F400
G1 X319.000 Y269.800 F800
G0 Z5.000
G0 X319.000 Y272.200 Z5.000
G1 Z-4.000 F400
G1 X1.000 Y272.200 F800
G0 Z5.000
G0 X1.000 Y274.600 Z5.000
G1 Z-4.000 F400
G1 X319.000 Y274.600 F800
G0 Z5.000
G0 X319.000 Y277.000 Z5.000
G1 Z-4.000 F400
G1 X1.000 Y277.000 F800
G0 Z5.000
G0 X1.000 Y279.400 Z5.000
G1 Z-4.000 F400
G1 X319.000 Y279.400 F800
G0 Z5.000
G0 X319.000 Y281.800 Z5.000
G1 Z-4.000 F400
G1 X1.000 Y281.800 F800
G0 Z5.000
G0 X1.000 Y284.200 Z5.000
G1 Z-4.000 F400
G1 X319.000 Y284.200 F800
G0 Z5.000
G0 X319.000 Y286.600 Z5.000
G1 Z-4.000 F400
G1 X1.000 Y286.600 F800
G0 Z5.000
G0 X1.000 Y289.000 Z5.000
G1 Z-4.000 F400
G1 X319.000 Y289.000 F800
G0 Z5.000
G0 X319.000 Y291.400 Z5.000
G1 Z-4.000 F400
G1 X1.000 Y291.400 F800
G0 Z5.000
G0 X1.000 Y293.800 Z5.000
G1 Z-4.000 F400
G1 X319.000 Y293.800 F800
G0 Z5.000
G0 X319.000 Y296.200 Z5.000
G1 Z-4.000 F400
G1 X1.000 Y296.200 F800
G0 Z5.000
G0 X1.000 Y298.600 Z5.000
G1 Z-4.000 F400
G1 X319.000 Y298.600 F800
G0 Z5.000
G0 X319.000 Y301.000 Z5.000
G1 Z-4.000 F400
G1 X1.000 Y301.000 F800
G0 Z5.000
G0 X1.000 Y303.400 Z5.000
G1 Z-4.000 F400
G1 X319.000 Y303.400 F800
G0 Z5.000
G0 X319.000 Y305.800 Z5.000
G1 Z-4.000 F400
G1 X1.000 Y305.800 F800
G0 Z5.000
G0 X1.000 Y308.200 Z5.000
G1 Z-4.000 F400
G1 X319.000 Y308.200 F800
G0 Z5.000
G0 X319.000 Y310.600 Z5.000
G1 Z-4.000 F400
G1 X1.000 Y310.600 F800
G0 Z5.000
G0 X1.000 Y313.000 Z5.000
G1 Z-4.000 F400
G1 X319.000 Y313.000 F800
G0 Z5.000
G0 X319.000 Y315.400 Z5.000
G1 Z-4.000 F400
G1 X1.000 Y315.400 F800
G0 Z5.000
G0 X1.000 Y317.800 Z5.000
G1 Z-4.000 F400
G1 X319.000 Y317.800 F800
G0 Z5.000
G0 X319.000 Y320.200 Z5.000
G1 Z-4.000 F400
G1 X1.000 Y320.200 F800
G0 Z5.000
G0 X1.000 Y322.600 Z5.000
G1 Z-4.000 F400
G1 X319.000 Y322.600 F800
G0 Z5.000
G0 X319.000 Y325.000 Z5.000
G1 Z-4.000 F400
G1 X1.000 Y325.000 F800
G0 Z5.000
G0 X1.000 Y327.400 Z5.000
G1 Z-4.000 F400
G1 X319.000 Y327.400 F800
G0 Z5.000
G0 X319.000 Y329.800 Z5.000
G1 Z-4.000 F400
G1 X1.000 Y329.800 F800
G0 Z5.000
G0 X1.000 Y332.200 Z5.000
G1 Z-4.000 F400
G1 X319.000 Y332.200 F800
G0 Z5.000
G0 X319.000 Y334.600 Z5.000
G1 Z-4.000 F400
G1 X1.000 Y334.600 F800
G0 Z5.000
G0 X1.000 Y337.000 Z5.000
G1 Z-4.000 F400
G1 X319.000 Y337.000 F800
G0 Z5.000
G0 X319.000 Y339.400 Z5.000
G1 Z-4.000 F400
G1 X1.000 Y339.400 F800
G0 Z5.000
G0 X1.000 Y341.800 Z5.000
G1 Z-4.000 F400
G1 X319.000 Y341.800 F800
G0 Z5.000
G0 X319.000 Y344.200 Z5.000
G1 Z-4.000 F400
G1 X1.000 Y344.200 F800
G0 Z5.000
G0 X1.000 Y346.600 Z5.000
G1 Z-4.000 F400
G1 X319.000 Y346.600 F800
G0 Z5.000
G0 X319.000 Y349.000 Z5.000
G1 Z-4.000 F400
G1 X1.000 Y349.000 F800
G0 Z5.000
G0 X1.000 Y351.400 Z5.000
G1 Z-4.000 F400
G1 X319.000 Y351.400 F800
G0 Z5.000
G0 X319.000 Y353.800 Z5.000
G1 Z-4.000 F400
G1 X1.000 Y353.800 F800
G0 Z5.000
G0 X1.000 Y356.200 Z5.000
G1 Z-4.000 F400
G1 X319.000 Y356.200 F800
G0 Z5.000
G0 X319.000 Y358.600 Z5.000
G1 Z-4.000 F400
G1 X1.000 Y358.600 F800
G0 Z5.000
G0 X1.000 Y361.000 Z5.000
G1 Z-4.000 F400
G1 X319.000 Y361.000 F800
G0 Z5.000
G0 X319.000 Y363.400 Z5.000
G1 Z-4.000 F400
G1 X1.000 Y363.400 F800
G0 Z5.000
G0 X1.000 Y365.800 Z5.000
G1 Z-4.000 F400
G1 X319.000 Y365.800 F800
G0 Z5.000
G0 X319.000 Y368.200 Z5.000
G1 Z-4.000 F400
G1 X1.000 Y368.200 F800
G0 Z5.000
G0 X1.000 Y370.600 Z5.000
G1 Z-4.000 F400
G1 X319.000 Y370.600 F800
G0 Z5.000
G0 X319.000 Y373.000 Z5.000
G1 Z-4.000 F400
G1 X1.000 Y373.000 F800
G0 Z5.000
G0 X1.000 Y375.400 Z5.000
G1 Z-4.000 F400
G1 X319.000 Y375.400 F800
G0 Z5.000
G0 X319.000 Y377.800 Z5.000
G1 Z-4.000 F400
G1 X1.000 Y377.800 F800
G0 Z5.000
G0 X1.000 Y380.200 Z5.000
G1 Z-4.000 F400
G1 X319.000 Y380.200 F800
G0 Z5.000
G0 X319.000 Y382.600 Z5.000
G1 Z-4.000 F400
G1 X1.000 Y382.600 F800
G0 Z5.000
G0 X150.626 Y1.000 Z5.000
G1 Z-6.000 F400
G1 X319.000 Y1.000 F800
G0 Z5.000
G0 X319.000 Y3.400 Z5.000
G1 Z-6.000 F400
G1 X150.626 Y3.400 F800
G0 Z5.000
G0 X150.626 Y5.800 Z5.000
G1 Z-6.000 F400
G1 X319.000 Y5.800 F800
G0 Z5.000
G0 X319.000 Y8.200 Z5.000
G1 Z-6.000 F400
G1 X150.626 Y8.200 F800
G0 Z5.000
G0 X150.626 Y10.600 Z5.000
G1 Z-6.000 F400
G1 X319.000 Y10.600 F800
G0 Z5.000
G0 X319.000 Y13.000 Z5.000
G1 Z-6.000 F400
G1 X150.626 Y13.000 F800
G0 Z5.000
G0 X150.626 Y15.400 Z5.000
G1 Z-6.000 F400
G1 X319.000 Y15.400 F800
G0 Z5.000
G0 X319.000 Y17.800 Z5.000
G1 Z-6.000 F400
G1 X150.626 Y17.800 F800
G0 Z5.000
G0 X150.626 Y20.200 Z5.000
G1 Z-6.000 F400
G1 X319.000 Y20.200 F800
G0 Z5.000
G0 X319.000 Y22.600 Z5.000
G1 Z-6.000 F400
G1 X150.626 Y22.600 F800
G0 Z5.000
G0 X150.626 Y25.000 Z5.000
G1 Z-6.000 F400
G1 X319.000 Y25.000 F800
G0 Z5.000
G0 X319.000 Y27.400 Z5.000
G1 Z-6.000 F400
G1 X150.626 Y27.400 F800
G0 Z5.000
G0 X150.626 Y29.800 Z5.000
G1 Z-6.000 F400
G1 X319.000 Y29.800 F800
G0 Z5.000
G0 X319.000 Y32.200 Z5.000
G1 Z-6.000 F400
G1 X150.626 Y32.200 F800
G0 Z5.000
G0 X150.626 Y34.600 Z5.000
G1 Z-6.000 F400
G1 X319.000 Y34.600 F800
G0 Z5.000
G0 X319.000 Y37.000 Z5.000
G1 Z-6.000 F400
G1 X150.626 Y37.000 F800
G0 Z5.000
G0 X150.626 Y39.400 Z5.000
G1 Z-6.000 F400
G1 X319.000 Y39.400 F800
G0 Z5.000
G0 X319.000 Y41.800 Z5.000
G1 Z-6.000 F400
G1 X150.626 Y41.800 F800
G0 Z5.000
G0 X150.626 Y44.200 Z5.000
G1 Z-6.000 F400
G1 X319.000 Y44.200 F800
G0 Z5.000
G0 X319.000 Y46.600 Z5.000
G1 Z-6.000 F400
G1 X150.626 Y46.600 F800
G0 Z5.000
G0 X74.402 Y46.600 Z5.000
G1 Z-6.000 F400
G1 X1.000 Y46.600 F800
G0 Z5.000
G0 X1.000 Y49.000 Z5.000
G1 Z-6.000 F400
G1 X73.965 Y49.000 F800
G0 Z5.000
G0 X150.626 Y49.000 Z5.000
G1 Z-6.000 F400
G1 X319.000 Y49.000 F800
G0 Z5.000
G0 X319.000 Y51.400 Z5.000
G1 Z-6.000 F400
G1 X150.626 Y51.400 F800
G0 Z5.000
G0 X150.626 Y53.800 Z5.000
G1 Z-6.000 F400
G1 X319.000 Y53.800 F800
G0 Z5.000
G0 X319.000 Y56.200 Z5.000
G1 Z-6.000 F400
G1 X150.626 Y56.200 F800
G0 Z5.000
G0 X150.626 Y58.600 Z5.000
G1 Z-6.000 F400
G1 X319.000 Y58.600 F800
G0 Z5.000
G0 X319.000 Y61.000 Z5.000
G1 Z-6.000 F400
G1 X150.626 Y61.000 F800
G0 Z5.000
G0 X150.626 Y63.400 Z5.000
G1 Z-6.000 F400
G1 X319.000 Y63.400 F800
G0 Z5.000
G0 X319.000 Y65.800 Z5.000
G1 Z-6.000 F400
G1 X150.626 Y65.800 F800
G0 Z5.000
G0 X150.626 Y68.200 Z5.000
G1 Z-6.000 F400
G1 X319.000 Y68.200 F800
G0 Z5.000
G0 X319.000 Y70.600 Z5.000
G1 Z-6.000 F400
G1 X150.626 Y70.600 F800
G0 Z5.000
G0 X150.626 Y73.000 Z5.000
G1 Z-6.000 F400
G1 X319.000 Y73.000 F800
G0 Z5.000
G0 X319.000 Y75.400 Z5.000
G1 Z-6.000 F400
G1 X150.626 Y75.400 F800
G0 Z5.000
G0 X150.626 Y77.800 Z5.000
G1 Z-6.000 F400
G1 X319.000 Y77.800 F800
G0 Z5.000
G0 X319.000 Y80.200 Z5.000
G1 Z-6.000 F400
G1 X150.626 Y80.200 F800
G0 Z5.000
G0 X150.626 Y82.600 Z5.000
G1 Z-6.000 F400
G1 X319.000 Y82.600 F800
G0 Z5.000
G0 X319.000 Y85.000 Z5.000
G1 Z-6.000 F400
G1 X150.626 Y85.000 F800
G0 Z5.000
G0 X150.626 Y87.400 Z5.000
G1 Z-6.000 F400
G1 X319.000 Y87.400 F800
G0 Z5.000
G0 X319.000 Y89.800 Z5.000
G1 Z-6.000 F400
G1 X150.626 Y89.800 F800
G0 Z5.000
G0 X26.678 Y92.200 Z5.000
G1 Z-6.000 F400
G1 X28.574 Y92.200 F800
G0 Z5.000
G0 X150.626 Y92.200 Z5.000
G1 Z-6.000 F400
G1 X319.000 Y92.200 F800
G0 Z5.000
G0 X319.000 Y94.600 Z5.000
G1 Z-6.000 F400
G1 X150.626 Y94.600 F800
G0 Z5.000
G0 X150.626 Y97.000 Z5.000
G1 Z-6.000 F400
G1 X319.000 Y97.000 F800
G0 Z5.000
G0 X319.000 Y99.400 Z5.000
G1 Z-6.000 F400
G1 X150.626 Y99.400 F800
G0 Z5.000
G0 X150.626 Y101.800 Z5.000
G1 Z-6.000 F400
G1 X319.000 Y101.800 F800
G0 Z5.000
G0 X319.000 Y104.200 Z5.000
G1 Z-6.000 F400
G1 X150.626 Y104.200 F800
G0 Z5.000
G0 X150.626 Y106.600 Z5.000
G1 Z-6.000 F400
G1 X319.000 Y106.600 F800
G0 Z5.000
G0 X319.000 Y109.000 Z5.000
G1 Z-6.000 F400
G1 X150.626 Y109.000 F800
G0 Z5.000
G0 X150.626 Y111.400 Z5.000
G1 Z-6.000 F400
G1 X319.000 Y111.400 F800
G0 Z5.000
G0 X319.000 Y113.800 Z5.000
G1 Z-6.000 F400
G1 X150.626 Y113.800 F800
G0 Z5.000
G0 X150.626 Y116.200 Z5.000
G1 Z-6.000 F400
G1 X319.000 Y116.200 F800
G0 Z5.000
G0 X319.000 Y118.600 Z5.000
G1 Z-6.000 F400
G1 X150.626 Y118.600 F800
G0 Z5.000
G0 X150.626 Y121.000 Z5.000
G1 Z-6.000 F400
G1 X319.000 Y121.000 F800
G0 Z5.000
G0 X319.000 Y123.400 Z5.000
G1 Z-6.000 F400
G1 X150.626 Y123.400 F800
G0 Z5.000
G0 X150.626 Y125.800 Z5.000
G1 Z-6.000 F400
G1 X319.000 Y125.800 F800
G0 Z5.000
G0 X319.000 Y128.200 Z5.000
G1 Z-6.000 F400
G1 X150.626 Y128.200 F800
G0 Z5.000
G0 X150.626 Y130.600 Z5.000
G1 Z-6.000 F400
G1 X319.000 Y130.600 F800
G0 Z5.000
G0 X319.000 Y133.000 Z5.000
G1 Z-6.000 F400
G1 X150.626 Y133.000 F800
G0 Z5.000
G0 X150.626 Y135.400 Z5.000
G1 Z-6.000 F400
G1 X319.000 Y135.400 F800
G0 Z5.000
G0 X319.000 Y137.800 Z5.000
G1 Z-6.000 F400
G1 X150.626 Y137.800 F800
G0 Z5.000
G0 X150.626 Y140.200 Z5.000
G1 Z-6.000 F400
G1 X319.000 Y140.200 F800
G0 Z5.000
G0 X319.000 Y142.600 Z5.000
G1 Z-6.000 F400
G1 X150.626 Y142.600 F800
G0 Z5.000
G0 X150.626 Y145.000 Z5.000
G1 Z-6.000 F400
G1 X319.000 Y145.000 F800
G0 Z5.000
G0 X319.000 Y147.400 Z5.000
G1 Z-6.000 F400
G1 X150.626 Y147.400 F800
G0 Z5.000
G0 X150.626 Y149.800 Z5.000
G1 Z-6.000 F400
G1 X319.000 Y149.800 F800
G0 Z5.000
G0 X319.000 Y152.200 Z5.000
G1 Z-6.000 F400
G1 X150.626 Y152.200 F800
G0 Z5.000
G0 X150.626 Y154.600 Z5.000
G1 Z-6.000 F400
G1 X319.000 Y154.600 F800
G0 Z5.000
G0 X319.000 Y157.000 Z5.000
G1 Z-6.000 F400
G1 X150.626 Y157.000 F800
G0 Z5.000
G0 X150.626 Y159.400 Z5.000
G1 Z-6.000 F400
G1 X319.000 Y159.400 F800
G0 Z5.000
G0 X319.000 Y161.800 Z5.000
G1 Z-6.000 F400
G1 X150.626 Y161.800 F800
G0 Z5.000
G0 X150.626 Y164.200 Z5.000
G1 Z-6.000 F400
G1 X319.000 Y164.200 F800
G0 Z5.000
G0 X319.000 Y166.600 Z5.000
G1 Z-6.000 F400
G1 X150.626 Y166.600 F800
G0 Z5.000
G0 X150.626 Y169.000 Z5.000
G1 Z-6.000 F400
G1 X319.000 Y169.000 F800
G0 Z5.000
G0 X319.000 Y171.400 Z5.000
G1 Z-6.000 F400
G1 X150.626 Y171.400 F800
G0 Z5.000
G0 X150.626 Y173.800 Z5.000
G1 Z-6.000 F400
G1 X319.000 Y173.800 F800
G0 Z5.000
G0 X319.000 Y176.200 Z5.000
G1 Z-6.000 F400
G1 X150.626 Y176.200 F800
G0 Z5.000
G0 X150.626 Y178.600 Z5.000
G1 Z-6.000 F400
G1 X319.000 Y178.600 F800
G0 Z5.000
G0 X319.000 Y181.000 Z5.000
G1 Z-6.000 F400
G1 X150.626 Y181.000 F800
G0 Z5.000
G0 X150.593 Y183.400 Z5.000
G1 Z-6.000 F400
G1 X319.000 Y183.400 F800
G0 Z5.000
G0 X319.000 Y185.800 Z5.000
G1 Z-6.000 F400
G1 X150.202 Y185.800 F800
G0 Z5.000
G0 X149.315 Y188.200 Z5.000
G1 Z-6.000 F400
G1 X319.000 Y188.200 F800
G0 Z5.000
G0 X319.000 Y190.600 Z5.000
G1 Z-6.000 F400
G1 X147.803 Y190.600 F800
G0 Z5.000
G0 X145.311 Y193.000 Z5.000
G1 Z-6.000 F400
G1 X319.000 Y193.000 F800
G0 Z5.000
G0 X319.000 Y195.400 Z5.000
G1 Z-6.000 F400
G1 X139.338 Y195.400 F800
G0 Z5.000
G0 X1.000 Y197.800 Z5.000
G1 Z-6.000 F400
G1 X319.000 Y197.800 F800
G0 Z5.000
G0 X319.000 Y200.200 Z5.000
G1 Z-6.000 F400
G1 X1.000 Y200.200 F800
G0 Z5.000
G0 X1.000 Y202.600 Z5.000
G1 Z-6.000 F400
G1 X319.000 Y202.600 F800
G0 Z5.000
G0 X319.000 Y205.000 Z5.000
G1 Z-6.000 F400
G1 X1.000 Y205.000 F800
G0 Z5.000
G0 X1.000 Y207.400 Z5.000
G1 Z-6.000 F400
G1 X319.000 Y207.400 F800
G0 Z5.000
G0 X319.000 Y209.800 Z5.000
G1 Z-6.000 F400
G1 X1.000 Y209.800 F800
G0 Z5.000
G0 X1.000 Y212.200 Z5.000
G1 Z-6.000 F400
G1 X319.000 Y212.200 F800
G0 Z5.000
G0 X319.000 Y214.600 Z5.000
G1 Z-6.000 F400
G1 X1.000 Y214.600 F800
G0 Z5.000
G0 X1.000 Y217.000 Z5.000
G1 Z-6.000 F400
G1 X319.000 Y217.000 F800
G0 Z5.000
G0 X319.000 Y219.400 Z5.000
G1 Z-6.000 F400
G1 X1.000 Y219.400 F800
G0 Z5.000
G0 X1.000 Y221.800 Z5.000
G1 Z-6.000 F400
G1 X319.000 Y221.800 F800
G0 Z5.000
G0 X319.000 Y224.200 Z5.000
G1 Z-6.000 F400
G1 X1.000 Y224.200 F800
G0 Z5.000
G0 X1.000 Y226.600 Z5.000
G1 Z-6.000 F400
G1 X319.000 Y226.600 F800
G0 Z5.000
G0 X319.000 Y229.000 Z5.000
G1 Z-6.000 F400
G1 X1.000 Y229.000 F800
G0 Z5.000
G0 X1.000 Y231.400 Z5.000
G1 Z-6.000 F400
G1 X319.000 Y231.400 F800
G0 Z5.000
G0 X319.000 Y233.800 Z5.000
G1 Z-6.000 F400
G1 X1.000 Y233.800 F800
G0 Z5.000
G0 X1.000 Y236.200 Z5.000
G1 Z-6.000 F400
G1 X319.000 Y236.200 F800
G0 Z5.000
G0 X319.000 Y238.600 Z5.000
G1 Z-6.000 F400
G1 X1.000 Y238.600 F800
G0 Z5.000
G0 X1.000 Y241.000 Z5.000
G1 Z-6.000 F400
G1 X319.000 Y241.000 F800
G0 Z5.000
G0 X319.000 Y243.400 Z5.000
G1 Z-6.000 F400
G1 X1.000 Y243.400 F800
G0 Z5.000
G0 X1.000 Y245.800 Z5.000
G1 Z-6.000 F400
G1 X319.000 Y245.800 F800
G0 Z5.000
G0 X319.000 Y248.200 Z5.000
G1 Z-6.000 F400
G1 X1.000 Y248.200 F800
G0 Z5.000
G0 X1.000 Y250.600 Z5.000
G1 Z-6.000 F400
G1 X319.000 Y250.600 F800
G0 Z5.000
G0 X319.000 Y253.000 Z5.000
G1 Z-6.000 F400
G1 X1.000 Y253.000 F800
G0 Z5.000
G0 X1.000 Y255.400 Z5.000
G1 Z-6.000 F400
G1 X319.000 Y255.400 F800
G0 Z5.000
G0 X319.000 Y257.800 Z5.000
G1 Z-6.000 F400
G1 X1.000 Y257.800 F800
G0 Z5.000
G0 X1.000 Y260.200 Z5.000
G1 Z-6.000 F400
G1 X319.000 Y260.200 F800
G0 Z5.000
G0 X319.000 Y262.600 Z5.000
G1 Z-6.000 F400
G1 X1.000 Y262.600 F800
G0 Z5.000
G0 X1.000 Y265.000 Z5.000
G1 Z-6.000 F400
G1 X319.000 Y265.000 F800
G0 Z5.000
G0 X319.000 Y267.400 Z5.000
G1 Z-6.000 F400
G1 X1.000 Y267.400 F800
G0 Z5.000
G0 X1.000 Y269.800 Z5.000
G1 Z-6.000 F400
G1 X319.000 Y269.800 F800
G0 Z5.000
G0 X319.000 Y272.200 Z5.000
G1 Z-6.000 F400
G1 X1.000 Y272.200 F800
G0 Z5.000
G0 X1.000 Y274.600 Z5.000
G1 Z-6.000 F400
G1 X319.000 Y274.600 F800
G0 Z5.000
G0 X319.000 Y277.000 Z5.000
G1 Z-6.000 F400
G1 X1.000 Y277.000 F800
G0 Z5.000
G0 X1.000 Y279.400 Z5.000
G1 Z-6.000 F400
G1 X319.000 Y279.400 F800
G0 Z5.000
G0 X319.000 Y281.800 Z5.000
G1 Z-6.000 F400
G1 X1.000 Y281.800 F800
G0 Z5.000
G0 X1.000 Y284.200 Z5.000
G1 Z-6.000 F400
G1 X319.000 Y284.200 F800
G0 Z5.000
G0 X319.000 Y286.600 Z5.000
G1 Z-6.000 F400
G1 X1.000 Y286.600 F800
G0 Z5.000
G0 X1.000 Y289.000 Z5.000
G1 Z-6.000 F400
G1 X319.000 Y289.000 F800
G0 Z5.000
G0 X319.000 Y291.400 Z5.000
G1 Z-6.000 F400
G1 X1.000 Y291.400 F800
G0 Z5.000
G0 X1.000 Y293.800 Z5.000
G1 Z-6.000 F400
G1 X319.000 Y293.800 F800
G0 Z5.000
G0 X319.000 Y296.200 Z5.000
G1 Z-6.000 F400
G1 X1.000 Y296.200 F800
G0 Z5.000
G0 X1.000 Y298.600 Z5.000
G1 Z-6.000 F400
G1 X319.000 Y298.600 F800
G0 Z5.000
G0 X319.000 Y301.000 Z5.000
G1 Z-6.000 F400
G1 X1.000 Y301.000 F800
G0 Z5.000
G0 X1.000 Y303.400 Z5.000
G1 Z-6.000 F400
G1 X319.000 Y303.400 F800
G0 Z5.000
G0 X319.000 Y305.800 Z5.000
G1 Z-6.000 F400
G1 X1.000 Y305.800 F800
G0 Z5.000
G0 X1.000 Y308.200 Z5.000
G1 Z-6.000 F400
G1 X319.000 Y308.200 F800
G0 Z5.000
G0 X319.000 Y310.600 Z5.000
G1 Z-6.000 F400
G1 X1.000 Y310.600 F800
G0 Z5.000
G0 X1.000 Y313.000 Z5.000
G1 Z-6.000 F400
G1 X319.000 Y313.000 F800
G0 Z5.000
G0 X319.000 Y315.400 Z5.000
G1 Z-6.000 F400
G1 X1.000 Y315.400 F800
G0 Z5.000
G0 X1.000 Y317.800 Z5.000
G1 Z-6.000 F400
G1 X319.000 Y317.800 F800
G0 Z5.000
G0 X319.000 Y320.200 Z5.000
G1 Z-6.000 F400
G1 X1.000 Y320.200 F800
G0 Z5.000
G0 X1.000 Y322.600 Z5.000
G1 Z-6.000 F400
G1 X319.000 Y322.600 F800
G0 Z5.000
G0 X319.000 Y325.000 Z5.000
G1 Z-6.000 F400
G1 X1.000 Y325.000 F800
G0 Z5.000
G0 X1.000 Y327.400 Z5.000
G1 Z-6.000 F400
G1 X319.000 Y327.400 F800
G0 Z5.000
G0 X319.000 Y329.800 Z5.000
G1 Z-6.000 F400
G1 X1.000 Y329.800 F800
G0 Z5.000
G0 X1.000 Y332.200 Z5.000
G1 Z-6.000 F400
G1 X319.000 Y332.200 F800
G0 Z5.000
G0 X319.000 Y334.600 Z5.000
G1 Z-6.000 F400
G1 X1.000 Y334.600 F800
G0 Z5.000
G0 X1.000 Y337.000 Z5.000
G1 Z-6.000 F400
G1 X319.000 Y337.000 F800
G0 Z5.000
G0 X319.000 Y339.400 Z5.000
G1 Z-6.000 F400
G1 X1.000 Y339.400 F800
G0 Z5.000
G0 X1.000 Y341.800 Z5.000
G1 Z-6.000 F400
G1 X319.000 Y341.800 F800
G0 Z5.000
G0 X319.000 Y344.200 Z5.000
G1 Z-6.000 F400
G1 X1.000 Y344.200 F800
G0 Z5.000
G0 X1.000 Y346.600 Z5.000
G1 Z-6.000 F400
G1 X319.000 Y346.600 F800
G0 Z5.000
G0 X319.000 Y349.000 Z5.000
G1 Z-6.000 F400
G1 X1.000 Y349.000 F800
G0 Z5.000
G0 X1.000 Y351.400 Z5.000
G1 Z-6.000 F400
G1 X319.000 Y351.400 F800
G0 Z5.000
G0 X319.000 Y353.800 Z5.000
G1 Z-6.000 F400
G1 X1.000 Y353.800 F800
G0 Z5.000
G0 X1.000 Y356.200 Z5.000
G1 Z-6.000 F400
G1 X319.000 Y356.200 F800
G0 Z5.000
G0 X319.000 Y358.600 Z5.000
G1 Z-6.000 F400
G1 X1.000 Y358.600 F800
G0 Z5.000
G0 X1.000 Y361.000 Z5.000
G1 Z-6.000 F400
G1 X319.000 Y361.000 F800
G0 Z5.000
G0 X319.000 Y363.400 Z5.000
G1 Z-6.000 F400
G1 X1.000 Y363.400 F800
G0 Z5.000
G0 X1.000 Y365.800 Z5.000
G1 Z-6.000 F400
G1 X319.000 Y365.800 F800
G0 Z5.000
G0 X319.000 Y368.200 Z5.000
G1 Z-6.000 F400
G1 X1.000 Y368.200 F800
G0 Z5.000
G0 X1.000 Y370.600 Z5.000
G1 Z-6.000 F400
G1 X319.000 Y370.600 F800
G0 Z5.000
G0 X319.000 Y373.000 Z5.000
G1 Z-6.000 F400
G1 X1.000 Y373.000 F800
G0 Z5.000
G0 X1.000 Y375.400 Z5.000
G1 Z-6.000 F400
G1 X319.000 Y375.400 F800
G0 Z5.000
G0 X319.000 Y377.800 Z5.000
G1 Z-6.000 F400
G1 X1.000 Y377.800 F800
G0 Z5.000
G0 X1.000 Y380.200 Z5.000
G1 Z-6.000 F400
G1 X319.000 Y380.200 F800
G0 Z5.000
G0 X319.000 Y382.600 Z5.000
G1 Z-6.000 F400
G1 X1.000 Y382.600 F800
G0 Z5.000
G0 X1.000 Y1.000 Z5.000
G1 Z-8.000 F400
G1 X319.000 Y1.000 F800
G0 Z5.000
G0 X319.000 Y3.400 Z5.000
G1 Z-8.000 F400
G1 X1.000 Y3.400 F800
G0 Z5.000
G0 X1.000 Y5.800 Z5.000
G1 Z-8.000 F400
G1 X319.000 Y5.800 F800
G0 Z5.000
G0 X319.000 Y8.200 Z5.000
G1 Z-8.000 F400
G1 X1.000 Y8.200 F800
G0 Z5.000
G0 X1.000 Y10.600 Z5.000
G1 Z-8.000 F400
G1 X319.000 Y10.600 F800
G0 Z5.000
G0 X319.000 Y13.000 Z5.000
G1 Z-8.000 F400
G1 X1.000 Y13.000 F800
G0 Z5.000
G0 X1.000 Y15.400 Z5.000
G1 Z-8.000 F400
G1 X319.000 Y15.400 F800
G0 Z5.000
G0 X319.000 Y17.800 Z5.000
G1 Z-8.000 F400
G1 X1.000 Y17.800 F800
G0 Z5.000
G0 X1.000 Y20.200 Z5.000
G1 Z-8.000 F400
G1 X319.000 Y20.200 F800
G0 Z5.000
G0 X319.000 Y22.600 Z5.000
G1 Z-8.000 F400
G1 X1.000 Y22.600 F800
G0 Z5.000
G0 X1.000 Y25.000 Z5.000
G1 Z-8.000 F400
G1 X319.000 Y25.000 F800
G0 Z5.000
G0 X319.000 Y27.400 Z5.000
G1 Z-8.000 F400
G1 X1.000 Y27.400 F800
G0 Z5.000
G0 X1.000 Y29.800 Z5.000
G1 Z-8.000 F400
G1 X319.000 Y29.800 F800
G0 Z5.000
G0 X319.000 Y32.200 Z5.000
G1 Z-8.000 F400
G1 X1.000 Y32.200 F800
G0 Z5.000
G0 X1.000 Y34.600 Z5.000
G1 Z-8.000 F400
G1 X319.000 Y34.600 F800
G0 Z5.000
G0 X319.000 Y37.000 Z5.000
G1 Z-8.000 F400
G1 X1.000 Y37.000 F800
G0 Z5.000
G0 X1.000 Y39.400 Z5.000
G1 Z-8.000 F400
G1 X319.000 Y39.400 F800
G0 Z5.000
G0 X319.000 Y41.800 Z5.000
G1 Z-8.000 F400
G1 X1.000 Y41.800 F800
G0 Z5.000
G0 X1.000 Y44.200 Z5.000
G1 Z-8.000 F400
G1 X319.000 Y44.200 F800
G0 Z5.000
G0 X319.000 Y46.600 Z5.000
G1 Z-8.000 F400
G1 X1.000 Y46.600 F800
G0 Z5.000
G0 X1.000 Y49.000 Z5.000
G1 Z-8.000 F400
G1 X319.000 Y49.000 F800
G0 Z5.000
G0 X319.000 Y51.400 Z5.000
G1 Z-8.000 F400
G1 X1.000 Y51.400 F800
G0 Z5.000
G0 X1.000 Y53.800 Z5.000
G1 Z-8.000 F400
G1 X319.000 Y53.800 F800
G0 Z5.000
G0 X319.000 Y56.200 Z5.000
G1 Z-8.000 F400
G1 X1.000 Y56.200 F800
G0 Z5.000
G0 X1.000 Y58.600 Z5.000
G1 Z-8.000 F400
G1 X319.000 Y58.600 F800
G0 Z5.000
G0 X319.000 Y61.000 Z5.000
G1 Z-8.000 F400
G1 X1.000 Y61.000 F800
G0 Z5.000
G0 X1.000 Y63.400 Z5.000
G1 Z-8.000 F400
G1 X319.000 Y63.400 F800
G0 Z5.000
G0 X319.000 Y65.800 Z5.000
G1 Z-8.000 F400
G1 X1.000 Y65.800 F800
G0 Z5.000
G0 X1.000 Y68.200 Z5.000
G1 Z-8.000 F400
G1 X319.000 Y68.200 F800
G0 Z5.000
G0 X319.000 Y70.600 Z5.000
G1 Z-8.000 F400
G1 X1.000 Y70.600 F800
G0 Z5.000
G0 X1.000 Y73.000 Z5.000
G1 Z-8.000 F400
G1 X319.000 Y73.000 F800
G0 Z5.000
G0 X319.000 Y75.400 Z5.000
G1 Z-8.000 F400
G1 X1.000 Y75.400 F800
G0 Z5.000
G0 X1.000 Y77.800 Z5.000
G1 Z-8.000 F400
G1 X319.000 Y77.800 F800
G0 Z5.000
G0 X319.000 Y80.200 Z5.000
G1 Z-8.000 F400
G1 X1.000 Y80.200 F800
G0 Z5.000
G0 X1.000 Y82.600 Z5.000
G1 Z-8.000 F400
G1 X319.000 Y82.600 F800
G0 Z5.000
G0 X319.000 Y85.000 Z5.000
G1 Z-8.000 F400
G1 X1.000 Y85.000 F800
G0 Z5.000
G0 X1.000 Y87.400 Z5.000
G1 Z-8.000 F400
G1 X319.000 Y87.400 F800
G0 Z5.000
G0 X319.000 Y89.800 Z5.000
G1 Z-8.000 F400
G1 X1.000 Y89.800 F800
G0 Z5.000
G0 X1.000 Y92.200 Z5.000
G1 Z-8.000 F400
G1 X319.000 Y92.200 F800
G0 Z5.000
G0 X319.000 Y94.600 Z5.000
G1 Z-8.000 F400
G1 X1.000 Y94.600 F800
G0 Z5.000
G0 X1.000 Y97.000 Z5.000
G1 Z-8.000 F400
G1 X319.000 Y97.000 F800
G0 Z5.000
G0 X319.000 Y99.400 Z5.000
G1 Z-8.000 F400
G1 X1.000 Y99.400 F800
G0 Z5.000
G0 X152.060 Y101.800 Z5.000
G1 Z-8.000 F400
G1 X319.000 Y101.800 F800
G0 Z5.000
G0 X319.000 Y104.200 Z5.000
G1 Z-8.000 F400
G1 X152.134 Y104.200 F800
G0 Z5.000
G0 X152.134 Y106.600 Z5.000
G1 Z-8.000 F400
G1 X319.000 Y106.600 F800
G0 Z5.000
G0 X319.000 Y109.000 Z5.000
G1 Z-8.000 F400
G1 X152.134 Y109.000 F800
G0 Z5.000
G0 X152.134 Y111.400 Z5.000
G1 Z-8.000 F400
G1 X319.000 Y111.400 F800
G0 Z5.000
G0 X319.000 Y113.800 Z5.000
G1 Z-8.000 F400
G1 X152.134 Y113.800 F800
G0 Z5.000
G0 X152.134 Y116.200 Z5.000
G1 Z-8.000 F400
G1 X319.000 Y116.200 F800
G0 Z5.000
G0 X319.000 Y118.600 Z5.000
G1 Z-8.000 F400
G1 X152.134 Y118.600 F800
G0 Z5.000
G0 X152.134 Y121.000 Z5.000
G1 Z-8.000 F400
G1 X319.000 Y121.000 F800
G0 Z5.000
G0 X319.000 Y123.400 Z5.000
G1 Z-8.000 F400
G1 X152.134 Y123.400 F800
G0 Z5.000
G0 X152.134 Y125.800 Z5.000
G1 Z-8.000 F400
G1 X319.000 Y125.800 F800
G0 Z5.000
G0 X319.000 Y128.200 Z5.000
G1 Z-8.000 F400
G1 X152.134 Y128.200 F800
G0 Z5.000
G0 X152.134 Y130.600 Z5.000
G1 Z-8.000 F400
G1 X319.000 Y130.600 F800
G0 Z5.000
G0 X319.000 Y133.000 Z5.000
G1 Z-8.000 F400
G1 X152.134 Y133.000 F800
G0 Z5.000
G0 X152.134 Y135.400 Z5.000
G1 Z-8.000 F400
G1 X319.000 Y135.400 F800
G0 Z5.000
G0 X319.000 Y137.800 Z5.000
G1 Z-8.000 F400
G1 X152.134 Y137.800 F800
G0 Z5.000
G0 X152.134 Y140.200 Z5.000
G1 Z-8.000 F400
G1 X319.000 Y140.200 F800
G0 Z5.000
G0 X319.000 Y142.600 Z5.000
G1 Z-8.000 F400
G1 X152.134 Y142.600 F800
G0 Z5.000
G0 X152.134 Y145.000 Z5.000
G1 Z-8.000 F400
G1 X319.000 Y145.000 F800
G0 Z5.000
G0 X319.000 Y147.400 Z5.000
G1 Z-8.000 F400
G1 X152.134 Y147.400 F800
G0 Z5.000
G0 X152.134 Y149.800 Z5.000
G1 Z-8.000 F400
G1 X319.000 Y149.800 F800
G0 Z5.000
G0 X319.000 Y152.200 Z5.000
G1 Z-8.000 F400
G1 X152.134 Y152.200 F800
G0 Z5.000
G0 X152.134 Y154.600 Z5.000
G1 Z-8.000 F400
G1 X319.000 Y154.600 F800
G0 Z5.000
G0 X319.000 Y157.000 Z5.000
G1 Z-8.000 F400
G1 X152.134 Y157.000 F800
G0 Z5.000
G0 X152.134 Y159.400 Z5.000
G1 Z-8.000 F400
G1 X319.000 Y159.400 F800
G0 Z5.000
G0 X319.000 Y161.800 Z5.000
G1 Z-8.000 F400
G1 X152.134 Y161.800 F800
G0 Z5.000
G0 X152.134 Y164.200 Z5.000
G1 Z-8.000 F400
G1 X319.000 Y164.200 F800
G0 Z5.000
G0 X319.000 Y166.600 Z5.000
G1 Z-8.000 F400
G1 X152.134 Y166.600 F800
G0 Z5.000
G0 X152.134 Y169.000 Z5.000
G1 Z-8.000 F400
G1 X319.000 Y169.000 F800
G0 Z5.000
G0 X319.000 Y171.400 Z5.000
G1 Z-8.000 F400
G1 X152.134 Y171.400 F800
G0 Z5.000
G0 X152.134 Y173.800 Z5.000
G1 Z-8.000 F400
G1 X319.000 Y173.800 F800
G0 Z5.000
G0 X319.000 Y176.200 Z5.000
G1 Z-8.000 F400
G1 X152.134 Y176.200 F800
G0 Z5.000
G0 X152.134 Y178.600 Z5.000
G1 Z-8.000 F400
G1 X319.000 Y178.600 F800
G0 Z5.000
G0 X319.000 Y181.000 Z5.000
G1 Z-8.000 F400
G1 X152.134 Y181.000 F800
G0 Z5.000
G0 X152.097 Y183.400 Z5.000
G1 Z-8.000 F400
G1 X319.000 Y183.400 F800
G0 Z5.000
G0 X319.000 Y185.800 Z5.000
G1 Z-8.000 F400
G1 X151.693 Y185.800 F800
G0 Z5.000
G0 X150.791 Y188.200 Z5.000
G1 Z-8.000 F400
G1 X319.000 Y188.200 F800
G0 Z5.000
G0 X319.000 Y190.600 Z5.000
G1 Z-8.000 F400
G1 X149.262 Y190.600 F800
G0 Z5.000
G0 X146.728 Y193.000 Z5.000
G1 Z-8.000 F400
G1 X319.000 Y193.000 F800
G0 Z5.000
G0 X319.000 Y195.400 Z5.000
G1 Z-8.000 F400
G1 X140.272 Y195.400 F800
G0 Z5.000
G0 X1.000 Y197.800 Z5.000
G1 Z-8.000 F400
G1 X319.000 Y197.800 F800
G0 Z5.000
G0 X319.000 Y200.200 Z5.000
G1 Z-8.000 F400
G1 X1.000 Y200.200 F800
G0 Z5.000
G0 X1.000 Y202.600 Z5.000
G1 Z-8.000 F400
G1 X319.000 Y202.600 F800
G0 Z5.000
G0 X319.000 Y205.000 Z5.000
G1 Z-8.000 F400
G1 X1.000 Y205.000 F800
G0 Z5.000
G0 X1.000 Y207.400 Z5.000
G1 Z-8.000 F400
G1 X319.000 Y207.400 F800
G0 Z5.000
G0 X319.000 Y209.800 Z5.000
G1 Z-8.000 F400
G1 X1.000 Y209.800 F800
G0 Z5.000
G0 X1.000 Y212.200 Z5.000
G1 Z-8.000 F400
G1 X319.000 Y212.200 F800
G0 Z5.000
G0 X319.000 Y214.600 Z5.000
G1 Z-8.000 F400
G1 X1.000 Y214.600 F800
G0 Z5.000
G0 X1.000 Y217.000 Z5.000
G1 Z-8.000 F400
G1 X319.000 Y217.000 F800
G0 Z5.000
G0 X319.000 Y219.400 Z5.000
G1 Z-8.000 F400
G1 X1.000 Y219.400 F800
G0 Z5.000
G0 X1.000 Y221.800 Z5.000
G1 Z-8.000 F400
G1 X319.000 Y221.800 F800
G0 Z5.000
G0 X319.000 Y224.200 Z5.000
G1 Z-8.000 F400
G1 X1.000 Y224.200 F800
G0 Z5.000
G0 X1.000 Y226.600 Z5.000
G1 Z-8.000 F400
G1 X319.000 Y226.600 F800
G0 Z5.000
G0 X319.000 Y229.000 Z5.000
G1 Z-8.000 F400
G1 X1.000 Y229.000 F800
G0 Z5.000
G0 X1.000 Y231.400 Z5.000
G1 Z-8.000 F400
G1 X319.000 Y231.400 F800
G0 Z5.000
G0 X319.000 Y233.800 Z5.000
G1 Z-8.000 F400
G1 X1.000 Y233.800 F800
G0 Z5.000
G0 X1.000 Y236.200 Z5.000
G1 Z-8.000 F400
G1 X319.000 Y236.200 F800
G0 Z5.000
G0 X319.000 Y238.600 Z5.000
G1 Z-8.000 F400
G1 X1.000 Y238.600 F800
G0 Z5.000
G0 X1.000 Y241.000 Z5.000
G1 Z-8.000 F400
G1 X319.000 Y241.000 F800
G0 Z5.000
G0 X319.000 Y243.400 Z5.000
G1 Z-8.000 F400
G1 X1.000 Y243.400 F800
G0 Z5.000
G0 X1.000 Y245.800 Z5.000
G1 Z-8.000 F400
G1 X319.000 Y245.800 F800
G0 Z5.000
G0 X319.000 Y248.200 Z5.000
G1 Z-8.000 F400
G1 X1.000 Y248.200 F800
G0 Z5.000
G0 X1.000 Y250.600 Z5.000
G1 Z-8.000 F400
G1 X319.000 Y250.600 F800
G0 Z5.000
G0 X319.000 Y253.000 Z5.000
G1 Z-8.000 F400
G1 X1.000 Y253.000 F800
G0 Z5.000
G0 X1.000 Y255.400 Z5.000
G1 Z-8.000 F400
G1 X319.000 Y255.400 F800
G0 Z5.000
G0 X319.000 Y257.800 Z5.000
G1 Z-8.000 F400
G1 X1.000 Y257.800 F800
G0 Z5.000
G0 X1.000 Y260.200 Z5.000
G1 Z-8.000 F400
G1 X319.000 Y260.200 F800
G0 Z5.000
G0 X319.000 Y262.600 Z5.000
G1 Z-8.000 F400
G1 X1.000 Y262.600 F800
G0 Z5.000
G0 X1.000 Y265.000 Z5.000
G1 Z-8.000 F400
G1 X319.000 Y265.000 F800
G0 Z5.000
G0 X319.000 Y267.400 Z5.000
G1 Z-8.000 F400
G1 X1.000 Y267.400 F800
G0 Z5.000
G0 X1.000 Y269.800 Z5.000
G1 Z-8.000 F400
G1 X319.000 Y269.800 F800
G0 Z5.000
G0 X319.000 Y272.200 Z5.000
G1 Z-8.000 F400
G1 X1.000 Y272.200 F800
G0 Z5.000
G0 X1.000 Y274.600 Z5.000
G1 Z-8.000 F400
G1 X319.000 Y274.600 F800
G0 Z5.000
G0 X319.000 Y277.000 Z5.000
G1 Z-8.000 F400
G1 X1.000 Y277.000 F800
G0 Z5.000
G0 X1.000 Y279.400 Z5.000
G1 Z-8.000 F400
G1 X319.000 Y279.400 F800
G0 Z5.000
G0 X319.000 Y281.800 Z5.000
G1 Z-8.000 F400
G1 X1.000 Y281.800 F800
G0 Z5.000
G0 X1.000 Y284.200 Z5.000
G1 Z-8.000 F400
G1 X319.000 Y284.200 F800
G0 Z5.000
G0 X319.000 Y286.600 Z5.000
G1 Z-8.000 F400
G1 X1.000 Y286.600 F800
G0 Z5.000
G0 X1.000 Y289.000 Z5.000
G1 Z-8.000 F400
G1 X319.000 Y289.000 F800
G0 Z5.000
G0 X319.000 Y291.400 Z5.000
G1 Z-8.000 F400
G1 X1.000 Y291.400 F800
G0 Z5.000
G0 X1.000 Y293.800 Z5.000
G1 Z-8.000 F400
G1 X319.000 Y293.800 F800
G0 Z5.000
G0 X319.000 Y296.200 Z5.000
G1 Z-8.000 F400
G1 X1.000 Y296.200 F800
G0 Z5.000
G0 X1.000 Y298.600 Z5.000
G1 Z-8.000 F400
G1 X319.000 Y298.600 F800
G0 Z5.000
G0 X319.000 Y301.000 Z5.000
G1 Z-8.000 F400
G1 X1.000 Y301.000 F800
G0 Z5.000
G0 X1.000 Y303.400 Z5.000
G1 Z-8.000 F400
G1 X319.000 Y303.400 F800
G0 Z5.000
G0 X319.000 Y305.800 Z5.000
G1 Z-8.000 F400
G1 X1.000 Y305.800 F800
G0 Z5.000
G0 X1.000 Y308.200 Z5.000
G1 Z-8.000 F400
G1 X319.000 Y308.200 F800
G0 Z5.000
G0 X319.000 Y310.600 Z5.000
G1 Z-8.000 F400
G1 X1.000 Y310.600 F800
G0 Z5.000
G0 X1.000 Y313.000 Z5.000
G1 Z-8.000 F400
G1 X319.000 Y313.000 F800
G0 Z5.000
G0 X319.000 Y315.400 Z5.000
G1 Z-8.000 F400
G1 X1.000 Y315.400 F800
G0 Z5.000
G0 X1.000 Y317.800 Z5.000
G1 Z-8.000 F400
G1 X319.000 Y317.800 F800
G0 Z5.000
G0 X319.000 Y320.200 Z5.000
G1 Z-8.000 F400
G1 X1.000 Y320.200 F800
G0 Z5.000
G0 X1.000 Y322.600 Z5.000
G1 Z-8.000 F400
G1 X319.000 Y322.600 F800
G0 Z5.000
G0 X319.000 Y325.000 Z5.000
G1 Z-8.000 F400
G1 X1.000 Y325.000 F800
G0 Z5.000
G0 X1.000 Y327.400 Z5.000
G1 Z-8.000 F400
G1 X319.000 Y327.400 F800
G0 Z5.000
G0 X319.000 Y329.800 Z5.000
G1 Z-8.000 F400
G1 X1.000 Y329.800 F800
G0 Z5.000
G0 X1.000 Y332.200 Z5.000
G1 Z-8.000 F400
G1 X319.000 Y332.200 F800
G0 Z5.000
G0 X319.000 Y334.600 Z5.000
G1 Z-8.000 F400
G1 X1.000 Y334.600 F800
G0 Z5.000
G0 X1.000 Y337.000 Z5.000
G1 Z-8.000 F400
G1 X319.000 Y337.000 F800
G0 Z5.000
G0 X319.000 Y339.400 Z5.000
G1 Z-8.000 F400
G1 X1.000 Y339.400 F800
G0 Z5.000
G0 X1.000 Y341.800 Z5.000
G1 Z-8.000 F400
G1 X319.000 Y341.800 F800
G0 Z5.000
G0 X319.000 Y344.200 Z5.000
G1 Z-8.000 F400
G1 X1.000 Y344.200 F800
G0 Z5.000
G0 X1.000 Y346.600 Z5.000
G1 Z-8.000 F400
G1 X319.000 Y346.600 F800
G0 Z5.000
G0 X319.000 Y349.000 Z5.000
G1 Z-8.000 F400
G1 X1.000 Y349.000 F800
G0 Z5.000
G0 X1.000 Y351.400 Z5.000
G1 Z-8.000 F400
G1 X319.000 Y351.400 F800
G0 Z5.000
G0 X319.000 Y353.800 Z5.000
G1 Z-8.000 F400
G1 X1.000 Y353.800 F800
G0 Z5.000
G0 X1.000 Y356.200 Z5.000
G1 Z-8.000 F400
G1 X319.000 Y356.200 F800
G0 Z5.000
G0 X319.000 Y358.600 Z5.000
G1 Z-8.000 F400
G1 X1.000 Y358.600 F800
G0 Z5.000
G0 X1.000 Y361.000 Z5.000
G1 Z-8.000 F400
G1 X319.000 Y361.000 F800
G0 Z5.000
G0 X319.000 Y363.400 Z5.000
G1 Z-8.000 F400
G1 X1.000 Y363.400 F800
G0 Z5.000
G0 X1.000 Y365.800 Z5.000
G1 Z-8.000 F400
G1 X319.000 Y365.800 F800
G0 Z5.000
G0 X319.000 Y368.200 Z5.000
G1 Z-8.000 F400
G1 X1.000 Y368.200 F800
G0 Z5.000
G0 X1.000 Y370.600 Z5.000
G1 Z-8.000 F400
G1 X319.000 Y370.600 F800
G0 Z5.000
G0 X319.000 Y373.000 Z5.000
G1 Z-8.000 F400
G1 X1.000 Y373.000 F800
G0 Z5.000
G0 X1.000 Y375.400 Z5.000
G1 Z-8.000 F400
G1 X319.000 Y375.400 F800
G0 Z5.000
G0 X319.000 Y377.800 Z5.000
G1 Z-8.000 F400
G1 X1.000 Y377.800 F800
G0 Z5.000
G0 X1.000 Y380.200 Z5.000
G1 Z-8.000 F400
G1 X319.000 Y380.200 F800
G0 Z5.000
G0 X319.000 Y382.600 Z5.000
G1 Z-8.000 F400
G1 X1.000 Y382.600 F800
G0 Z5.000
G0 X1.000 Y1.000 Z5.000
G1 Z-10.000 F400
G1 X319.000 Y1.000 F800
G0 Z5.000
G0 X319.000 Y3.400 Z5.000
G1 Z-10.000 F400
G1 X1.000 Y3.400 F800
G0 Z5.000
G0 X1.000 Y5.800 Z5.000
G1 Z-10.000 F400
G1 X319.000 Y5.800 F800
G0 Z5.000
G0 X319.000 Y8.200 Z5.000
G1 Z-10.000 F400
G1 X1.000 Y8.200 F800
G0 Z5.000
G0 X1.000 Y10.600 Z5.000
G1 Z-10.000 F400
G1 X319.000 Y10.600 F800
G0 Z5.000
G0 X319.000 Y13.000 Z5.000
G1 Z-10.000 F400
G1 X1.000 Y13.000 F800
G0 Z5.000
G0 X1.000 Y15.400 Z5.000
G1 Z-10.000 F400
G1 X319.000 Y15.400 F800
G0 Z5.000
G0 X319.000 Y17.800 Z5.000
G1 Z-10.000 F400
G1 X1.000 Y17.800 F800
G0 Z5.000
G0 X1.000 Y20.200 Z5.000
G1 Z-10.000 F400
G1 X319.000 Y20.200 F800
G0 Z5.000
G0 X319.000 Y22.600 Z5.000
G1 Z-10.000 F400
G1 X1.000 Y22.600 F800
G0 Z5.000
G0 X1.000 Y25.000 Z5.000
G1 Z-10.000 F400
G1 X319.000 Y25.000 F800
G0 Z5.000
G0 X319.000 Y27.400 Z5.000
G1 Z-10.000 F400
G1 X1.000 Y27.400 F800
G0 Z5.000
G0 X1.000 Y29.800 Z5.000
G1 Z-10.000 F400
G1 X319.000 Y29.800 F800
G0 Z5.000
G0 X319.000 Y32.200 Z5.000
G1 Z-10.000 F400
G1 X1.000 Y32.200 F800
G0 Z5.000
G0 X1.000 Y34.600 Z5.000
G1 Z-10.000 F400
G1 X319.000 Y34.600 F800
G0 Z5.000
G0 X319.000 Y37.000 Z5.000
G1 Z-10.000 F400
G1 X1.000 Y37.000 F800
G0 Z5.000
G0 X1.000 Y39.400 Z5.000
G1 Z-10.000 F400
G1 X319.000 Y39.400 F800
G0 Z5.000
G0 X319.000 Y41.800 Z5.000
G1 Z-10.000 F400
G1 X1.000 Y41.800 F800
G0 Z5.000
G0 X1.000 Y44.200 Z5.000
G1 Z-10.000 F400
G1 X319.000 Y44.200 F800
G0 Z5.000
G0 X319.000 Y46.600 Z5.000
G1 Z-10.000 F400
G1 X1.000 Y46.600 F800
G0 Z5.000
G0 X1.000 Y49.000 Z5.000
G1 Z-10.000 F400
G1 X319.000 Y49.000 F800
G0 Z5.000
G0 X319.000 Y51.400 Z5.000
G1 Z-10.000 F400
G1 X1.000 Y51.400 F800
G0 Z5.000
G0 X1.000 Y53.800 Z5.000
G1 Z-10.000 F400
G1 X319.000 Y53.800 F800
G0 Z5.000
G0 X319.000 Y56.200 Z5.000
G1 Z-10.000 F400
G1 X1.000 Y56.200 F800
G0 Z5.000
G0 X1.000 Y58.600 Z5.000
G1 Z-10.000 F400
G1 X319.000 Y58.600 F800
G0 Z5.000
G0 X319.000 Y61.000 Z5.000
G1 Z-10.000 F400
G1 X1.000 Y61.000 F800
G0 Z5.000
G0 X1.000 Y63.400 Z5.000
G1 Z-10.000 F400
G1 X319.000 Y63.400 F800
G0 Z5.000
G0 X319.000 Y65.800 Z5.000
G1 Z-10.000 F400
G1 X1.000 Y65.800 F800
G0 Z5.000
G0 X1.000 Y68.200 Z5.000
G1 Z-10.000 F400
G1 X319.000 Y68.200 F800
G0 Z5.000
G0 X319.000 Y70.600 Z5.000
G1 Z-10.000 F400
G1 X1.000 Y70.600 F800
G0 Z5.000
G0 X1.000 Y73.000 Z5.000
G1 Z-10.000 F400
G1 X319.000 Y73.000 F800
G0 Z5.000
G0 X319.000 Y75.400 Z5.000
G1 Z-10.000 F400
G1 X1.000 Y75.400 F800
G0 Z5.000
G0 X1.000 Y77.800 Z5.000
G1 Z-10.000 F400
G1 X319.000 Y77.800 F800
G0 Z5.000
G0 X319.000 Y80.200 Z5.000
G1 Z-10.000 F400
G1 X1.000 Y80.200 F800
G0 Z5.000
G0 X1.000 Y82.600 Z5.000
G1 Z-10.000 F400
G1 X319.000 Y82.600 F800
G0 Z5.000
G0 X319.000 Y85.000 Z5.000
G1 Z-10.000 F400
G1 X1.000 Y85.000 F800
G0 Z5.000
G0 X1.000 Y87.400 Z5.000
G1 Z-10.000 F400
G1 X319.000 Y87.400 F800
G0 Z5.000
G0 X319.000 Y89.800 Z5.000
G1 Z-10.000 F400
G1 X1.000 Y89.800 F800
G0 Z5.000
G0 X1.000 Y92.200 Z5.000
G1 Z-10.000 F400
G1 X319.000 Y92.200 F800
G0 Z5.000
G0 X319.000 Y94.600 Z5.000
G1 Z-10.000 F400
G1 X1.000 Y94.600 F800
G0 Z5.000
G0 X1.000 Y97.000 Z5.000
G1 Z-10.000 F400
G1 X319.000 Y97.000 F800
G0 Z5.000
G0 X319.000 Y99.400 Z5.000
G1 Z-10.000 F400
G1 X152.048 Y99.400 F800
G0 Z5.000
G0 X152.901 Y101.800 Z5.000
G1 Z-10.000 F400
G1 X319.000 Y101.800 F800
G0 Z5.000
G0 X319.000 Y104.200 Z5.000
G1 Z-10.000 F400
G1 X152.901 Y104.200 F800
G0 Z5.000
G0 X152.901 Y106.600 Z5.000
G1 Z-10.000 F400
G1 X319.000 Y106.600 F800
G0 Z5.000
G0 X319.000 Y109.000 Z5.000
G1 Z-10.000 F400
G1 X152.901 Y109.000 F800
G0 Z5.000
G0 X152.901 Y111.400 Z5.000
G1 Z-10.000 F400
G1 X319.000 Y111.400 F800
G0 Z5.000
G0 X319.000 Y113.800 Z5.000
G1 Z-10.000 F400
G1 X152.901 Y113.800 F800
G0 Z5.000
G0 X152.901 Y116.200 Z5.000
G1 Z-10.000 F400
G1 X319.000 Y116.200 F800
G0 Z5.000
G0 X319.000 Y118.600 Z5.000
G1 Z-10.000 F400
G1 X152.901 Y118.600 F800
G0 Z5.000
G0 X152.901 Y121.000 Z5.000
G1 Z-10.000 F400
G1 X319.000 Y121.000 F800
G0 Z5.000
G0 X319.000 Y123.400 Z5.000
G1 Z-10.000 F400
G1 X152.901 Y123.400 F800
G0 Z5.000
G0 X152.901 Y125.800 Z5.000
G1 Z-10.000 F400
G1 X319.000 Y125.800 F800
G0 Z5.000
G0 X319.000 Y128.200 Z5.000
G1 Z-10.000 F400
G1 X152.901 Y128.200 F800
G0 Z5.000
G0 X152.901 Y130.600 Z5.000
G1 Z-10.000 F400
G1 X319.000 Y130.600 F800
G0 Z5.000
G0 X319.000 Y133.000 Z5.000
G1 Z-10.000 F400
G1 X152.901 Y133.000 F800
G0 Z5.000
G0 X152.901 Y135.400 Z5.000
G1 Z-10.000 F400
G1 X319.000 Y135.400 F800
G0 Z5.000
G0 X319.000 Y137.800 Z5.000
G1 Z-10.000 F400
G1 X152.901 Y137.800 F800
G0 Z5.000
G0 X152.901 Y140.200 Z5.000
G1 Z-10.000 F400
G1 X319.000 Y140.200 F800
G0 Z5.000
G0 X319.000 Y142.600 Z5.000
G1 Z-10.000 F400
G1 X152.901 Y142.600 F800
G0 Z5.000
G0 X152.901 Y145.000 Z5.000
G1 Z-10.000 F400
G1 X319.000 Y145.000 F800
G0 Z5.000
G0 X319.000 Y147.400 Z5.000
G1 Z-10.000 F400
G1 X152.901 Y147.400 F800
G0 Z5.000
G0 X152.901 Y149.800 Z5.000
G1 Z-10.000 F400
G1 X319.000 Y149.800 F800
G0 Z5.000
G0 X319.000 Y152.200 Z5.000
G1 Z-10.000 F400
G1 X152.901 Y152.200 F800
G0 Z5.000
G0 X152.901 Y154.600 Z5.000
G1 Z-10.000 F400
G1 X319.000 Y154.600 F800
G0 Z5.000
G0 X319.000 Y157.000 Z5.000
G1 Z-10.000 F400
G1 X152.901 Y157.000 F800
G0 Z5.000
G0 X152.901 Y159.400 Z5.000
G1 Z-10.000 F400
G1 X319.000 Y159.400 F800
G0 Z5.000
G0 X319.000 Y161.800 Z5.000
G1 Z-10.000 F400
G1 X152.901 Y161.800 F800
G0 Z5.000
G0 X152.901 Y164.200 Z5.000
G1 Z-10.000 F400
G1 X319.000 Y164.200 F800
G0 Z5.000
G0 X319.000 Y166.600 Z5.000
G1 Z-10.000 F400
G1 X152.901 Y166.600 F800
G0 Z5.000
G0 X152.901 Y169.000 Z5.000
G1 Z-10.000 F400
G1 X319.000 Y169.000 F800
G0 Z5.000
G0 X319.000 Y171.400 Z5.000
G1 Z-10.000 F400
G1 X152.901 Y171.400 F800
G0 Z5.000
G0 X152.901 Y173.800 Z5.000
G1 Z-10.000 F400
G1 X319.000 Y173.800 F800
G0 Z5.000
G0 X319.000 Y176.200 Z5.000
G1 Z-10.000 F400
G1 X152.901 Y176.200 F800
G0 Z5.000
G0 X152.901 Y178.600 Z5.000
G1 Z-10.000 F400
G1 X319.000 Y178.600 F800
G0 Z5.000
G0 X319.000 Y181.000 Z5.000
G1 Z-10.000 F400
G1 X152.901 Y181.000 F800
G0 Z5.000
G0 X152.760 Y183.400 Z5.000
G1 Z-10.000 F400
G1 X319.000 Y183.400 F800
G0 Z5.000
G0 X319.000 Y185.800 Z5.000
G1 Z-10.000 F400
G1 X152.166 Y185.800 F800
G0 Z5.000
G0 X151.037 Y188.200 Z5.000
G1 Z-10.000 F400
G1 X319.000 Y188.200 F800
G0 Z5.000
G0 X319.000 Y190.600 Z5.000
G1 Z-10.000 F400
G1 X149.176 Y190.600 F800
G0 Z5.000
G0 X145.948 Y193.000 Z5.000
G1 Z-10.000 F400
G1 X319.000 Y193.000 F800
G0 Z5.000
G0 X319.000 Y195.400 Z5.000
G1 Z-10.000 F400
G1 X1.000 Y195.400 F800
G0 Z5.000
G0 X1.000 Y197.800 Z5.000
G1 Z-10.000 F400
G1 X319.000 Y197.800 F800
G0 Z5.000
G0 X319.000 Y200.200 Z5.000
G1 Z-10.000 F400
G1 X1.000 Y200.200 F800
G0 Z5.000
G0 X1.000 Y202.600 Z5.000
G1 Z-10.000 F400
G1 X319.000 Y202.600 F800
G0 Z5.000
G0 X319.000 Y205.000 Z5.000
G1 Z-10.000 F400
G1 X1.000 Y205.000 F800
G0 Z5.000
G0 X1.000 Y207.400 Z5.000
G1 Z-10.000 F400
G1 X319.000 Y207.400 F800
G0 Z5.000
G0 X319.000 Y209.800 Z5.000
G1 Z-10.000 F400
G1 X1.000 Y209.800 F800
G0 Z5.000
G0 X1.000 Y212.200 Z5.000
G1 Z-10.000 F400
G1 X319.000 Y212.200 F800
G0 Z5.000
G0 X319.000 Y214.600 Z5.000
G1 Z-10.000 F400
G1 X1.000 Y214.600 F800
G0 Z5.000
G0 X1.000 Y217.000 Z5.000
G1 Z-10.000 F400
G1 X319.000 Y217.000 F800
G0 Z5.000
G0 X319.000 Y219.400 Z5.000
G1 Z-10.000 F400
G1 X1.000 Y219.400 F800
G0 Z5.000
G0 X1.000 Y221.800 Z5.000
G1 Z-10.000 F400
G1 X319.000 Y221.800 F800
G0 Z5.000
G0 X319.000 Y224.200 Z5.000
G1 Z-10.000 F400
G1 X1.000 Y224.200 F800
G0 Z5.000
G0 X1.000 Y226.600 Z5.000
G1 Z-10.000 F400
G1 X319.000 Y226.600 F800
G0 Z5.000
G0 X319.000 Y229.000 Z5.000
G1 Z-10.000 F400
G1 X1.000 Y229.000 F800
G0 Z5.000
G0 X1.000 Y231.400 Z5.000
G1 Z-10.000 F400
G1 X319.000 Y231.400 F800
G0 Z5.000
G0 X319.000 Y233.800 Z5.000
G1 Z-10.000 F400
G1 X1.000 Y233.800 F800
G0 Z5.000
G0 X1.000 Y236.200 Z5.000
G1 Z-10.000 F400
G1 X319.000 Y236.200 F800
G0 Z5.000
G0 X319.000 Y238.600 Z5.000
G1 Z-10.000 F400
G1 X1.000 Y238.600 F800
G0 Z5.000
G0 X1.000 Y241.000 Z5.000
G1 Z-10.000 F400
G1 X319.000 Y241.000 F800
G0 Z5.000
G0 X319.000 Y243.400 Z5.000
G1 Z-10.000 F400
G1 X1.000 Y243.400 F800
G0 Z5.000
G0 X1.000 Y245.800 Z5.000
G1 Z-10.000 F400
G1 X319.000 Y245.800 F800
G0 Z5.000
G0 X319.000 Y248.200 Z5.000
G1 Z-10.000 F400
G1 X1.000 Y248.200 F800
G0 Z5.000
G0 X1.000 Y250.600 Z5.000
G1 Z-10.000 F400
G1 X319.000 Y250.600 F800
G0 Z5.000
G0 X319.000 Y253.000 Z5.000
G1 Z-10.000 F400
G1 X1.000 Y253.000 F800
G0 Z5.000
G0 X1.000 Y255.400 Z5.000
G1 Z-10.000 F400
G1 X319.000 Y255.400 F800
G0 Z5.000
G0 X319.000 Y257.800 Z5.000
G1 Z-10.000 F400
G1 X1.000 Y257.800 F800
G0 Z5.000
G0 X1.000 Y260.200 Z5.000
G1 Z-10.000 F400
G1 X319.000 Y260.200 F800
G0 Z5.000
G0 X319.000 Y262.600 Z5.000
G1 Z-10.000 F400
G1 X1.000 Y262.600 F800
G0 Z5.000
G0 X1.000 Y265.000 Z5.000
G1 Z-10.000 F400
G1 X319.000 Y265.000 F800
G0 Z5.000
G0 X319.000 Y267.400 Z5.000
G1 Z-10.000 F400
G1 X1.000 Y267.400 F800
G0 Z5.000
G0 X1.000 Y269.800 Z5.000
G1 Z-10.000 F400
G1 X319.000 Y269.800 F800
G0 Z5.000
G0 X319.000 Y272.200 Z5.000
G1 Z-10.000 F400
G1 X1.000 Y272.200 F800
G0 Z5.000
G0 X1.000 Y274.600 Z5.000
G1 Z-10.000 F400
G1 X319.000 Y274.600 F800
G0 Z5.000
G0 X319.000 Y277.000 Z5.000
G1 Z-10.000 F400
G1 X1.000 Y277.000 F800
G0 Z5.000
G0 X1.000 Y279.400 Z5.000
G1 Z-10.000 F400
G1 X319.000 Y279.400 F800
G0 Z5.000
G0 X319.000 Y281.800 Z5.000
G1 Z-10.000 F400
G1 X1.000 Y281.800 F800
G0 Z5.000
G0 X1.000 Y284.200 Z5.000
G1 Z-10.000 F400
G1 X319.000 Y284.200 F800
G0 Z5.000
G0 X319.000 Y286.600 Z5.000
G1 Z-10.000 F400
G1 X1.000 Y286.600 F800
G0 Z5.000
G0 X1.000 Y289.000 Z5.000
G1 Z-10.000 F400
G1 X319.000 Y289.000 F800
G0 Z5.000
G0 X319.000 Y291.400 Z5.000
G1 Z-10.000 F400
G1 X1.000 Y291.400 F800
G0 Z5.000
G0 X1.000 Y293.800 Z5.000
G1 Z-10.000 F400
G1 X319.000 Y293.800 F800
G0 Z5.000
G0 X319.000 Y296.200 Z5.000
G1 Z-10.000 F400
G1 X1.000 Y296.200 F800
G0 Z5.000
G0 X1.000 Y298.600 Z5.000
G1 Z-10.000 F400
G1 X319.000 Y298.600 F800
G0 Z5.000
G0 X319.000 Y301.000 Z5.000
G1 Z-10.000 F400
G1 X1.000 Y301.000 F800
G0 Z5.000
G0 X1.000 Y303.400 Z5.000
G1 Z-10.000 F400
G1 X319.000 Y303.400 F800
G0 Z5.000
G0 X319.000 Y305.800 Z5.000
G1 Z-10.000 F400
G1 X1.000 Y305.800 F800
G0 Z5.000
G0 X1.000 Y308.200 Z5.000
G1 Z-10.000 F400
G1 X319.000 Y308.200 F800
G0 Z5.000
G0 X319.000 Y310.600 Z5.000
G1 Z-10.000 F400
G1 X1.000 Y310.600 F800
G0 Z5.000
G0 X1.000 Y313.000 Z5.000
G1 Z-10.000 F400
G1 X319.000 Y313.000 F800
G0 Z5.000
G0 X319.000 Y315.400 Z5.000
G1 Z-10.000 F400
G1 X1.000 Y315.400 F800
G0 Z5.000
G0 X1.000 Y317.800 Z5.000
G1 Z-10.000 F400
G1 X319.000 Y317.800 F800
G0 Z5.000
G0 X319.000 Y320.200 Z5.000
G1 Z-10.000 F400
G1 X1.000 Y320.200 F800
G0 Z5.000
G0 X1.000 Y322.600 Z5.000
G1 Z-10.000 F400
G1 X319.000 Y322.600 F800
G0 Z5.000
G0 X319.000 Y325.000 Z5.000
G1 Z-10.000 F400
G1 X1.000 Y325.000 F800
G0 Z5.000
G0 X1.000 Y327.400 Z5.000
G1 Z-10.000 F400
G1 X319.000 Y327.400 F800
G0 Z5.000
G0 X319.000 Y329.800 Z5.000
G1 Z-10.000 F400
G1 X1.000 Y329.800 F800
G0 Z5.000
G0 X1.000 Y332.200 Z5.000
G1 Z-10.000 F400
G1 X319.000 Y332.200 F800
G0 Z5.000
G0 X319.000 Y334.600 Z5.000
G1 Z-10.000 F400
G1 X1.000 Y334.600 F800
G0 Z5.000
G0 X1.000 Y337.000 Z5.000
G1 Z-10.000 F400
G1 X319.000 Y337.000 F800
G0 Z5.000
G0 X319.000 Y339.400 Z5.000
G1 Z-10.000 F400
G1 X1.000 Y339.400 F800
G0 Z5.000
G0 X1.000 Y341.800 Z5.000
G1 Z-10.000 F400
G1 X319.000 Y341.800 F800
G0 Z5.000
G0 X319.000 Y344.200 Z5.000
G1 Z-10.000 F400
G1 X1.000 Y344.200 F800
G0 Z5.000
G0 X1.000 Y346.600 Z5.000
G1 Z-10.000 F400
G1 X319.000 Y346.600 F800
G0 Z5.000
G0 X319.000 Y349.000 Z5.000
G1 Z-10.000 F400
G1 X1.000 Y349.000 F800
G0 Z5.000
G0 X1.000 Y351.400 Z5.000
G1 Z-10.000 F400
G1 X319.000 Y351.400 F800
G0 Z5.000
G0 X319.000 Y353.800 Z5.000
G1 Z-10.000 F400
G1 X1.000 Y353.800 F800
G0 Z5.000
G0 X1.000 Y356.200 Z5.000
G1 Z-10.000 F400
G1 X319.000 Y356.200 F800
G0 Z5.000
G0 X319.000 Y358.600 Z5.000
G1 Z-10.000 F400
G1 X1.000 Y358.600 F800
G0 Z5.000
G0 X1.000 Y361.000 Z5.000
G1 Z-10.000 F400
G1 X319.000 Y361.000 F800
G0 Z5.000
G0 X319.000 Y363.400 Z5.000
G1 Z-10.000 F400
G1 X1.000 Y363.400 F800
G0 Z5.000
G0 X1.000 Y365.800 Z5.000
G1 Z-10.000 F400
G1 X319.000 Y365.800 F800
G0 Z5.000
G0 X319.000 Y368.200 Z5.000
G1 Z-10.000 F400
G1 X1.000 Y368.200 F800
G0 Z5.000
G0 X1.000 Y370.600 Z5.000
G1 Z-10.000 F400
G1 X319.000 Y370.600 F800
G0 Z5.000
G0 X319.000 Y373.000 Z5.000
G1 Z-10.000 F400
G1 X1.000 Y373.000 F800
G0 Z5.000
G0 X1.000 Y375.400 Z5.000
G1 Z-10.000 F400
G1 X319.000 Y375.400 F800
G0 Z5.000
G0 X319.000 Y377.800 Z5.000
G1 Z-10.000 F400
G1 X1.000 Y377.800 F800
G0 Z5.000
G0 X1.000 Y380.200 Z5.000
G1 Z-10.000 F400
G1 X319.000 Y380.200 F800
G0 Z5.000
G0 X319.000 Y382.600 Z5.000
G1 Z-10.000 F400
G1 X1.000 Y382.600 F800
G0 Z5.000
G0 X0 Y0
M5
M30
