(Cloud CAM Generated for Job 5c66df31-6366-489a-963b-918c37bdcba9)
(Model: 30.0 x 80.0 x 36.0 mm)
(Params: step_down=2.0 spindle=4000 feed=800.0)
(Strategy: stock_aware_fallback)
G21 (metric)
G90 (absolute)
S4000 M3
G0 Z5.0
G0 X1.000 Y1.000 Z5.000
G1 Z1.000 F400
G1 X29.000 Y1.000 F800
G0 Z5.000
G0 X29.000 Y4.200 Z5.000
G1 Z1.000 F400
G1 X1.000 Y4.200 F800
G0 Z5.000
G0 X1.000 Y7.400 Z5.000
G1 Z1.000 F400
G1 X29.000 Y7.400 F800
G0 Z5.000
G0 X29.000 Y10.600 Z5.000
G1 Z1.000 F400
G1 X1.000 Y10.600 F800
G0 Z5.000
G0 X1.000 Y13.800 Z5.000
G1 Z1.000 F400
G1 X29.000 Y13.800 F800
G0 Z5.000
G0 X29.000 Y17.000 Z5.000
G1 Z1.000 F400
G1 X1.000 Y17.000 F800
G0 Z5.000
G0 X1.000 Y20.200 Z5.000
G1 Z1.000 F400
G1 X29.000 Y20.200 F800
G0 Z5.000
G0 X29.000 Y23.400 Z5.000
G1 Z1.000 F400
G1 X1.000 Y23.400 F800
G0 Z5.000
G0 X1.000 Y26.600 Z5.000
G1 Z1.000 F400
G1 X29.000 Y26.600 F800
G0 Z5.000
G0 X29.000 Y29.800 Z5.000
G1 Z1.000 F400
G1 X1.000 Y29.800 F800
G0 Z5.000
G0 X1.000 Y33.000 Z5.000
G1 Z1.000 F400
G1 X29.000 Y33.000 F800
G0 Z5.000
G0 X29.000 Y36.200 Z5.000
G1 Z1.000 F400
G1 X1.000 Y36.200 F800
G0 Z5.000
G0 X1.000 Y39.400 Z5.000
G1 Z1.000 F400
G1 X29.000 Y39.400 F800
G0 Z5.000
G0 X29.000 Y42.600 Z5.000
G1 Z1.000 F400
G1 X1.000 Y42.600 F800
G0 Z5.000
G0 X1.000 Y45.800 Z5.000
G1 Z1.000 F400
G1 X29.000 Y45.800 F800
G0 Z5.000
G0 X29.000 Y49.000 Z5.000
G1 Z1.000 F400
G1 X1.000 Y49.000 F800
G0 Z5.000
G0 X1.000 Y52.200 Z5.000
G1 Z1.000 F400
G1 X29.000 Y52.200 F800
G0 Z5.000
G0 X29.000 Y55.400 Z5.000
G1 Z1.000 F400
G1 X1.000 Y55.400 F800
G0 Z5.000
G0 X1.000 Y58.600 Z5.000
G1 Z1.000 F400
G1 X29.000 Y58.600 F800
G0 Z5.000
G0 X29.000 Y61.800 Z5.000
G1 Z1.000 F400
G1 X1.000 Y61.800 F800
G0 Z5.000
G0 X1.000 Y65.000 Z5.000
G1 Z1.000 F400
G1 X29.000 Y65.000 F800
G0 Z5.000
G0 X29.000 Y68.200 Z5.000
G1 Z1.000 F400
G1 X1.000 Y68.200 F800
G0 Z5.000
G0 X1.000 Y71.400 Z5.000
G1 Z1.000 F400
G1 X29.000 Y71.400 F800
G0 Z5.000
G0 X29.000 Y74.600 Z5.000
G1 Z1.000 F400
G1 X1.000 Y74.600 F800
G0 Z5.000
G0 X1.000 Y77.800 Z5.000
G1 Z1.000 F400
G1 X29.000 Y77.800 F800
G0 Z5.000
G0 X1.000 Y1.000 Z5.000
G1 Z-1.000 F400
G1 X23.000 Y1.000 F800
G0 Z5.000
G0 X23.000 Y4.200 Z5.000
G1 Z-1.000 F400
G1 X1.000 Y4.200 F800
G0 Z5.000
G0 X1.000 Y7.400 Z5.000
G1 Z-1.000 F400
G1 X23.000 Y7.400 F800
G0 Z5.000
G0 X23.000 Y10.600 Z5.000
G1 Z-1.000 F400
G1 X1.000 Y10.600 F800
G0 Z5.000
G0 X1.000 Y13.800 Z5.000
G1 Z-1.000 F400
G1 X23.000 Y13.800 F800
G0 Z5.000
G0 X23.000 Y17.000 Z5.000
G1 Z-1.000 F400
G1 X1.000 Y17.000 F800
G0 Z5.000
G0 X1.000 Y20.200 Z5.000
G1 Z-1.000 F400
G1 X23.000 Y20.200 F800
G0 Z5.000
G0 X23.000 Y23.400 Z5.000
G1 Z-1.000 F400
G1 X1.000 Y23.400 F800
G0 Z5.000
G0 X1.000 Y26.600 Z5.000
G1 Z-1.000 F400
G1 X23.000 Y26.600 F800
G0 Z5.000
G0 X23.000 Y29.800 Z5.000
G1 Z-1.000 F400
G1 X1.000 Y29.800 F800
G0 Z5.000
G0 X1.000 Y33.000 Z5.000
G1 Z-1.000 F400
G1 X23.000 Y33.000 F800
G0 Z5.000
G0 X23.000 Y36.200 Z5.000
G1 Z-1.000 F400
G1 X1.000 Y36.200 F800
G0 Z5.000
G0 X1.000 Y39.400 Z5.000
G1 Z-1.000 F400
G1 X23.000 Y39.400 F800
G0 Z5.000
G0 X23.000 Y42.600 Z5.000
G1 Z-1.000 F400
G1 X1.000 Y42.600 F800
G0 Z5.000
G0 X1.000 Y45.800 Z5.000
G1 Z-1.000 F400
G1 X23.000 Y45.800 F800
G0 Z5.000
G0 X23.000 Y49.000 Z5.000
G1 Z-1.000 F400
G1 X1.000 Y49.000 F800
G0 Z5.000
G0 X1.000 Y52.200 Z5.000
G1 Z-1.000 F400
G1 X23.000 Y52.200 F800
G0 Z5.000
G0 X23.000 Y55.400 Z5.000
G1 Z-1.000 F400
G1 X1.000 Y55.400 F800
G0 Z5.000
G0 X1.000 Y58.600 Z5.000
G1 Z-1.000 F400
G1 X23.000 Y58.600 F800
G0 Z5.000
G0 X23.000 Y61.800 Z5.000
G1 Z-1.000 F400
G1 X1.000 Y61.800 F800
G0 Z5.000
G0 X1.000 Y65.000 Z5.000
G1 Z-1.000 F400
G1 X23.000 Y65.000 F800
G0 Z5.000
G0 X23.000 Y68.200 Z5.000
G1 Z-1.000 F400
G1 X1.000 Y68.200 F800
G0 Z5.000
G0 X1.000 Y71.400 Z5.000
G1 Z-1.000 F400
G1 X23.000 Y71.400 F800
G0 Z5.000
G0 X1.000 Y1.000 Z5.000
G1 Z-3.000 F400
G1 X23.000 Y1.000 F800
G0 Z5.000
G0 X23.000 Y4.200 Z5.000
G1 Z-3.000 F400
G1 X1.000 Y4.200 F800
G0 Z5.000
G0 X1.000 Y7.400 Z5.000
G1 Z-3.000 F400
G1 X23.000 Y7.400 F800
G0 Z5.000
G0 X23.000 Y10.600 Z5.000
G1 Z-3.000 F400
G1 X1.000 Y10.600 F800
G0 Z5.000
G0 X1.000 Y13.800 Z5.000
G1 Z-3.000 F400
G1 X23.000 Y13.800 F800
G0 Z5.000
G0 X23.000 Y17.000 Z5.000
G1 Z-3.000 F400
G1 X1.000 Y17.000 F800
G0 Z5.000
G0 X1.000 Y20.200 Z5.000
G1 Z-3.000 F400
G1 X23.000 Y20.200 F800
G0 Z5.000
G0 X23.000 Y23.400 Z5.000
G1 Z-3.000 F400
G1 X1.000 Y23.400 F800
G0 Z5.000
G0 X1.000 Y26.600 Z5.000
G1 Z-3.000 F400
G1 X23.000 Y26.600 F800
G0 Z5.000
G0 X23.000 Y29.800 Z5.000
G1 Z-3.000 F400
G1 X1.000 Y29.800 F800
G0 Z5.000
G0 X1.000 Y33.000 Z5.000
G1 Z-3.000 F400
G1 X23.000 Y33.000 F800
G0 Z5.000
G0 X23.000 Y36.200 Z5.000
G1 Z-3.000 F400
G1 X1.000 Y36.200 F800
G0 Z5.000
G0 X1.000 Y39.400 Z5.000
G1 Z-3.000 F400
G1 X23.000 Y39.400 F800
G0 Z5.000
G0 X23.000 Y42.600 Z5.000
G1 Z-3.000 F400
G1 X1.000 Y42.600 F800
G0 Z5.000
G0 X1.000 Y45.800 Z5.000
G1 Z-3.000 F400
G1 X23.000 Y45.800 F800
G0 Z5.000
G0 X23.000 Y49.000 Z5.000
G1 Z-3.000 F400
G1 X1.000 Y49.000 F800
G0 Z5.000
G0 X1.000 Y52.200 Z5.000
G1 Z-3.000 F400
G1 X23.000 Y52.200 F800
G0 Z5.000
G0 X23.000 Y55.400 Z5.000
G1 Z-3.000 F400
G1 X1.000 Y55.400 F800
G0 Z5.000
G0 X1.000 Y58.600 Z5.000
G1 Z-3.000 F400
G1 X23.000 Y58.600 F800
G0 Z5.000
G0 X23.000 Y61.800 Z5.000
G1 Z-3.000 F400
G1 X1.000 Y61.800 F800
G0 Z5.000
G0 X1.000 Y65.000 Z5.000
G1 Z-3.000 F400
G1 X23.000 Y65.000 F800
G0 Z5.000
G0 X23.000 Y68.200 Z5.000
G1 Z-3.000 F400
G1 X1.000 Y68.200 F800
G0 Z5.000
G0 X1.000 Y71.400 Z5.000
G1 Z-3.000 F400
G1 X23.000 Y71.400 F800
G0 Z5.000
G0 X1.000 Y1.000 Z5.000
G1 Z-5.000 F400
G1 X23.000 Y1.000 F800
G0 Z5.000
G0 X23.000 Y4.200 Z5.000
G1 Z-5.000 F400
G1 X1.000 Y4.200 F800
G0 Z5.000
G0 X1.000 Y7.400 Z5.000
G1 Z-5.000 F400
G1 X23.000 Y7.400 F800
G0 Z5.000
G0 X23.000 Y10.600 Z5.000
G1 Z-5.000 F400
G1 X1.000 Y10.600 F800
G0 Z5.000
G0 X1.000 Y13.800 Z5.000
G1 Z-5.000 F400
G1 X23.000 Y13.800 F800
G0 Z5.000
G0 X23.000 Y17.000 Z5.000
G1 Z-5.000 F400
G1 X1.000 Y17.000 F800
G0 Z5.000
G0 X1.000 Y20.200 Z5.000
G1 Z-5.000 F400
G1 X23.000 Y20.200 F800
G0 Z5.000
G0 X23.000 Y23.400 Z5.000
G1 Z-5.000 F400
G1 X1.000 Y23.400 F800
G0 Z5.000
G0 X1.000 Y26.600 Z5.000
G1 Z-5.000 F400
G1 X23.000 Y26.600 F800
G0 Z5.000
G0 X23.000 Y29.800 Z5.000
G1 Z-5.000 F400
G1 X1.000 Y29.800 F800
G0 Z5.000
G0 X1.000 Y33.000 Z5.000
G1 Z-5.000 F400
G1 X23.000 Y33.000 F800
G0 Z5.000
G0 X23.000 Y36.200 Z5.000
G1 Z-5.000 F400
G1 X1.000 Y36.200 F800
G0 Z5.000
G0 X1.000 Y39.400 Z5.000
G1 Z-5.000 F400
G1 X23.000 Y39.400 F800
G0 Z5.000
G0 X23.000 Y42.600 Z5.000
G1 Z-5.000 F400
G1 X1.000 Y42.600 F800
G0 Z5.000
G0 X1.000 Y45.800 Z5.000
G1 Z-5.000 F400
G1 X23.000 Y45.800 F800
G0 Z5.000
G0 X23.000 Y49.000 Z5.000
G1 Z-5.000 F400
G1 X1.000 Y49.000 F800
G0 Z5.000
G0 X1.000 Y52.200 Z5.000
G1 Z-5.000 F400
G1 X23.000 Y52.200 F800
G0 Z5.000
G0 X23.000 Y55.400 Z5.000
G1 Z-5.000 F400
G1 X1.000 Y55.400 F800
G0 Z5.000
G0 X1.000 Y58.600 Z5.000
G1 Z-5.000 F400
G1 X23.000 Y58.600 F800
G0 Z5.000
G0 X23.000 Y61.800 Z5.000
G1 Z-5.000 F400
G1 X1.000 Y61.800 F800
G0 Z5.000
G0 X1.000 Y65.000 Z5.000
G1 Z-5.000 F400
G1 X23.000 Y65.000 F800
G0 Z5.000
G0 X23.000 Y68.200 Z5.000
G1 Z-5.000 F400
G1 X1.000 Y68.200 F800
G0 Z5.000
G0 X1.000 Y71.400 Z5.000
G1 Z-5.000 F400
G1 X23.000 Y71.400 F800
G0 Z5.000
G0 X1.000 Y1.000 Z5.000
G1 Z-7.000 F400
G1 X23.000 Y1.000 F800
G0 Z5.000
G0 X23.000 Y4.200 Z5.000
G1 Z-7.000 F400
G1 X1.000 Y4.200 F800
G0 Z5.000
G0 X1.000 Y7.400 Z5.000
G1 Z-7.000 F400
G1 X23.000 Y7.400 F800
G0 Z5.000
G0 X23.000 Y10.600 Z5.000
G1 Z-7.000 F400
G1 X1.000 Y10.600 F800
G0 Z5.000
G0 X1.000 Y13.800 Z5.000
G1 Z-7.000 F400
G1 X23.000 Y13.800 F800
G0 Z5.000
G0 X23.000 Y17.000 Z5.000
G1 Z-7.000 F400
G1 X1.000 Y17.000 F800
G0 Z5.000
G0 X1.000 Y20.200 Z5.000
G1 Z-7.000 F400
G1 X23.000 Y20.200 F800
G0 Z5.000
G0 X23.000 Y23.400 Z5.000
G1 Z-7.000 F400
G1 X1.000 Y23.400 F800
G0 Z5.000
G0 X1.000 Y26.600 Z5.000
G1 Z-7.000 F400
G1 X23.000 Y26.600 F800
G0 Z5.000
G0 X23.000 Y29.800 Z5.000
G1 Z-7.000 F400
G1 X1.000 Y29.800 F800
G0 Z5.000
G0 X1.000 Y33.000 Z5.000
G1 Z-7.000 F400
G1 X23.000 Y33.000 F800
G0 Z5.000
G0 X23.000 Y36.200 Z5.000
G1 Z-7.000 F400
G1 X1.000 Y36.200 F800
G0 Z5.000
G0 X1.000 Y39.400 Z5.000
G1 Z-7.000 F400
G1 X23.000 Y39.400 F800
G0 Z5.000
G0 X23.000 Y42.600 Z5.000
G1 Z-7.000 F400
G1 X1.000 Y42.600 F800
G0 Z5.000
G0 X1.000 Y45.800 Z5.000
G1 Z-7.000 F400
G1 X23.000 Y45.800 F800
G0 Z5.000
G0 X23.000 Y49.000 Z5.000
G1 Z-7.000 F400
G1 X1.000 Y49.000 F800
G0 Z5.000
G0 X1.000 Y52.200 Z5.000
G1 Z-7.000 F400
G1 X23.000 Y52.200 F800
G0 Z5.000
G0 X23.000 Y55.400 Z5.000
G1 Z-7.000 F400
G1 X1.000 Y55.400 F800
G0 Z5.000
G0 X1.000 Y58.600 Z5.000
G1 Z-7.000 F400
G1 X23.000 Y58.600 F800
G0 Z5.000
G0 X23.000 Y61.800 Z5.000
G1 Z-7.000 F400
G1 X1.000 Y61.800 F800
G0 Z5.000
G0 X1.000 Y65.000 Z5.000
G1 Z-7.000 F400
G1 X23.000 Y65.000 F800
G0 Z5.000
G0 X23.000 Y68.200 Z5.000
G1 Z-7.000 F400
G1 X1.000 Y68.200 F800
G0 Z5.000
G0 X1.000 Y71.400 Z5.000
G1 Z-7.000 F400
G1 X23.000 Y71.400 F800
G0 Z5.000
G0 X1.000 Y1.000 Z5.000
G1 Z-9.000 F400
G1 X23.000 Y1.000 F800
G0 Z5.000
G0 X23.000 Y4.200 Z5.000
G1 Z-9.000 F400
G1 X1.000 Y4.200 F800
G0 Z5.000
G0 X1.000 Y7.400 Z5.000
G1 Z-9.000 F400
G1 X23.000 Y7.400 F800
G0 Z5.000
G0 X23.000 Y10.600 Z5.000
G1 Z-9.000 F400
G1 X1.000 Y10.600 F800
G0 Z5.000
G0 X1.000 Y13.800 Z5.000
G1 Z-9.000 F400
G1 X23.043 Y13.800 F800
G0 Z5.000
G0 X23.000 Y17.000 Z5.000
G1 Z-9.000 F400
G1 X1.000 Y17.000 F800
G0 Z5.000
G0 X1.000 Y20.200 Z5.000
G1 Z-9.000 F400
G1 X23.000 Y20.200 F800
G0 Z5.000
G0 X23.000 Y23.400 Z5.000
G1 Z-9.000 F400
G1 X1.000 Y23.400 F800
G0 Z5.000
G0 X1.000 Y26.600 Z5.000
G1 Z-9.000 F400
G1 X23.000 Y26.600 F800
G0 Z5.000
G0 X23.000 Y29.800 Z5.000
G1 Z-9.000 F400
G1 X1.000 Y29.800 F800
G0 Z5.000
G0 X1.000 Y33.000 Z5.000
G1 Z-9.000 F400
G1 X23.000 Y33.000 F800
G0 Z5.000
G0 X23.000 Y36.200 Z5.000
G1 Z-9.000 F400
G1 X1.000 Y36.200 F800
G0 Z5.000
G0 X1.000 Y39.400 Z5.000
G1 Z-9.000 F400
G1 X23.000 Y39.400 F800
G0 Z5.000
G0 X23.000 Y42.600 Z5.000
G1 Z-9.000 F400
G1 X1.000 Y42.600 F800
G0 Z5.000
G0 X1.000 Y45.800 Z5.000
G1 Z-9.000 F400
G1 X23.000 Y45.800 F800
G0 Z5.000
G0 X23.000 Y49.000 Z5.000
G1 Z-9.000 F400
G1 X1.000 Y49.000 F800
G0 Z5.000
G0 X1.000 Y52.200 Z5.000
G1 Z-9.000 F400
G1 X23.000 Y52.200 F800
G0 Z5.000
G0 X23.000 Y55.400 Z5.000
G1 Z-9.000 F400
G1 X1.000 Y55.400 F800
G0 Z5.000
G0 X1.000 Y58.600 Z5.000
G1 Z-9.000 F400
G1 X23.000 Y58.600 F800
G0 Z5.000
G0 X23.000 Y61.800 Z5.000
G1 Z-9.000 F400
G1 X1.000 Y61.800 F800
G0 Z5.000
G0 X1.000 Y65.000 Z5.000
G1 Z-9.000 F400
G1 X23.000 Y65.000 F800
G0 Z5.000
G0 X23.000 Y68.200 Z5.000
G1 Z-9.000 F400
G1 X1.000 Y68.200 F800
G0 Z5.000
G0 X1.000 Y71.400 Z5.000
G1 Z-9.000 F400
G1 X23.000 Y71.400 F800
G0 Z5.000
G0 X1.000 Y1.000 Z5.000
G1 Z-11.000 F400
G1 X23.000 Y1.000 F800
G0 Z5.000
G0 X23.000 Y4.200 Z5.000
G1 Z-11.000 F400
G1 X1.000 Y4.200 F800
G0 Z5.000
G0 X1.000 Y7.400 Z5.000
G1 Z-11.000 F400
G1 X23.000 Y7.400 F800
G0 Z5.000
G0 X23.000 Y10.600 Z5.000
G1 Z-11.000 F400
G1 X1.000 Y10.600 F800
G0 Z5.000
G0 X1.000 Y13.800 Z5.000
G1 Z-11.000 F400
G1 X23.043 Y13.800 F800
G0 Z5.000
G0 X23.000 Y17.000 Z5.000
G1 Z-11.000 F400
G1 X1.000 Y17.000 F800
G0 Z5.000
G0 X1.000 Y20.200 Z5.000
G1 Z-11.000 F400
G1 X23.000 Y20.200 F800
G0 Z5.000
G0 X23.000 Y23.400 Z5.000
G1 Z-11.000 F400
G1 X1.000 Y23.400 F800
G0 Z5.000
G0 X1.000 Y26.600 Z5.000
G1 Z-11.000 F400
G1 X23.000 Y26.600 F800
G0 Z5.000
G0 X23.000 Y29.800 Z5.000
G1 Z-11.000 F400
G1 X1.000 Y29.800 F800
G0 Z5.000
G0 X1.000 Y33.000 Z5.000
G1 Z-11.000 F400
G1 X23.000 Y33.000 F800
G0 Z5.000
G0 X23.000 Y36.200 Z5.000
G1 Z-11.000 F400
G1 X1.000 Y36.200 F800
G0 Z5.000
G0 X1.000 Y39.400 Z5.000
G1 Z-11.000 F400
G1 X23.000 Y39.400 F800
G0 Z5.000
G0 X23.000 Y42.600 Z5.000
G1 Z-11.000 F400
G1 X1.000 Y42.600 F800
G0 Z5.000
G0 X1.000 Y45.800 Z5.000
G1 Z-11.000 F400
G1 X23.000 Y45.800 F800
G0 Z5.000
G0 X23.000 Y49.000 Z5.000
G1 Z-11.000 F400
G1 X1.000 Y49.000 F800
G0 Z5.000
G0 X1.000 Y52.200 Z5.000
G1 Z-11.000 F400
G1 X23.000 Y52.200 F800
G0 Z5.000
G0 X23.000 Y55.400 Z5.000
G1 Z-11.000 F400
G1 X1.000 Y55.400 F800
G0 Z5.000
G0 X1.000 Y58.600 Z5.000
G1 Z-11.000 F400
G1 X23.000 Y58.600 F800
G0 Z5.000
G0 X23.000 Y61.800 Z5.000
G1 Z-11.000 F400
G1 X1.000 Y61.800 F800
G0 Z5.000
G0 X1.000 Y65.000 Z5.000
G1 Z-11.000 F400
G1 X23.000 Y65.000 F800
G0 Z5.000
G0 X23.000 Y68.200 Z5.000
G1 Z-11.000 F400
G1 X1.000 Y68.200 F800
G0 Z5.000
G0 X1.000 Y71.400 Z5.000
G1 Z-11.000 F400
G1 X23.000 Y71.400 F800
G0 Z5.000
G0 X1.000 Y1.000 Z5.000
G1 Z-13.000 F400
G1 X23.000 Y1.000 F800
G0 Z5.000
G0 X23.000 Y4.200 Z5.000
G1 Z-13.000 F400
G1 X1.000 Y4.200 F800
G0 Z5.000
G0 X1.000 Y7.400 Z5.000
G1 Z-13.000 F400
G1 X23.000 Y7.400 F800
G0 Z5.000
G0 X23.000 Y10.600 Z5.000
G1 Z-13.000 F400
G1 X1.000 Y10.600 F800
G0 Z5.000
G0 X1.000 Y13.800 Z5.000
G1 Z-13.000 F400
G1 X23.000 Y13.800 F800
G0 Z5.000
G0 X23.000 Y17.000 Z5.000
G1 Z-13.000 F400
G1 X1.000 Y17.000 F800
G0 Z5.000
G0 X1.000 Y20.200 Z5.000
G1 Z-13.000 F400
G1 X23.000 Y20.200 F800
G0 Z5.000
G0 X23.000 Y23.400 Z5.000
G1 Z-13.000 F400
G1 X1.000 Y23.400 F800
G0 Z5.000
G0 X1.000 Y26.600 Z5.000
G1 Z-13.000 F400
G1 X23.000 Y26.600 F800
G0 Z5.000
G0 X23.000 Y29.800 Z5.000
G1 Z-13.000 F400
G1 X1.000 Y29.800 F800
G0 Z5.000
G0 X1.000 Y33.000 Z5.000
G1 Z-13.000 F400
G1 X23.000 Y33.000 F800
G0 Z5.000
G0 X23.000 Y36.200 Z5.000
G1 Z-13.000 F400
G1 X1.000 Y36.200 F800
G0 Z5.000
G0 X1.000 Y39.400 Z5.000
G1 Z-13.000 F400
G1 X23.000 Y39.400 F800
G0 Z5.000
G0 X23.000 Y42.600 Z5.000
G1 Z-13.000 F400
G1 X1.000 Y42.600 F800
G0 Z5.000
G0 X1.000 Y45.800 Z5.000
G1 Z-13.000 F400
G1 X23.000 Y45.800 F800
G0 Z5.000
G0 X23.000 Y49.000 Z5.000
G1 Z-13.000 F400
G1 X1.000 Y49.000 F800
G0 Z5.000
G0 X1.000 Y52.200 Z5.000
G1 Z-13.000 F400
G1 X23.000 Y52.200 F800
G0 Z5.000
G0 X23.000 Y55.400 Z5.000
G1 Z-13.000 F400
G1 X1.000 Y55.400 F800
G0 Z5.000
G0 X1.000 Y58.600 Z5.000
G1 Z-13.000 F400
G1 X23.000 Y58.600 F800
G0 Z5.000
G0 X23.000 Y61.800 Z5.000
G1 Z-13.000 F400
G1 X1.000 Y61.800 F800
G0 Z5.000
G0 X1.000 Y65.000 Z5.000
G1 Z-13.000 F400
G1 X23.000 Y65.000 F800
G0 Z5.000
G0 X23.000 Y68.200 Z5.000
G1 Z-13.000 F400
G1 X1.000 Y68.200 F800
G0 Z5.000
G0 X1.000 Y71.400 Z5.000
G1 Z-13.000 F400
G1 X23.000 Y71.400 F800
G0 Z5.000
G0 X1.000 Y1.000 Z5.000
G1 Z-15.000 F400
G1 X23.000 Y1.000 F800
G0 Z5.000
G0 X23.000 Y4.200 Z5.000
G1 Z-15.000 F400
G1 X1.000 Y4.200 F800
G0 Z5.000
G0 X1.000 Y7.400 Z5.000
G1 Z-15.000 F400
G1 X23.000 Y7.400 F800
G0 Z5.000
G0 X23.000 Y10.600 Z5.000
G1 Z-15.000 F400
G1 X1.000 Y10.600 F800
G0 Z5.000
G0 X1.000 Y13.800 Z5.000
G1 Z-15.000 F400
G1 X23.000 Y13.800 F800
G0 Z5.000
G0 X23.000 Y17.000 Z5.000
G1 Z-15.000 F400
G1 X1.000 Y17.000 F800
G0 Z5.000
G0 X1.000 Y20.200 Z5.000
G1 Z-15.000 F400
G1 X23.000 Y20.200 F800
G0 Z5.000
G0 X23.000 Y23.400 Z5.000
G1 Z-15.000 F400
G1 X1.000 Y23.400 F800
G0 Z5.000
G0 X1.000 Y26.600 Z5.000
G1 Z-15.000 F400
G1 X23.000 Y26.600 F800
G0 Z5.000
G0 X23.000 Y29.800 Z5.000
G1 Z-15.000 F400
G1 X1.000 Y29.800 F800
G0 Z5.000
G0 X1.000 Y33.000 Z5.000
G1 Z-15.000 F400
G1 X23.000 Y33.000 F800
G0 Z5.000
G0 X23.000 Y36.200 Z5.000
G1 Z-15.000 F400
G1 X1.000 Y36.200 F800
G0 Z5.000
G0 X1.000 Y39.400 Z5.000
G1 Z-15.000 F400
G1 X23.000 Y39.400 F800
G0 Z5.000
G0 X23.000 Y42.600 Z5.000
G1 Z-15.000 F400
G1 X1.000 Y42.600 F800
G0 Z5.000
G0 X1.000 Y45.800 Z5.000
G1 Z-15.000 F400
G1 X23.000 Y45.800 F800
G0 Z5.000
G0 X23.000 Y49.000 Z5.000
G1 Z-15.000 F400
G1 X1.000 Y49.000 F800
G0 Z5.000
G0 X1.000 Y52.200 Z5.000
G1 Z-15.000 F400
G1 X23.000 Y52.200 F800
G0 Z5.000
G0 X23.000 Y55.400 Z5.000
G1 Z-15.000 F400
G1 X1.000 Y55.400 F800
G0 Z5.000
G0 X1.000 Y58.600 Z5.000
G1 Z-15.000 F400
G1 X23.000 Y58.600 F800
G0 Z5.000
G0 X23.000 Y61.800 Z5.000
G1 Z-15.000 F400
G1 X1.000 Y61.800 F800
G0 Z5.000
G0 X1.000 Y65.000 Z5.000
G1 Z-15.000 F400
G1 X23.000 Y65.000 F800
G0 Z5.000
G0 X23.000 Y68.200 Z5.000
G1 Z-15.000 F400
G1 X1.000 Y68.200 F800
G0 Z5.000
G0 X1.000 Y71.400 Z5.000
G1 Z-15.000 F400
G1 X23.000 Y71.400 F800
G0 Z5.000
G0 X1.000 Y1.000 Z5.000
G1 Z-17.000 F400
G1 X23.000 Y1.000 F800
G0 Z5.000
G0 X23.000 Y4.200 Z5.000
G1 Z-17.000 F400
G1 X1.000 Y4.200 F800
G0 Z5.000
G0 X1.000 Y7.400 Z5.000
G1 Z-17.000 F400
G1 X23.000 Y7.400 F800
G0 Z5.000
G0 X23.000 Y10.600 Z5.000
G1 Z-17.000 F400
G1 X1.000 Y10.600 F800
G0 Z5.000
G0 X1.000 Y13.800 Z5.000
G1 Z-17.000 F400
G1 X23.000 Y13.800 F800
G0 Z5.000
G0 X23.000 Y17.000 Z5.000
G1 Z-17.000 F400
G1 X1.000 Y17.000 F800
G0 Z5.000
G0 X1.000 Y20.200 Z5.000
G1 Z-17.000 F400
G1 X23.000 Y20.200 F800
G0 Z5.000
G0 X23.000 Y23.400 Z5.000
G1 Z-17.000 F400
G1 X1.000 Y23.400 F800
G0 Z5.000
G0 X1.000 Y26.600 Z5.000
G1 Z-17.000 F400
G1 X23.000 Y26.600 F800
G0 Z5.000
G0 X23.000 Y29.800 Z5.000
G1 Z-17.000 F400
G1 X1.000 Y29.800 F800
G0 Z5.000
G0 X1.000 Y33.000 Z5.000
G1 Z-17.000 F400
G1 X23.000 Y33.000 F800
G0 Z5.000
G0 X23.000 Y36.200 Z5.000
G1 Z-17.000 F400
G1 X1.000 Y36.200 F800
G0 Z5.000
G0 X1.000 Y39.400 Z5.000
G1 Z-17.000 F400
G1 X23.000 Y39.400 F800
G0 Z5.000
G0 X23.000 Y42.600 Z5.000
G1 Z-17.000 F400
G1 X1.000 Y42.600 F800
G0 Z5.000
G0 X1.000 Y45.800 Z5.000
G1 Z-17.000 F400
G1 X23.000 Y45.800 F800
G0 Z5.000
G0 X23.000 Y49.000 Z5.000
G1 Z-17.000 F400
G1 X1.000 Y49.000 F800
G0 Z5.000
G0 X1.000 Y52.200 Z5.000
G1 Z-17.000 F400
G1 X23.100 Y52.200 F800
G0 Z5.000
G0 X23.000 Y55.400 Z5.000
G1 Z-17.000 F400
G1 X1.000 Y55.400 F800
G0 Z5.000
G0 X1.000 Y58.600 Z5.000
G1 Z-17.000 F400
G1 X23.000 Y58.600 F800
G0 Z5.000
G0 X23.000 Y61.800 Z5.000
G1 Z-17.000 F400
G1 X1.000 Y61.800 F800
G0 Z5.000
G0 X1.000 Y65.000 Z5.000
G1 Z-17.000 F400
G1 X23.000 Y65.000 F800
G0 Z5.000
G0 X23.000 Y68.200 Z5.000
G1 Z-17.000 F400
G1 X1.000 Y68.200 F800
G0 Z5.000
G0 X1.000 Y71.400 Z5.000
G1 Z-17.000 F400
G1 X23.000 Y71.400 F800
G0 Z5.000
G0 X1.000 Y1.000 Z5.000
G1 Z-19.000 F400
G1 X23.000 Y1.000 F800
G0 Z5.000
G0 X23.000 Y4.200 Z5.000
G1 Z-19.000 F400
G1 X1.000 Y4.200 F800
G0 Z5.000
G0 X1.000 Y7.400 Z5.000
G1 Z-19.000 F400
G1 X23.000 Y7.400 F800
G0 Z5.000
G0 X23.000 Y10.600 Z5.000
G1 Z-19.000 F400
G1 X1.000 Y10.600 F800
G0 Z5.000
G0 X1.000 Y13.800 Z5.000
G1 Z-19.000 F400
G1 X23.000 Y13.800 F800
G0 Z5.000
G0 X23.000 Y17.000 Z5.000
G1 Z-19.000 F400
G1 X1.000 Y17.000 F800
G0 Z5.000
G0 X1.000 Y20.200 Z5.000
G1 Z-19.000 F400
G1 X23.000 Y20.200 F800
G0 Z5.000
G0 X23.000 Y23.400 Z5.000
G1 Z-19.000 F400
G1 X1.000 Y23.400 F800
G0 Z5.000
G0 X1.000 Y26.600 Z5.000
G1 Z-19.000 F400
G1 X23.000 Y26.600 F800
G0 Z5.000
G0 X23.000 Y29.800 Z5.000
G1 Z-19.000 F400
G1 X1.000 Y29.800 F800
G0 Z5.000
G0 X1.000 Y33.000 Z5.000
G1 Z-19.000 F400
G1 X23.000 Y33.000 F800
G0 Z5.000
G0 X23.000 Y36.200 Z5.000
G1 Z-19.000 F400
G1 X1.000 Y36.200 F800
G0 Z5.000
G0 X1.000 Y39.400 Z5.000
G1 Z-19.000 F400
G1 X23.000 Y39.400 F800
G0 Z5.000
G0 X23.000 Y42.600 Z5.000
G1 Z-19.000 F400
G1 X1.000 Y42.600 F800
G0 Z5.000
G0 X1.000 Y45.800 Z5.000
G1 Z-19.000 F400
G1 X23.000 Y45.800 F800
G0 Z5.000
G0 X23.000 Y49.000 Z5.000
G1 Z-19.000 F400
G1 X1.000 Y49.000 F800
G0 Z5.000
G0 X1.000 Y52.200 Z5.000
G1 Z-19.000 F400
G1 X23.100 Y52.200 F800
G0 Z5.000
G0 X23.000 Y55.400 Z5.000
G1 Z-19.000 F400
G1 X1.000 Y55.400 F800
G0 Z5.000
G0 X1.000 Y58.600 Z5.000
G1 Z-19.000 F400
G1 X23.000 Y58.600 F800
G0 Z5.000
G0 X23.000 Y61.800 Z5.000
G1 Z-19.000 F400
G1 X1.000 Y61.800 F800
G0 Z5.000
G0 X1.000 Y65.000 Z5.000
G1 Z-19.000 F400
G1 X23.000 Y65.000 F800
G0 Z5.000
G0 X23.000 Y68.200 Z5.000
G1 Z-19.000 F400
G1 X1.000 Y68.200 F800
G0 Z5.000
G0 X1.000 Y71.400 Z5.000
G1 Z-19.000 F400
G1 X23.000 Y71.400 F800
G0 Z5.000
G0 X1.000 Y1.000 Z5.000
G1 Z-21.000 F400
G1 X23.000 Y1.000 F800
G0 Z5.000
G0 X23.000 Y4.200 Z5.000
G1 Z-21.000 F400
G1 X1.000 Y4.200 F800
G0 Z5.000
G0 X1.000 Y7.400 Z5.000
G1 Z-21.000 F400
G1 X23.000 Y7.400 F800
G0 Z5.000
G0 X23.000 Y10.600 Z5.000
G1 Z-21.000 F400
G1 X1.000 Y10.600 F800
G0 Z5.000
G0 X1.000 Y13.800 Z5.000
G1 Z-21.000 F400
G1 X23.000 Y13.800 F800
G0 Z5.000
G0 X23.000 Y17.000 Z5.000
G1 Z-21.000 F400
G1 X1.000 Y17.000 F800
G0 Z5.000
G0 X1.000 Y20.200 Z5.000
G1 Z-21.000 F400
G1 X23.000 Y20.200 F800
G0 Z5.000
G0 X23.000 Y23.400 Z5.000
G1 Z-21.000 F400
G1 X1.000 Y23.400 F800
G0 Z5.000
G0 X1.000 Y26.600 Z5.000
G1 Z-21.000 F400
G1 X23.000 Y26.600 F800
G0 Z5.000
G0 X23.000 Y29.800 Z5.000
G1 Z-21.000 F400
G1 X1.000 Y29.800 F800
G0 Z5.000
G0 X1.000 Y33.000 Z5.000
G1 Z-21.000 F400
G1 X23.000 Y33.000 F800
G0 Z5.000
G0 X23.000 Y36.200 Z5.000
G1 Z-21.000 F400
G1 X1.000 Y36.200 F800
G0 Z5.000
G0 X1.000 Y39.400 Z5.000
G1 Z-21.000 F400
G1 X23.000 Y39.400 F800
G0 Z5.000
G0 X23.000 Y42.600 Z5.000
G1 Z-21.000 F400
G1 X1.000 Y42.600 F800
G0 Z5.000
G0 X1.000 Y45.800 Z5.000
G1 Z-21.000 F400
G1 X23.000 Y45.800 F800
G0 Z5.000
G0 X23.000 Y49.000 Z5.000
G1 Z-21.000 F400
G1 X1.000 Y49.000 F800
G0 Z5.000
G0 X1.000 Y52.200 Z5.000
G1 Z-21.000 F400
G1 X23.000 Y52.200 F800
G0 Z5.000
G0 X23.000 Y55.400 Z5.000
G1 Z-21.000 F400
G1 X1.000 Y55.400 F800
G0 Z5.000
G0 X1.000 Y58.600 Z5.000
G1 Z-21.000 F400
G1 X23.000 Y58.600 F800
G0 Z5.000
G0 X23.000 Y61.800 Z5.000
G1 Z-21.000 F400
G1 X1.000 Y61.800 F800
G0 Z5.000
G0 X1.000 Y65.000 Z5.000
G1 Z-21.000 F400
G1 X23.000 Y65.000 F800
G0 Z5.000
G0 X23.000 Y68.200 Z5.000
G1 Z-21.000 F400
G1 X1.000 Y68.200 F800
G0 Z5.000
G0 X1.000 Y71.400 Z5.000
G1 Z-21.000 F400
G1 X23.000 Y71.400 F800
G0 Z5.000
G0 X1.000 Y1.000 Z5.000
G1 Z-23.000 F400
G1 X23.000 Y1.000 F800
G0 Z5.000
G0 X23.000 Y4.200 Z5.000
G1 Z-23.000 F400
G1 X1.000 Y4.200 F800
G0 Z5.000
G0 X1.000 Y7.400 Z5.000
G1 Z-23.000 F400
G1 X23.000 Y7.400 F800
G0 Z5.000
G0 X23.000 Y10.600 Z5.000
G1 Z-23.000 F400
G1 X1.000 Y10.600 F800
G0 Z5.000
G0 X1.000 Y13.800 Z5.000
G1 Z-23.000 F400
G1 X23.000 Y13.800 F800
G0 Z5.000
G0 X23.000 Y17.000 Z5.000
G1 Z-23.000 F400
G1 X1.000 Y17.000 F800
G0 Z5.000
G0 X1.000 Y20.200 Z5.000
G1 Z-23.000 F400
G1 X23.000 Y20.200 F800
G0 Z5.000
G0 X23.000 Y23.400 Z5.000
G1 Z-23.000 F400
G1 X1.000 Y23.400 F800
G0 Z5.000
G0 X1.000 Y26.600 Z5.000
G1 Z-23.000 F400
G1 X23.000 Y26.600 F800
G0 Z5.000
G0 X23.000 Y29.800 Z5.000
G1 Z-23.000 F400
G1 X1.000 Y29.800 F800
G0 Z5.000
G0 X1.000 Y33.000 Z5.000
G1 Z-23.000 F400
G1 X23.000 Y33.000 F800
G0 Z5.000
G0 X23.000 Y36.200 Z5.000
G1 Z-23.000 F400
G1 X1.000 Y36.200 F800
G0 Z5.000
G0 X1.000 Y39.400 Z5.000
G1 Z-23.000 F400
G1 X23.000 Y39.400 F800
G0 Z5.000
G0 X23.000 Y42.600 Z5.000
G1 Z-23.000 F400
G1 X1.000 Y42.600 F800
G0 Z5.000
G0 X1.000 Y45.800 Z5.000
G1 Z-23.000 F400
G1 X23.000 Y45.800 F800
G0 Z5.000
G0 X23.000 Y49.000 Z5.000
G1 Z-23.000 F400
G1 X1.000 Y49.000 F800
G0 Z5.000
G0 X1.000 Y52.200 Z5.000
G1 Z-23.000 F400
G1 X23.000 Y52.200 F800
G0 Z5.000
G0 X23.000 Y55.400 Z5.000
G1 Z-23.000 F400
G1 X1.000 Y55.400 F800
G0 Z5.000
G0 X1.000 Y58.600 Z5.000
G1 Z-23.000 F400
G1 X23.000 Y58.600 F800
G0 Z5.000
G0 X23.000 Y61.800 Z5.000
G1 Z-23.000 F400
G1 X1.000 Y61.800 F800
G0 Z5.000
G0 X1.000 Y65.000 Z5.000
G1 Z-23.000 F400
G1 X23.000 Y65.000 F800
G0 Z5.000
G0 X23.000 Y68.200 Z5.000
G1 Z-23.000 F400
G1 X1.000 Y68.200 F800
G0 Z5.000
G0 X1.000 Y71.400 Z5.000
G1 Z-23.000 F400
G1 X23.000 Y71.400 F800
G0 Z5.000
G0 X1.000 Y1.000 Z5.000
G1 Z-25.000 F400
G1 X23.000 Y1.000 F800
G0 Z5.000
G0 X23.000 Y4.200 Z5.000
G1 Z-25.000 F400
G1 X1.000 Y4.200 F800
G0 Z5.000
G0 X1.000 Y7.400 Z5.000
G1 Z-25.000 F400
G1 X23.000 Y7.400 F800
G0 Z5.000
G0 X23.000 Y10.600 Z5.000
G1 Z-25.000 F400
G1 X1.000 Y10.600 F800
G0 Z5.000
G0 X1.000 Y13.800 Z5.000
G1 Z-25.000 F400
G1 X23.043 Y13.800 F800
G0 Z5.000
G0 X23.000 Y17.000 Z5.000
G1 Z-25.000 F400
G1 X1.000 Y17.000 F800
G0 Z5.000
G0 X1.000 Y20.200 Z5.000
G1 Z-25.000 F400
G1 X23.000 Y20.200 F800
G0 Z5.000
G0 X23.000 Y23.400 Z5.000
G1 Z-25.000 F400
G1 X1.000 Y23.400 F800
G0 Z5.000
G0 X1.000 Y26.600 Z5.000
G1 Z-25.000 F400
G1 X23.000 Y26.600 F800
G0 Z5.000
G0 X23.000 Y29.800 Z5.000
G1 Z-25.000 F400
G1 X1.000 Y29.800 F800
G0 Z5.000
G0 X1.000 Y33.000 Z5.000
G1 Z-25.000 F400
G1 X23.000 Y33.000 F800
G0 Z5.000
G0 X23.000 Y36.200 Z5.000
G1 Z-25.000 F400
G1 X1.000 Y36.200 F800
G0 Z5.000
G0 X1.000 Y39.400 Z5.000
G1 Z-25.000 F400
G1 X23.000 Y39.400 F800
G0 Z5.000
G0 X23.000 Y42.600 Z5.000
G1 Z-25.000 F400
G1 X1.000 Y42.600 F800
G0 Z5.000
G0 X1.000 Y45.800 Z5.000
G1 Z-25.000 F400
G1 X23.000 Y45.800 F800
G0 Z5.000
G0 X23.000 Y49.000 Z5.000
G1 Z-25.000 F400
G1 X1.000 Y49.000 F800
G0 Z5.000
G0 X1.000 Y52.200 Z5.000
G1 Z-25.000 F400
G1 X23.000 Y52.200 F800
G0 Z5.000
G0 X23.000 Y55.400 Z5.000
G1 Z-25.000 F400
G1 X1.000 Y55.400 F800
G0 Z5.000
G0 X1.000 Y58.600 Z5.000
G1 Z-25.000 F400
G1 X23.000 Y58.600 F800
G0 Z5.000
G0 X23.000 Y61.800 Z5.000
G1 Z-25.000 F400
G1 X1.000 Y61.800 F800
G0 Z5.000
G0 X1.000 Y65.000 Z5.000
G1 Z-25.000 F400
G1 X23.000 Y65.000 F800
G0 Z5.000
G0 X23.000 Y68.200 Z5.000
G1 Z-25.000 F400
G1 X1.000 Y68.200 F800
G0 Z5.000
G0 X1.000 Y71.400 Z5.000
G1 Z-25.000 F400
G1 X23.000 Y71.400 F800
G0 Z5.000
G0 X1.000 Y1.000 Z5.000
G1 Z-27.000 F400
G1 X23.000 Y1.000 F800
G0 Z5.000
G0 X23.000 Y4.200 Z5.000
G1 Z-27.000 F400
G1 X1.000 Y4.200 F800
G0 Z5.000
G0 X1.000 Y7.400 Z5.000
G1 Z-27.000 F400
G1 X23.000 Y7.400 F800
G0 Z5.000
G0 X23.000 Y10.600 Z5.000
G1 Z-27.000 F400
G1 X1.000 Y10.600 F800
G0 Z5.000
G0 X1.000 Y13.800 Z5.000
G1 Z-27.000 F400
G1 X23.043 Y13.800 F800
G0 Z5.000
G0 X23.000 Y17.000 Z5.000
G1 Z-27.000 F400
G1 X1.000 Y17.000 F800
G0 Z5.000
G0 X1.000 Y20.200 Z5.000
G1 Z-27.000 F400
G1 X23.000 Y20.200 F800
G0 Z5.000
G0 X23.000 Y23.400 Z5.000
G1 Z-27.000 F400
G1 X1.000 Y23.400 F800
G0 Z5.000
G0 X1.000 Y26.600 Z5.000
G1 Z-27.000 F400
G1 X23.000 Y26.600 F800
G0 Z5.000
G0 X23.000 Y29.800 Z5.000
G1 Z-27.000 F400
G1 X1.000 Y29.800 F800
G0 Z5.000
G0 X1.000 Y33.000 Z5.000
G1 Z-27.000 F400
G1 X23.000 Y33.000 F800
G0 Z5.000
G0 X23.000 Y36.200 Z5.000
G1 Z-27.000 F400
G1 X1.000 Y36.200 F800
G0 Z5.000
G0 X1.000 Y39.400 Z5.000
G1 Z-27.000 F400
G1 X23.000 Y39.400 F800
G0 Z5.000
G0 X23.000 Y42.600 Z5.000
G1 Z-27.000 F400
G1 X1.000 Y42.600 F800
G0 Z5.000
G0 X1.000 Y45.800 Z5.000
G1 Z-27.000 F400
G1 X23.000 Y45.800 F800
G0 Z5.000
G0 X23.000 Y49.000 Z5.000
G1 Z-27.000 F400
G1 X1.000 Y49.000 F800
G0 Z5.000
G0 X1.000 Y52.200 Z5.000
G1 Z-27.000 F400
G1 X23.000 Y52.200 F800
G0 Z5.000
G0 X23.000 Y55.400 Z5.000
G1 Z-27.000 F400
G1 X1.000 Y55.400 F800
G0 Z5.000
G0 X1.000 Y58.600 Z5.000
G1 Z-27.000 F400
G1 X23.000 Y58.600 F800
G0 Z5.000
G0 X23.000 Y61.800 Z5.000
G1 Z-27.000 F400
G1 X1.000 Y61.800 F800
G0 Z5.000
G0 X1.000 Y65.000 Z5.000
G1 Z-27.000 F400
G1 X23.000 Y65.000 F800
G0 Z5.000
G0 X23.000 Y68.200 Z5.000
G1 Z-27.000 F400
G1 X1.000 Y68.200 F800
G0 Z5.000
G0 X1.000 Y71.400 Z5.000
G1 Z-27.000 F400
G1 X23.000 Y71.400 F800
G0 Z5.000
G0 X1.000 Y1.000 Z5.000
G1 Z-29.000 F400
G1 X23.000 Y1.000 F800
G0 Z5.000
G0 X23.000 Y4.200 Z5.000
G1 Z-29.000 F400
G1 X1.000 Y4.200 F800
G0 Z5.000
G0 X1.000 Y7.400 Z5.000
G1 Z-29.000 F400
G1 X23.000 Y7.400 F800
G0 Z5.000
G0 X23.000 Y10.600 Z5.000
G1 Z-29.000 F400
G1 X1.000 Y10.600 F800
G0 Z5.000
G0 X1.000 Y13.800 Z5.000
G1 Z-29.000 F400
G1 X23.000 Y13.800 F800
G0 Z5.000
G0 X23.000 Y17.000 Z5.000
G1 Z-29.000 F400
G1 X1.000 Y17.000 F800
G0 Z5.000
G0 X1.000 Y20.200 Z5.000
G1 Z-29.000 F400
G1 X23.000 Y20.200 F800
G0 Z5.000
G0 X23.000 Y23.400 Z5.000
G1 Z-29.000 F400
G1 X1.000 Y23.400 F800
G0 Z5.000
G0 X1.000 Y26.600 Z5.000
G1 Z-29.000 F400
G1 X23.000 Y26.600 F800
G0 Z5.000
G0 X23.000 Y29.800 Z5.000
G1 Z-29.000 F400
G1 X1.000 Y29.800 F800
G0 Z5.000
G0 X1.000 Y33.000 Z5.000
G1 Z-29.000 F400
G1 X23.000 Y33.000 F800
G0 Z5.000
G0 X23.000 Y36.200 Z5.000
G1 Z-29.000 F400
G1 X1.000 Y36.200 F800
G0 Z5.000
G0 X1.000 Y39.400 Z5.000
G1 Z-29.000 F400
G1 X23.000 Y39.400 F800
G0 Z5.000
G0 X23.000 Y42.600 Z5.000
G1 Z-29.000 F400
G1 X1.000 Y42.600 F800
G0 Z5.000
G0 X1.000 Y45.800 Z5.000
G1 Z-29.000 F400
G1 X23.000 Y45.800 F800
G0 Z5.000
G0 X23.000 Y49.000 Z5.000
G1 Z-29.000 F400
G1 X1.000 Y49.000 F800
G0 Z5.000
G0 X1.000 Y52.200 Z5.000
G1 Z-29.000 F400
G1 X23.000 Y52.200 F800
G0 Z5.000
G0 X23.000 Y55.400 Z5.000
G1 Z-29.000 F400
G1 X1.000 Y55.400 F800
G0 Z5.000
G0 X1.000 Y58.600 Z5.000
G1 Z-29.000 F400
G1 X23.000 Y58.600 F800
G0 Z5.000
G0 X23.000 Y61.800 Z5.000
G1 Z-29.000 F400
G1 X1.000 Y61.800 F800
G0 Z5.000
G0 X1.000 Y65.000 Z5.000
G1 Z-29.000 F400
G1 X23.000 Y65.000 F800
G0 Z5.000
G0 X23.000 Y68.200 Z5.000
G1 Z-29.000 F400
G1 X1.000 Y68.200 F800
G0 Z5.000
G0 X1.000 Y71.400 Z5.000
G1 Z-29.000 F400
G1 X23.000 Y71.400 F800
G0 Z5.000
G0 X1.000 Y1.000 Z5.000
G1 Z-31.000 F400
G1 X23.000 Y1.000 F800
G0 Z5.000
G0 X23.000 Y4.200 Z5.000
G1 Z-31.000 F400
G1 X1.000 Y4.200 F800
G0 Z5.000
G0 X1.000 Y7.400 Z5.000
G1 Z-31.000 F400
G1 X23.000 Y7.400 F800
G0 Z5.000
G0 X23.000 Y10.600 Z5.000
G1 Z-31.000 F400
G1 X1.000 Y10.600 F800
G0 Z5.000
G0 X1.000 Y13.800 Z5.000
G1 Z-31.000 F400
G1 X23.000 Y13.800 F800
G0 Z5.000
G0 X23.000 Y17.000 Z5.000
G1 Z-31.000 F400
G1 X1.000 Y17.000 F800
G0 Z5.000
G0 X1.000 Y20.200 Z5.000
G1 Z-31.000 F400
G1 X23.000 Y20.200 F800
G0 Z5.000
G0 X23.000 Y23.400 Z5.000
G1 Z-31.000 F400
G1 X1.000 Y23.400 F800
G0 Z5.000
G0 X1.000 Y26.600 Z5.000
G1 Z-31.000 F400
G1 X23.000 Y26.600 F800
G0 Z5.000
G0 X23.000 Y29.800 Z5.000
G1 Z-31.000 F400
G1 X1.000 Y29.800 F800
G0 Z5.000
G0 X1.000 Y33.000 Z5.000
G1 Z-31.000 F400
G1 X23.000 Y33.000 F800
G0 Z5.000
G0 X23.000 Y36.200 Z5.000
G1 Z-31.000 F400
G1 X1.000 Y36.200 F800
G0 Z5.000
G0 X1.000 Y39.400 Z5.000
G1 Z-31.000 F400
G1 X23.000 Y39.400 F800
G0 Z5.000
G0 X23.000 Y42.600 Z5.000
G1 Z-31.000 F400
G1 X1.000 Y42.600 F800
G0 Z5.000
G0 X1.000 Y45.800 Z5.000
G1 Z-31.000 F400
G1 X23.000 Y45.800 F800
G0 Z5.000
G0 X23.000 Y49.000 Z5.000
G1 Z-31.000 F400
G1 X1.000 Y49.000 F800
G0 Z5.000
G0 X1.000 Y52.200 Z5.000
G1 Z-31.000 F400
G1 X23.000 Y52.200 F800
G0 Z5.000
G0 X23.000 Y55.400 Z5.000
G1 Z-31.000 F400
G1 X1.000 Y55.400 F800
G0 Z5.000
G0 X1.000 Y58.600 Z5.000
G1 Z-31.000 F400
G1 X23.000 Y58.600 F800
G0 Z5.000
G0 X23.000 Y61.800 Z5.000
G1 Z-31.000 F400
G1 X1.000 Y61.800 F800
G0 Z5.000
G0 X1.000 Y65.000 Z5.000
G1 Z-31.000 F400
G1 X23.000 Y65.000 F800
G0 Z5.000
G0 X23.000 Y68.200 Z5.000
G1 Z-31.000 F400
G1 X1.000 Y68.200 F800
G0 Z5.000
G0 X1.000 Y71.400 Z5.000
G1 Z-31.000 F400
G1 X23.000 Y71.400 F800
G0 Z5.000
G0 X1.000 Y1.000 Z5.000
G1 Z-33.000 F400
G1 X23.000 Y1.000 F800
G0 Z5.000
G0 X23.000 Y4.200 Z5.000
G1 Z-33.000 F400
G1 X1.000 Y4.200 F800
G0 Z5.000
G0 X1.000 Y7.400 Z5.000
G1 Z-33.000 F400
G1 X23.000 Y7.400 F800
G0 Z5.000
G0 X23.000 Y10.600 Z5.000
G1 Z-33.000 F400
G1 X1.000 Y10.600 F800
G0 Z5.000
G0 X1.000 Y13.800 Z5.000
G1 Z-33.000 F400
G1 X23.000 Y13.800 F800
G0 Z5.000
G0 X23.000 Y17.000 Z5.000
G1 Z-33.000 F400
G1 X1.000 Y17.000 F800
G0 Z5.000
G0 X1.000 Y20.200 Z5.000
G1 Z-33.000 F400
G1 X23.000 Y20.200 F800
G0 Z5.000
G0 X23.000 Y23.400 Z5.000
G1 Z-33.000 F400
G1 X1.000 Y23.400 F800
G0 Z5.000
G0 X1.000 Y26.600 Z5.000
G1 Z-33.000 F400
G1 X23.000 Y26.600 F800
G0 Z5.000
G0 X23.000 Y29.800 Z5.000
G1 Z-33.000 F400
G1 X1.000 Y29.800 F800
G0 Z5.000
G0 X1.000 Y33.000 Z5.000
G1 Z-33.000 F400
G1 X23.000 Y33.000 F800
G0 Z5.000
G0 X23.000 Y36.200 Z5.000
G1 Z-33.000 F400
G1 X1.000 Y36.200 F800
G0 Z5.000
G0 X1.000 Y39.400 Z5.000
G1 Z-33.000 F400
G1 X23.000 Y39.400 F800
G0 Z5.000
G0 X23.000 Y42.600 Z5.000
G1 Z-33.000 F400
G1 X1.000 Y42.600 F800
G0 Z5.000
G0 X1.000 Y45.800 Z5.000
G1 Z-33.000 F400
G1 X23.000 Y45.800 F800
G0 Z5.000
G0 X23.000 Y49.000 Z5.000
G1 Z-33.000 F400
G1 X1.000 Y49.000 F800
G0 Z5.000
G0 X1.000 Y52.200 Z5.000
G1 Z-33.000 F400
G1 X23.000 Y52.200 F800
G0 Z5.000
G0 X23.000 Y55.400 Z5.000
G1 Z-33.000 F400
G1 X1.000 Y55.400 F800
G0 Z5.000
G0 X1.000 Y58.600 Z5.000
G1 Z-33.000 F400
G1 X23.000 Y58.600 F800
G0 Z5.000
G0 X23.000 Y61.800 Z5.000
G1 Z-33.000 F400
G1 X1.000 Y61.800 F800
G0 Z5.000
G0 X1.000 Y65.000 Z5.000
G1 Z-33.000 F400
G1 X23.000 Y65.000 F800
G0 Z5.000
G0 X23.000 Y68.200 Z5.000
G1 Z-33.000 F400
G1 X1.000 Y68.200 F800
G0 Z5.000
G0 X1.000 Y71.400 Z5.000
G1 Z-33.000 F400
G1 X23.000 Y71.400 F800
G0 Z5.000
G0 X1.000 Y1.000 Z5.000
G1 Z-35.000 F400
G1 X23.000 Y1.000 F800
G0 Z5.000
G0 X23.000 Y4.200 Z5.000
G1 Z-35.000 F400
G1 X1.000 Y4.200 F800
G0 Z5.000
G0 X1.000 Y7.400 Z5.000
G1 Z-35.000 F400
G1 X23.000 Y7.400 F800
G0 Z5.000
G0 X23.000 Y10.600 Z5.000
G1 Z-35.000 F400
G1 X1.000 Y10.600 F800
G0 Z5.000
G0 X1.000 Y13.800 Z5.000
G1 Z-35.000 F400
G1 X23.000 Y13.800 F800
G0 Z5.000
G0 X23.000 Y17.000 Z5.000
G1 Z-35.000 F400
G1 X1.000 Y17.000 F800
G0 Z5.000
G0 X1.000 Y20.200 Z5.000
G1 Z-35.000 F400
G1 X23.000 Y20.200 F800
G0 Z5.000
G0 X23.000 Y23.400 Z5.000
G1 Z-35.000 F400
G1 X1.000 Y23.400 F800
G0 Z5.000
G0 X1.000 Y26.600 Z5.000
G1 Z-35.000 F400
G1 X23.000 Y26.600 F800
G0 Z5.000
G0 X23.000 Y29.800 Z5.000
G1 Z-35.000 F400
G1 X1.000 Y29.800 F800
G0 Z5.000
G0 X1.000 Y33.000 Z5.000
G1 Z-35.000 F400
G1 X23.000 Y33.000 F800
G0 Z5.000
G0 X23.000 Y36.200 Z5.000
G1 Z-35.000 F400
G1 X1.000 Y36.200 F800
G0 Z5.000
G0 X1.000 Y39.400 Z5.000
G1 Z-35.000 F400
G1 X23.000 Y39.400 F800
G0 Z5.000
G0 X23.000 Y42.600 Z5.000
G1 Z-35.000 F400
G1 X1.000 Y42.600 F800
G0 Z5.000
G0 X1.000 Y45.800 Z5.000
G1 Z-35.000 F400
G1 X23.000 Y45.800 F800
G0 Z5.000
G0 X23.000 Y49.000 Z5.000
G1 Z-35.000 F400
G1 X1.000 Y49.000 F800
G0 Z5.000
G0 X1.000 Y52.200 Z5.000
G1 Z-35.000 F400
G1 X23.000 Y52.200 F800
G0 Z5.000
G0 X23.000 Y55.400 Z5.000
G1 Z-35.000 F400
G1 X1.000 Y55.400 F800
G0 Z5.000
G0 X1.000 Y58.600 Z5.000
G1 Z-35.000 F400
G1 X23.000 Y58.600 F800
G0 Z5.000
G0 X23.000 Y61.800 Z5.000
G1 Z-35.000 F400
G1 X1.000 Y61.800 F800
G0 Z5.000
G0 X1.000 Y65.000 Z5.000
G1 Z-35.000 F400
G1 X23.000 Y65.000 F800
G0 Z5.000
G0 X23.000 Y68.200 Z5.000
G1 Z-35.000 F400
G1 X1.000 Y68.200 F800
G0 Z5.000
G0 X1.000 Y71.400 Z5.000
G1 Z-35.000 F400
G1 X23.000 Y71.400 F800
G0 Z5.000
G0 X1.000 Y1.000 Z5.000
G1 Z-36.000 F400
G1 X29.000 Y1.000 F800
G0 Z5.000
G0 X29.000 Y4.200 Z5.000
G1 Z-36.000 F400
G1 X1.000 Y4.200 F800
G0 Z5.000
G0 X1.000 Y7.400 Z5.000
G1 Z-36.000 F400
G1 X29.000 Y7.400 F800
G0 Z5.000
G0 X29.000 Y10.600 Z5.000
G1 Z-36.000 F400
G1 X1.000 Y10.600 F800
G0 Z5.000
G0 X1.000 Y13.800 Z5.000
G1 Z-36.000 F400
G1 X29.000 Y13.800 F800
G0 Z5.000
G0 X29.000 Y17.000 Z5.000
G1 Z-36.000 F400
G1 X1.000 Y17.000 F800
G0 Z5.000
G0 X1.000 Y20.200 Z5.000
G1 Z-36.000 F400
G1 X29.000 Y20.200 F800
G0 Z5.000
G0 X29.000 Y23.400 Z5.000
G1 Z-36.000 F400
G1 X1.000 Y23.400 F800
G0 Z5.000
G0 X1.000 Y26.600 Z5.000
G1 Z-36.000 F400
G1 X29.000 Y26.600 F800
G0 Z5.000
G0 X29.000 Y29.800 Z5.000
G1 Z-36.000 F400
G1 X1.000 Y29.800 F800
G0 Z5.000
G0 X1.000 Y33.000 Z5.000
G1 Z-36.000 F400
G1 X29.000 Y33.000 F800
G0 Z5.000
G0 X29.000 Y36.200 Z5.000
G1 Z-36.000 F400
G1 X1.000 Y36.200 F800
G0 Z5.000
G0 X1.000 Y39.400 Z5.000
G1 Z-36.000 F400
G1 X29.000 Y39.400 F800
G0 Z5.000
G0 X29.000 Y42.600 Z5.000
G1 Z-36.000 F400
G1 X1.000 Y42.600 F800
G0 Z5.000
G0 X1.000 Y45.800 Z5.000
G1 Z-36.000 F400
G1 X29.000 Y45.800 F800
G0 Z5.000
G0 X29.000 Y49.000 Z5.000
G1 Z-36.000 F400
G1 X1.000 Y49.000 F800
G0 Z5.000
G0 X1.000 Y52.200 Z5.000
G1 Z-36.000 F400
G1 X29.000 Y52.200 F800
G0 Z5.000
G0 X29.000 Y55.400 Z5.000
G1 Z-36.000 F400
G1 X1.000 Y55.400 F800
G0 Z5.000
G0 X1.000 Y58.600 Z5.000
G1 Z-36.000 F400
G1 X29.000 Y58.600 F800
G0 Z5.000
G0 X29.000 Y61.800 Z5.000
G1 Z-36.000 F400
G1 X1.000 Y61.800 F800
G0 Z5.000
G0 X1.000 Y65.000 Z5.000
G1 Z-36.000 F400
G1 X29.000 Y65.000 F800
G0 Z5.000
G0 X29.000 Y68.200 Z5.000
G1 Z-36.000 F400
G1 X1.000 Y68.200 F800
G0 Z5.000
G0 X1.000 Y71.400 Z5.000
G1 Z-36.000 F400
G1 X29.000 Y71.400 F800
G0 Z5.000
G0 X29.000 Y74.600 Z5.000
G1 Z-36.000 F400
G1 X1.000 Y74.600 F800
G0 Z5.000
G0 X1.000 Y77.800 Z5.000
G1 Z-36.000 F400
G1 X29.000 Y77.800 F800
G0 Z5.000
G0 X0 Y0
M5
M30
