(Cloud CAM Generated for Job 9fed2791-220d-49c4-8054-fcf5c82eb2fa)
(Model: 70.0 x 70.0 x 10.0 mm)
(Params: step_down=2.0 spindle=4000 feed=800.0)
(Strategy: fallback_no_ocl)
G21 (metric)
G90 (absolute)
S4000 M3
G0 Z5.0
G0 X0.000 Y0.000 Z5.000
G0 Z-1.000
G1 Z-2.000 F400
G1 X70.000 Y0.000 F800
G1 X70.000 Y2.400 F800
G1 X0.000 Y2.400 F800
G1 X0.000 Y4.800 F800
G1 X70.000 Y4.800 F800
G1 X70.000 Y7.200 F800
G1 X0.000 Y7.200 F800
G1 X0.000 Y9.600 F800
G1 X70.000 Y9.600 F800
G1 X70.000 Y12.000 F800
G1 X0.000 Y12.000 F800
G1 X0.000 Y14.400 F800
G1 X70.000 Y14.400 F800
G1 X70.000 Y16.800 F800
G1 X0.000 Y16.800 F800
G1 X0.000 Y19.200 F800
G1 X70.000 Y19.200 F800
G1 X70.000 Y21.600 F800
G1 X0.000 Y21.600 F800
G1 X0.000 Y24.000 F800
G1 X70.000 Y24.000 F800
G1 X70.000 Y26.400 F800
G1 X0.000 Y26.400 F800
G1 X0.000 Y28.800 F800
G1 X70.000 Y28.800 F800
G1 X70.000 Y31.200 F800
G1 X0.000 Y31.200 F800
G1 X0.000 Y33.600 F800
G1 X70.000 Y33.600 F800
G1 X70.000 Y36.000 F800
G1 X0.000 Y36.000 F800
G1 X0.000 Y38.400 F800
G1 X70.000 Y38.400 F800
G1 X70.000 Y40.800 F800
G1 X0.000 Y40.800 F800
G1 X0.000 Y43.200 F800
G1 X70.000 Y43.200 F800
G1 X70.000 Y45.600 F800
G1 X0.000 Y45.600 F800
G1 X0.000 Y48.000 F800
G1 X70.000 Y48.000 F800
G1 X70.000 Y50.400 F800
G1 X0.000 Y50.400 F800
G1 X0.000 Y52.800 F800
G1 X70.000 Y52.800 F800
G1 X70.000 Y55.200 F800
G1 X0.000 Y55.200 F800
G1 X0.000 Y57.600 F800
G1 X70.000 Y57.600 F800
G1 X70.000 Y60.000 F800
G1 X0.000 Y60.000 F800
G1 X0.000 Y62.400 F800
G1 X70.000 Y62.400 F800
G1 X70.000 Y64.800 F800
G1 X0.000 Y64.800 F800
G1 X0.000 Y67.200 F800
G1 X70.000 Y67.200 F800
G1 X70.000 Y69.600 F800
G1 X0.000 Y69.600 F800
G1 X0.000 Y70.000 F800
G1 X70.000 Y70.000 F800
G0 Z5.000
G0 X0.000 Y0.000 Z5.000
G0 Z-3.000
G1 Z-4.000 F400
G1 X70.000 Y0.000 F800
G1 X70.000 Y2.400 F800
G1 X0.000 Y2.400 F800
G1 X0.000 Y4.800 F800
G1 X70.000 Y4.800 F800
G1 X70.000 Y7.200 F800
G1 X0.000 Y7.200 F800
G1 X0.000 Y9.600 F800
G1 X70.000 Y9.600 F800
G1 X70.000 Y12.000 F800
G1 X0.000 Y12.000 F800
G1 X0.000 Y14.400 F800
G1 X70.000 Y14.400 F800
G1 X70.000 Y16.800 F800
G1 X0.000 Y16.800 F800
G1 X0.000 Y19.200 F800
G1 X70.000 Y19.200 F800
G1 X70.000 Y21.600 F800
G1 X0.000 Y21.600 F800
G1 X0.000 Y24.000 F800
G1 X70.000 Y24.000 F800
G1 X70.000 Y26.400 F800
G1 X0.000 Y26.400 F800
G1 X0.000 Y28.800 F800
G1 X70.000 Y28.800 F800
G1 X70.000 Y31.200 F800
G1 X0.000 Y31.200 F800
G1 X0.000 Y33.600 F800
G1 X70.000 Y33.600 F800
G1 X70.000 Y36.000 F800
G1 X0.000 Y36.000 F800
G1 X0.000 Y38.400 F800
G1 X70.000 Y38.400 F800
G1 X70.000 Y40.800 F800
G1 X0.000 Y40.800 F800
G1 X0.000 Y43.200 F800
G1 X70.000 Y43.200 F800
G1 X70.000 Y45.600 F800
G1 X0.000 Y45.600 F800
G1 X0.000 Y48.000 F800
G1 X70.000 Y48.000 F800
G1 X70.000 Y50.400 F800
G1 X0.000 Y50.400 F800
G1 X0.000 Y52.800 F800
G1 X70.000 Y52.800 F800
G1 X70.000 Y55.200 F800
G1 X0.000 Y55.200 F800
G1 X0.000 Y57.600 F800
G1 X70.000 Y57.600 F800
G1 X70.000 Y60.000 F800
G1 X0.000 Y60.000 F800
G1 X0.000 Y62.400 F800
G1 X70.000 Y62.400 F800
G1 X70.000 Y64.800 F800
G1 X0.000 Y64.800 F800
G1 X0.000 Y67.200 F800
G1 X70.000 Y67.200 F800
G1 X70.000 Y69.600 F800
G1 X0.000 Y69.600 F800
G1 X0.000 Y70.000 F800
G1 X70.000 Y70.000 F800
G0 Z5.000
G0 X0.000 Y0.000 Z5.000
G0 Z-5.000
G1 Z-6.000 F400
G1 X70.000 Y0.000 F800
G1 X70.000 Y2.400 F800
G1 X0.000 Y2.400 F800
G1 X0.000 Y4.800 F800
G1 X70.000 Y4.800 F800
G1 X70.000 Y7.200 F800
G1 X0.000 Y7.200 F800
G1 X0.000 Y9.600 F800
G1 X70.000 Y9.600 F800
G1 X70.000 Y12.000 F800
G1 X0.000 Y12.000 F800
G1 X0.000 Y14.400 F800
G1 X70.000 Y14.400 F800
G1 X70.000 Y16.800 F800
G1 X0.000 Y16.800 F800
G1 X0.000 Y19.200 F800
G1 X70.000 Y19.200 F800
G1 X70.000 Y21.600 F800
G1 X0.000 Y21.600 F800
G1 X0.000 Y24.000 F800
G1 X70.000 Y24.000 F800
G1 X70.000 Y26.400 F800
G1 X0.000 Y26.400 F800
G1 X0.000 Y28.800 F800
G1 X70.000 Y28.800 F800
G1 X70.000 Y31.200 F800
G1 X0.000 Y31.200 F800
G1 X0.000 Y33.600 F800
G1 X70.000 Y33.600 F800
G1 X70.000 Y36.000 F800
G1 X0.000 Y36.000 F800
G1 X0.000 Y38.400 F800
G1 X70.000 Y38.400 F800
G1 X70.000 Y40.800 F800
G1 X0.000 Y40.800 F800
G1 X0.000 Y43.200 F800
G1 X70.000 Y43.200 F800
G1 X70.000 Y45.600 F800
G1 X0.000 Y45.600 F800
G1 X0.000 Y48.000 F800
G1 X70.000 Y48.000 F800
G1 X70.000 Y50.400 F800
G1 X0.000 Y50.400 F800
G1 X0.000 Y52.800 F800
G1 X70.000 Y52.800 F800
G1 X70.000 Y55.200 F800
G1 X0.000 Y55.200 F800
G1 X0.000 Y57.600 F800
G1 X70.000 Y57.600 F800
G1 X70.000 Y60.000 F800
G1 X0.000 Y60.000 F800
G1 X0.000 Y62.400 F800
G1 X70.000 Y62.400 F800
G1 X70.000 Y64.800 F800
G1 X0.000 Y64.800 F800
G1 X0.000 Y67.200 F800
G1 X70.000 Y67.200 F800
G1 X70.000 Y69.600 F800
G1 X0.000 Y69.600 F800
G1 X0.000 Y70.000 F800
G1 X70.000 Y70.000 F800
G0 Z5.000
G0 X0.000 Y0.000 Z5.000
G0 Z-7.000
G1 Z-8.000 F400
G1 X70.000 Y0.000 F800
G1 X70.000 Y2.400 F800
G1 X0.000 Y2.400 F800
G1 X0.000 Y4.800 F800
G1 X70.000 Y4.800 F800
G1 X70.000 Y7.200 F800
G1 X0.000 Y7.200 F800
G1 X0.000 Y9.600 F800
G1 X70.000 Y9.600 F800
G1 X70.000 Y12.000 F800
G1 X0.000 Y12.000 F800
G1 X0.000 Y14.400 F800
G1 X70.000 Y14.400 F800
G1 X70.000 Y16.800 F800
G1 X0.000 Y16.800 F800
G1 X0.000 Y19.200 F800
G1 X70.000 Y19.200 F800
G1 X70.000 Y21.600 F800
G1 X0.000 Y21.600 F800
G1 X0.000 Y24.000 F800
G1 X70.000 Y24.000 F800
G1 X70.000 Y26.400 F800
G1 X0.000 Y26.400 F800
G1 X0.000 Y28.800 F800
G1 X70.000 Y28.800 F800
G1 X70.000 Y31.200 F800
G1 X0.000 Y31.200 F800
G1 X0.000 Y33.600 F800
G1 X70.000 Y33.600 F800
G1 X70.000 Y36.000 F800
G1 X0.000 Y36.000 F800
G1 X0.000 Y38.400 F800
G1 X70.000 Y38.400 F800
G1 X70.000 Y40.800 F800
G1 X0.000 Y40.800 F800
G1 X0.000 Y43.200 F800
G1 X70.000 Y43.200 F800
G1 X70.000 Y45.600 F800
G1 X0.000 Y45.600 F800
G1 X0.000 Y48.000 F800
G1 X70.000 Y48.000 F800
G1 X70.000 Y50.400 F800
G1 X0.000 Y50.400 F800
G1 X0.000 Y52.800 F800
G1 X70.000 Y52.800 F800
G1 X70.000 Y55.200 F800
G1 X0.000 Y55.200 F800
G1 X0.000 Y57.600 F800
G1 X70.000 Y57.600 F800
G1 X70.000 Y60.000 F800
G1 X0.000 Y60.000 F800
G1 X0.000 Y62.400 F800
G1 X70.000 Y62.400 F800
G1 X70.000 Y64.800 F800
G1 X0.000 Y64.800 F800
G1 X0.000 Y67.200 F800
G1 X70.000 Y67.200 F800
G1 X70.000 Y69.600 F800
G1 X0.000 Y69.600 F800
G1 X0.000 Y70.000 F800
G1 X70.000 Y70.000 F800
G0 Z5.000
G0 X0.000 Y0.000 Z5.000
G0 Z-9.000
G1 Z-10.000 F400
G1 X70.000 Y0.000 F800
G1 X70.000 Y2.400 F800
G1 X0.000 Y2.400 F800
G1 X0.000 Y4.800 F800
G1 X70.000 Y4.800 F800
G1 X70.000 Y7.200 F800
G1 X0.000 Y7.200 F800
G1 X0.000 Y9.600 F800
G1 X70.000 Y9.600 F800
G1 X70.000 Y12.000 F800
G1 X0.000 Y12.000 F800
G1 X0.000 Y14.400 F800
G1 X70.000 Y14.400 F800
G1 X70.000 Y16.800 F800
G1 X0.000 Y16.800 F800
G1 X0.000 Y19.200 F800
G1 X70.000 Y19.200 F800
G1 X70.000 Y21.600 F800
G1 X0.000 Y21.600 F800
G1 X0.000 Y24.000 F800
G1 X70.000 Y24.000 F800
G1 X70.000 Y26.400 F800
G1 X0.000 Y26.400 F800
G1 X0.000 Y28.800 F800
G1 X70.000 Y28.800 F800
G1 X70.000 Y31.200 F800
G1 X0.000 Y31.200 F800
G1 X0.000 Y33.600 F800
G1 X70.000 Y33.600 F800
G1 X70.000 Y36.000 F800
G1 X0.000 Y36.000 F800
G1 X0.000 Y38.400 F800
G1 X70.000 Y38.400 F800
G1 X70.000 Y40.800 F800
G1 X0.000 Y40.800 F800
G1 X0.000 Y43.200 F800
G1 X70.000 Y43.200 F800
G1 X70.000 Y45.600 F800
G1 X0.000 Y45.600 F800
G1 X0.000 Y48.000 F800
G1 X70.000 Y48.000 F800
G1 X70.000 Y50.400 F800
G1 X0.000 Y50.400 F800
G1 X0.000 Y52.800 F800
G1 X70.000 Y52.800 F800
G1 X70.000 Y55.200 F800
G1 X0.000 Y55.200 F800
G1 X0.000 Y57.600 F800
G1 X70.000 Y57.600 F800
G1 X70.000 Y60.000 F800
G1 X0.000 Y60.000 F800
G1 X0.000 Y62.400 F800
G1 X70.000 Y62.400 F800
G1 X70.000 Y64.800 F800
G1 X0.000 Y64.800 F800
G1 X0.000 Y67.200 F800
G1 X70.000 Y67.200 F800
G1 X70.000 Y69.600 F800
G1 X0.000 Y69.600 F800
G1 X0.000 Y70.000 F800
G1 X70.000 Y70.000 F800
G0 Z5.000
G0 X0.000 Y0.000 Z5.000
G0 Z-9.000
G1 Z-10.000 F400
G1 X70.000 Y0.000 F800
G1 X70.000 Y2.400 F800
G1 X0.000 Y2.400 F800
G1 X0.000 Y4.800 F800
G1 X70.000 Y4.800 F800
G1 X70.000 Y7.200 F800
G1 X0.000 Y7.200 F800
G1 X0.000 Y9.600 F800
G1 X70.000 Y9.600 F800
G1 X70.000 Y12.000 F800
G1 X0.000 Y12.000 F800
G1 X0.000 Y14.400 F800
G1 X70.000 Y14.400 F800
G1 X70.000 Y16.800 F800
G1 X0.000 Y16.800 F800
G1 X0.000 Y19.200 F800
G1 X70.000 Y19.200 F800
G1 X70.000 Y21.600 F800
G1 X0.000 Y21.600 F800
G1 X0.000 Y24.000 F800
G1 X70.000 Y24.000 F800
G1 X70.000 Y26.400 F800
G1 X0.000 Y26.400 F800
G1 X0.000 Y28.800 F800
G1 X70.000 Y28.800 F800
G1 X70.000 Y31.200 F800
G1 X0.000 Y31.200 F800
G1 X0.000 Y33.600 F800
G1 X70.000 Y33.600 F800
G1 X70.000 Y36.000 F800
G1 X0.000 Y36.000 F800
G1 X0.000 Y38.400 F800
G1 X70.000 Y38.400 F800
G1 X70.000 Y40.800 F800
G1 X0.000 Y40.800 F800
G1 X0.000 Y43.200 F800
G1 X70.000 Y43.200 F800
G1 X70.000 Y45.600 F800
G1 X0.000 Y45.600 F800
G1 X0.000 Y48.000 F800
G1 X70.000 Y48.000 F800
G1 X70.000 Y50.400 F800
G1 X0.000 Y50.400 F800
G1 X0.000 Y52.800 F800
G1 X70.000 Y52.800 F800
G1 X70.000 Y55.200 F800
G1 X0.000 Y55.200 F800
G1 X0.000 Y57.600 F800
G1 X70.000 Y57.600 F800
G1 X70.000 Y60.000 F800
G1 X0.000 Y60.000 F800
G1 X0.000 Y62.400 F800
G1 X70.000 Y62.400 F800
G1 X70.000 Y64.800 F800
G1 X0.000 Y64.800 F800
G1 X0.000 Y67.200 F800
G1 X70.000 Y67.200 F800
G1 X70.000 Y69.600 F800
G1 X0.000 Y69.600 F800
G1 X0.000 Y70.000 F800
G1 X70.000 Y70.000 F800
G0 Z5.000
G0 X0 Y0
M5
M30
