(Cloud CAM Generated for Job 0adcc496-57a1-4866-a9ed-c7da9a888438)
(Model: 70.0 x 70.0 x 10.0 mm)
(Params: step_down=2.0 spindle=4000 feed=800.0)
(Strategy: stock_aware_fallback)
G21 (metric)
G90 (absolute)
S4000 M3
G0 Z5.0
G0 X1.000 Y1.000 Z5.000
G1 Z1.000 F400
G1 X69.000 Y1.000 F800
G0 Z5.000
G0 X69.000 Y4.200 Z5.000
G1 Z1.000 F400
G1 X1.000 Y4.200 F800
G0 Z5.000
G0 X1.000 Y7.400 Z5.000
G1 Z1.000 F400
G1 X69.000 Y7.400 F800
G0 Z5.000
G0 X69.000 Y10.600 Z5.000
G1 Z1.000 F400
G1 X1.000 Y10.600 F800
G0 Z5.000
G0 X1.000 Y13.800 Z5.000
G1 Z1.000 F400
G1 X69.000 Y13.800 F800
G0 Z5.000
G0 X69.000 Y17.000 Z5.000
G1 Z1.000 F400
G1 X1.000 Y17.000 F800
G0 Z5.000
G0 X1.000 Y20.200 Z5.000
G1 Z1.000 F400
G1 X69.000 Y20.200 F800
G0 Z5.000
G0 X69.000 Y23.400 Z5.000
G1 Z1.000 F400
G1 X1.000 Y23.400 F800
G0 Z5.000
G0 X1.000 Y26.600 Z5.000
G1 Z1.000 F400
G1 X69.000 Y26.600 F800
G0 Z5.000
G0 X69.000 Y29.800 Z5.000
G1 Z1.000 F400
G1 X1.000 Y29.800 F800
G0 Z5.000
G0 X1.000 Y33.000 Z5.000
G1 Z1.000 F400
G1 X69.000 Y33.000 F800
G0 Z5.000
G0 X69.000 Y36.200 Z5.000
G1 Z1.000 F400
G1 X1.000 Y36.200 F800
G0 Z5.000
G0 X1.000 Y39.400 Z5.000
G1 Z1.000 F400
G1 X69.000 Y39.400 F800
G0 Z5.000
G0 X69.000 Y42.600 Z5.000
G1 Z1.000 F400
G1 X1.000 Y42.600 F800
G0 Z5.000
G0 X1.000 Y45.800 Z5.000
G1 Z1.000 F400
G1 X69.000 Y45.800 F800
G0 Z5.000
G0 X69.000 Y49.000 Z5.000
G1 Z1.000 F400
G1 X1.000 Y49.000 F800
G0 Z5.000
G0 X1.000 Y52.200 Z5.000
G1 Z1.000 F400
G1 X69.000 Y52.200 F800
G0 Z5.000
G0 X69.000 Y55.400 Z5.000
G1 Z1.000 F400
G1 X1.000 Y55.400 F800
G0 Z5.000
G0 X1.000 Y58.600 Z5.000
G1 Z1.000 F400
G1 X69.000 Y58.600 F800
G0 Z5.000
G0 X69.000 Y61.800 Z5.000
G1 Z1.000 F400
G1 X1.000 Y61.800 F800
G0 Z5.000
G0 X1.000 Y65.000 Z5.000
G1 Z1.000 F400
G1 X69.000 Y65.000 F800
G0 Z5.000
G0 X69.000 Y68.200 Z5.000
G1 Z1.000 F400
G1 X1.000 Y68.200 F800
G0 Z5.000
G0 X14.950 Y33.002 Z5.000
G1 Z-5.000 F400
G1 X15.050 Y33.002 F800
G0 Z5.000
G0 X54.950 Y33.002 Z5.000
G1 Z-5.000 F400
G1 X55.050 Y33.002 F800
G0 Z5.000
G0 X56.597 Y36.202 Z5.000
G1 Z-5.000 F400
G1 X53.403 Y36.202 F800
G0 Z5.000
G0 X16.597 Y36.202 Z5.000
G1 Z-5.000 F400
G1 X13.403 Y36.202 F800
G0 Z5.000
G0 X14.950 Y33.002 Z5.000
G1 Z-7.000 F400
G1 X15.050 Y33.002 F800
G0 Z5.000
G0 X54.950 Y33.002 Z5.000
G1 Z-7.000 F400
G1 X55.050 Y33.002 F800
G0 Z5.000
G0 X56.597 Y36.202 Z5.000
G1 Z-7.000 F400
G1 X53.403 Y36.202 F800
G0 Z5.000
G0 X16.597 Y36.202 Z5.000
G1 Z-7.000 F400
G1 X13.403 Y36.202 F800
G0 Z5.000
G0 X14.950 Y33.002 Z5.000
G1 Z-9.000 F400
G1 X15.050 Y33.002 F800
G0 Z5.000
G0 X54.950 Y33.002 Z5.000
G1 Z-9.000 F400
G1 X55.050 Y33.002 F800
G0 Z5.000
G0 X56.597 Y36.202 Z5.000
G1 Z-9.000 F400
G1 X53.403 Y36.202 F800
G0 Z5.000
G0 X16.597 Y36.202 Z5.000
G1 Z-9.000 F400
G1 X13.403 Y36.202 F800
G0 Z5.000
G0 X1.000 Y1.000 Z5.000
G1 Z-10.000 F400
G1 X69.000 Y1.000 F800
G0 Z5.000
G0 X69.000 Y4.200 Z5.000
G1 Z-10.000 F400
G1 X1.000 Y4.200 F800
G0 Z5.000
G0 X1.000 Y7.400 Z5.000
G1 Z-10.000 F400
G1 X69.000 Y7.400 F800
G0 Z5.000
G0 X69.000 Y10.600 Z5.000
G1 Z-10.000 F400
G1 X1.000 Y10.600 F800
G0 Z5.000
G0 X1.000 Y13.800 Z5.000
G1 Z-10.000 F400
G1 X69.000 Y13.800 F800
G0 Z5.000
G0 X69.000 Y17.000 Z5.000
G1 Z-10.000 F400
G1 X1.000 Y17.000 F800
G0 Z5.000
G0 X1.000 Y20.200 Z5.000
G1 Z-10.000 F400
G1 X69.000 Y20.200 F800
G0 Z5.000
G0 X69.000 Y23.400 Z5.000
G1 Z-10.000 F400
G1 X1.000 Y23.400 F800
G0 Z5.000
G0 X1.000 Y26.600 Z5.000
G1 Z-10.000 F400
G1 X69.000 Y26.600 F800
G0 Z5.000
G0 X69.000 Y29.800 Z5.000
G1 Z-10.000 F400
G1 X1.000 Y29.800 F800
G0 Z5.000
G0 X1.000 Y33.000 Z5.000
G1 Z-10.000 F400
G1 X69.000 Y33.000 F800
G0 Z5.000
G0 X69.000 Y36.200 Z5.000
G1 Z-10.000 F400
G1 X1.000 Y36.200 F800
G0 Z5.000
G0 X1.000 Y39.400 Z5.000
G1 Z-10.000 F400
G1 X69.000 Y39.400 F800
G0 Z5.000
G0 X69.000 Y42.600 Z5.000
G1 Z-10.000 F400
G1 X1.000 Y42.600 F800
G0 Z5.000
G0 X1.000 Y45.800 Z5.000
G1 Z-10.000 F400
G1 X69.000 Y45.800 F800
G0 Z5.000
G0 X69.000 Y49.000 Z5.000
G1 Z-10.000 F400
G1 X1.000 Y49.000 F800
G0 Z5.000
G0 X1.000 Y52.200 Z5.000
G1 Z-10.000 F400
G1 X69.000 Y52.200 F800
G0 Z5.000
G0 X69.000 Y55.400 Z5.000
G1 Z-10.000 F400
G1 X1.000 Y55.400 F800
G0 Z5.000
G0 X1.000 Y58.600 Z5.000
G1 Z-10.000 F400
G1 X69.000 Y58.600 F800
G0 Z5.000
G0 X69.000 Y61.800 Z5.000
G1 Z-10.000 F400
G1 X1.000 Y61.800 F800
G0 Z5.000
G0 X1.000 Y65.000 Z5.000
G1 Z-10.000 F400
G1 X69.000 Y65.000 F800
G0 Z5.000
G0 X69.000 Y68.200 Z5.000
G1 Z-10.000 F400
G1 X1.000 Y68.200 F800
G0 Z5.000
G0 X0 Y0
M5
M30
