(Cloud CAM Generated for Job bea46d9f-c540-4f0d-b55d-f177a3fbae6d)
(Model: 98.0 x 98.0 x 98.0 mm)
(Params: step_down=2.0 spindle=4000 feed=800.0)
G21 (metric)
G90 (absolute)
S4000 M3
G0 Z5.0
G0 X0 Y0 Z5.0
G0 Z-1.000
G1 Z-2.000 F400
G1 X98.000 Y0.000 F800
G1 Y2.400 F800
G1 X0.000 Y2.400 F800
G1 Y4.800 F800
G1 X98.000 Y4.800 F800
G1 Y7.200 F800
G1 X0.000 Y7.200 F800
G1 Y9.600 F800
G1 X98.000 Y9.600 F800
G1 Y12.000 F800
G1 X0.000 Y12.000 F800
G1 Y14.400 F800
G1 X98.000 Y14.400 F800
G1 Y16.800 F800
G1 X0.000 Y16.800 F800
G1 Y19.200 F800
G1 X98.000 Y19.200 F800
G1 Y21.600 F800
G1 X0.000 Y21.600 F800
G1 Y24.000 F800
G1 X98.000 Y24.000 F800
G1 Y26.400 F800
G1 X0.000 Y26.400 F800
G1 Y28.800 F800
G1 X98.000 Y28.800 F800
G1 Y31.200 F800
G1 X0.000 Y31.200 F800
G1 Y33.600 F800
G1 X98.000 Y33.600 F800
G1 Y36.000 F800
G1 X0.000 Y36.000 F800
G1 Y38.400 F800
G1 X98.000 Y38.400 F800
G1 Y40.800 F800
G1 X0.000 Y40.800 F800
G1 Y43.200 F800
G1 X98.000 Y43.200 F800
G1 Y45.600 F800
G1 X0.000 Y45.600 F800
G1 Y48.000 F800
G1 X98.000 Y48.000 F800
G1 Y50.400 F800
G1 X0.000 Y50.400 F800
G1 Y52.800 F800
G1 X98.000 Y52.800 F800
G1 Y55.200 F800
G1 X0.000 Y55.200 F800
G1 Y57.600 F800
G1 X98.000 Y57.600 F800
G1 Y60.000 F800
G1 X0.000 Y60.000 F800
G1 Y62.400 F800
G1 X98.000 Y62.400 F800
G1 Y64.800 F800
G1 X0.000 Y64.800 F800
G1 Y67.200 F800
G1 X98.000 Y67.200 F800
G1 Y69.600 F800
G1 X0.000 Y69.600 F800
G1 Y72.000 F800
G1 X98.000 Y72.000 F800
G1 Y74.400 F800
G1 X0.000 Y74.400 F800
G1 Y76.800 F800
G1 X98.000 Y76.800 F800
G1 Y79.200 F800
G1 X0.000 Y79.200 F800
G1 Y81.600 F800
G1 X98.000 Y81.600 F800
G1 Y84.000 F800
G1 X0.000 Y84.000 F800
G1 Y86.400 F800
G1 X98.000 Y86.400 F800
G1 Y88.800 F800
G1 X0.000 Y88.800 F800
G1 Y91.200 F800
G1 X98.000 Y91.200 F800
G1 Y93.600 F800
G1 X0.000 Y93.600 F800
G1 Y96.000 F800
G1 X98.000 Y96.000 F800
G0 Z5.0
G0 X0 Y0 Z5.0
G0 Z-3.000
G1 Z-4.000 F400
G1 X98.000 Y0.000 F800
G1 Y2.400 F800
G1 X0.000 Y2.400 F800
G1 Y4.800 F800
G1 X98.000 Y4.800 F800
G1 Y7.200 F800
G1 X0.000 Y7.200 F800
G1 Y9.600 F800
G1 X98.000 Y9.600 F800
G1 Y12.000 F800
G1 X0.000 Y12.000 F800
G1 Y14.400 F800
G1 X98.000 Y14.400 F800
G1 Y16.800 F800
G1 X0.000 Y16.800 F800
G1 Y19.200 F800
G1 X98.000 Y19.200 F800
G1 Y21.600 F800
G1 X0.000 Y21.600 F800
G1 Y24.000 F800
G1 X98.000 Y24.000 F800
G1 Y26.400 F800
G1 X0.000 Y26.400 F800
G1 Y28.800 F800
G1 X98.000 Y28.800 F800
G1 Y31.200 F800
G1 X0.000 Y31.200 F800
G1 Y33.600 F800
G1 X98.000 Y33.600 F800
G1 Y36.000 F800
G1 X0.000 Y36.000 F800
G1 Y38.400 F800
G1 X98.000 Y38.400 F800
G1 Y40.800 F800
G1 X0.000 Y40.800 F800
G1 Y43.200 F800
G1 X98.000 Y43.200 F800
G1 Y45.600 F800
G1 X0.000 Y45.600 F800
G1 Y48.000 F800
G1 X98.000 Y48.000 F800
G1 Y50.400 F800
G1 X0.000 Y50.400 F800
G1 Y52.800 F800
G1 X98.000 Y52.800 F800
G1 Y55.200 F800
G1 X0.000 Y55.200 F800
G1 Y57.600 F800
G1 X98.000 Y57.600 F800
G1 Y60.000 F800
G1 X0.000 Y60.000 F800
G1 Y62.400 F800
G1 X98.000 Y62.400 F800
G1 Y64.800 F800
G1 X0.000 Y64.800 F800
G1 Y67.200 F800
G1 X98.000 Y67.200 F800
G1 Y69.600 F800
G1 X0.000 Y69.600 F800
G1 Y72.000 F800
G1 X98.000 Y72.000 F800
G1 Y74.400 F800
G1 X0.000 Y74.400 F800
G1 Y76.800 F800
G1 X98.000 Y76.800 F800
G1 Y79.200 F800
G1 X0.000 Y79.200 F800
G1 Y81.600 F800
G1 X98.000 Y81.600 F800
G1 Y84.000 F800
G1 X0.000 Y84.000 F800
G1 Y86.400 F800
G1 X98.000 Y86.400 F800
G1 Y88.800 F800
G1 X0.000 Y88.800 F800
G1 Y91.200 F800
G1 X98.000 Y91.200 F800
G1 Y93.600 F800
G1 X0.000 Y93.600 F800
G1 Y96.000 F800
G1 X98.000 Y96.000 F800
G0 Z5.0
G0 X0 Y0 Z5.0
G0 Z-5.000
G1 Z-6.000 F400
G1 X98.000 Y0.000 F800
G1 Y2.400 F800
G1 X0.000 Y2.400 F800
G1 Y4.800 F800
G1 X98.000 Y4.800 F800
G1 Y7.200 F800
G1 X0.000 Y7.200 F800
G1 Y9.600 F800
G1 X98.000 Y9.600 F800
G1 Y12.000 F800
G1 X0.000 Y12.000 F800
G1 Y14.400 F800
G1 X98.000 Y14.400 F800
G1 Y16.800 F800
G1 X0.000 Y16.800 F800
G1 Y19.200 F800
G1 X98.000 Y19.200 F800
G1 Y21.600 F800
G1 X0.000 Y21.600 F800
G1 Y24.000 F800
G1 X98.000 Y24.000 F800
G1 Y26.400 F800
G1 X0.000 Y26.400 F800
G1 Y28.800 F800
G1 X98.000 Y28.800 F800
G1 Y31.200 F800
G1 X0.000 Y31.200 F800
G1 Y33.600 F800
G1 X98.000 Y33.600 F800
G1 Y36.000 F800
G1 X0.000 Y36.000 F800
G1 Y38.400 F800
G1 X98.000 Y38.400 F800
G1 Y40.800 F800
G1 X0.000 Y40.800 F800
G1 Y43.200 F800
G1 X98.000 Y43.200 F800
G1 Y45.600 F800
G1 X0.000 Y45.600 F800
G1 Y48.000 F800
G1 X98.000 Y48.000 F800
G1 Y50.400 F800
G1 X0.000 Y50.400 F800
G1 Y52.800 F800
G1 X98.000 Y52.800 F800
G1 Y55.200 F800
G1 X0.000 Y55.200 F800
G1 Y57.600 F800
G1 X98.000 Y57.600 F800
G1 Y60.000 F800
G1 X0.000 Y60.000 F800
G1 Y62.400 F800
G1 X98.000 Y62.400 F800
G1 Y64.800 F800
G1 X0.000 Y64.800 F800
G1 Y67.200 F800
G1 X98.000 Y67.200 F800
G1 Y69.600 F800
G1 X0.000 Y69.600 F800
G1 Y72.000 F800
G1 X98.000 Y72.000 F800
G1 Y74.400 F800
G1 X0.000 Y74.400 F800
G1 Y76.800 F800
G1 X98.000 Y76.800 F800
G1 Y79.200 F800
G1 X0.000 Y79.200 F800
G1 Y81.600 F800
G1 X98.000 Y81.600 F800
G1 Y84.000 F800
G1 X0.000 Y84.000 F800
G1 Y86.400 F800
G1 X98.000 Y86.400 F800
G1 Y88.800 F800
G1 X0.000 Y88.800 F800
G1 Y91.200 F800
G1 X98.000 Y91.200 F800
G1 Y93.600 F800
G1 X0.000 Y93.600 F800
G1 Y96.000 F800
G1 X98.000 Y96.000 F800
G0 Z5.0
G0 X0 Y0 Z5.0
G0 Z-7.000
G1 Z-8.000 F400
G1 X98.000 Y0.000 F800
G1 Y2.400 F800
G1 X0.000 Y2.400 F800
G1 Y4.800 F800
G1 X98.000 Y4.800 F800
G1 Y7.200 F800
G1 X0.000 Y7.200 F800
G1 Y9.600 F800
G1 X98.000 Y9.600 F800
G1 Y12.000 F800
G1 X0.000 Y12.000 F800
G1 Y14.400 F800
G1 X98.000 Y14.400 F800
G1 Y16.800 F800
G1 X0.000 Y16.800 F800
G1 Y19.200 F800
G1 X98.000 Y19.200 F800
G1 Y21.600 F800
G1 X0.000 Y21.600 F800
G1 Y24.000 F800
G1 X98.000 Y24.000 F800
G1 Y26.400 F800
G1 X0.000 Y26.400 F800
G1 Y28.800 F800
G1 X98.000 Y28.800 F800
G1 Y31.200 F800
G1 X0.000 Y31.200 F800
G1 Y33.600 F800
G1 X98.000 Y33.600 F800
G1 Y36.000 F800
G1 X0.000 Y36.000 F800
G1 Y38.400 F800
G1 X98.000 Y38.400 F800
G1 Y40.800 F800
G1 X0.000 Y40.800 F800
G1 Y43.200 F800
G1 X98.000 Y43.200 F800
G1 Y45.600 F800
G1 X0.000 Y45.600 F800
G1 Y48.000 F800
G1 X98.000 Y48.000 F800
G1 Y50.400 F800
G1 X0.000 Y50.400 F800
G1 Y52.800 F800
G1 X98.000 Y52.800 F800
G1 Y55.200 F800
G1 X0.000 Y55.200 F800
G1 Y57.600 F800
G1 X98.000 Y57.600 F800
G1 Y60.000 F800
G1 X0.000 Y60.000 F800
G1 Y62.400 F800
G1 X98.000 Y62.400 F800
G1 Y64.800 F800
G1 X0.000 Y64.800 F800
G1 Y67.200 F800
G1 X98.000 Y67.200 F800
G1 Y69.600 F800
G1 X0.000 Y69.600 F800
G1 Y72.000 F800
G1 X98.000 Y72.000 F800
G1 Y74.400 F800
G1 X0.000 Y74.400 F800
G1 Y76.800 F800
G1 X98.000 Y76.800 F800
G1 Y79.200 F800
G1 X0.000 Y79.200 F800
G1 Y81.600 F800
G1 X98.000 Y81.600 F800
G1 Y84.000 F800
G1 X0.000 Y84.000 F800
G1 Y86.400 F800
G1 X98.000 Y86.400 F800
G1 Y88.800 F800
G1 X0.000 Y88.800 F800
G1 Y91.200 F800
G1 X98.000 Y91.200 F800
G1 Y93.600 F800
G1 X0.000 Y93.600 F800
G1 Y96.000 F800
G1 X98.000 Y96.000 F800
G0 Z5.0
G0 X0 Y0 Z5.0
G0 Z-9.000
G1 Z-10.000 F400
G1 X98.000 Y0.000 F800
G1 Y2.400 F800
G1 X0.000 Y2.400 F800
G1 Y4.800 F800
G1 X98.000 Y4.800 F800
G1 Y7.200 F800
G1 X0.000 Y7.200 F800
G1 Y9.600 F800
G1 X98.000 Y9.600 F800
G1 Y12.000 F800
G1 X0.000 Y12.000 F800
G1 Y14.400 F800
G1 X98.000 Y14.400 F800
G1 Y16.800 F800
G1 X0.000 Y16.800 F800
G1 Y19.200 F800
G1 X98.000 Y19.200 F800
G1 Y21.600 F800
G1 X0.000 Y21.600 F800
G1 Y24.000 F800
G1 X98.000 Y24.000 F800
G1 Y26.400 F800
G1 X0.000 Y26.400 F800
G1 Y28.800 F800
G1 X98.000 Y28.800 F800
G1 Y31.200 F800
G1 X0.000 Y31.200 F800
G1 Y33.600 F800
G1 X98.000 Y33.600 F800
G1 Y36.000 F800
G1 X0.000 Y36.000 F800
G1 Y38.400 F800
G1 X98.000 Y38.400 F800
G1 Y40.800 F800
G1 X0.000 Y40.800 F800
G1 Y43.200 F800
G1 X98.000 Y43.200 F800
G1 Y45.600 F800
G1 X0.000 Y45.600 F800
G1 Y48.000 F800
G1 X98.000 Y48.000 F800
G1 Y50.400 F800
G1 X0.000 Y50.400 F800
G1 Y52.800 F800
G1 X98.000 Y52.800 F800
G1 Y55.200 F800
G1 X0.000 Y55.200 F800
G1 Y57.600 F800
G1 X98.000 Y57.600 F800
G1 Y60.000 F800
G1 X0.000 Y60.000 F800
G1 Y62.400 F800
G1 X98.000 Y62.400 F800
G1 Y64.800 F800
G1 X0.000 Y64.800 F800
G1 Y67.200 F800
G1 X98.000 Y67.200 F800
G1 Y69.600 F800
G1 X0.000 Y69.600 F800
G1 Y72.000 F800
G1 X98.000 Y72.000 F800
G1 Y74.400 F800
G1 X0.000 Y74.400 F800
G1 Y76.800 F800
G1 X98.000 Y76.800 F800
G1 Y79.200 F800
G1 X0.000 Y79.200 F800
G1 Y81.600 F800
G1 X98.000 Y81.600 F800
G1 Y84.000 F800
G1 X0.000 Y84.000 F800
G1 Y86.400 F800
G1 X98.000 Y86.400 F800
G1 Y88.800 F800
G1 X0.000 Y88.800 F800
G1 Y91.200 F800
G1 X98.000 Y91.200 F800
G1 Y93.600 F800
G1 X0.000 Y93.600 F800
G1 Y96.000 F800
G1 X98.000 Y96.000 F800
G0 Z5.0
G0 X0 Y0 Z5.0
G0 Z-11.000
G1 Z-12.000 F400
G1 X98.000 Y0.000 F800
G1 Y2.400 F800
G1 X0.000 Y2.400 F800
G1 Y4.800 F800
G1 X98.000 Y4.800 F800
G1 Y7.200 F800
G1 X0.000 Y7.200 F800
G1 Y9.600 F800
G1 X98.000 Y9.600 F800
G1 Y12.000 F800
G1 X0.000 Y12.000 F800
G1 Y14.400 F800
G1 X98.000 Y14.400 F800
G1 Y16.800 F800
G1 X0.000 Y16.800 F800
G1 Y19.200 F800
G1 X98.000 Y19.200 F800
G1 Y21.600 F800
G1 X0.000 Y21.600 F800
G1 Y24.000 F800
G1 X98.000 Y24.000 F800
G1 Y26.400 F800
G1 X0.000 Y26.400 F800
G1 Y28.800 F800
G1 X98.000 Y28.800 F800
G1 Y31.200 F800
G1 X0.000 Y31.200 F800
G1 Y33.600 F800
G1 X98.000 Y33.600 F800
G1 Y36.000 F800
G1 X0.000 Y36.000 F800
G1 Y38.400 F800
G1 X98.000 Y38.400 F800
G1 Y40.800 F800
G1 X0.000 Y40.800 F800
G1 Y43.200 F800
G1 X98.000 Y43.200 F800
G1 Y45.600 F800
G1 X0.000 Y45.600 F800
G1 Y48.000 F800
G1 X98.000 Y48.000 F800
G1 Y50.400 F800
G1 X0.000 Y50.400 F800
G1 Y52.800 F800
G1 X98.000 Y52.800 F800
G1 Y55.200 F800
G1 X0.000 Y55.200 F800
G1 Y57.600 F800
G1 X98.000 Y57.600 F800
G1 Y60.000 F800
G1 X0.000 Y60.000 F800
G1 Y62.400 F800
G1 X98.000 Y62.400 F800
G1 Y64.800 F800
G1 X0.000 Y64.800 F800
G1 Y67.200 F800
G1 X98.000 Y67.200 F800
G1 Y69.600 F800
G1 X0.000 Y69.600 F800
G1 Y72.000 F800
G1 X98.000 Y72.000 F800
G1 Y74.400 F800
G1 X0.000 Y74.400 F800
G1 Y76.800 F800
G1 X98.000 Y76.800 F800
G1 Y79.200 F800
G1 X0.000 Y79.200 F800
G1 Y81.600 F800
G1 X98.000 Y81.600 F800
G1 Y84.000 F800
G1 X0.000 Y84.000 F800
G1 Y86.400 F800
G1 X98.000 Y86.400 F800
G1 Y88.800 F800
G1 X0.000 Y88.800 F800
G1 Y91.200 F800
G1 X98.000 Y91.200 F800
G1 Y93.600 F800
G1 X0.000 Y93.600 F800
G1 Y96.000 F800
G1 X98.000 Y96.000 F800
G0 Z5.0
G0 X0 Y0 Z5.0
G0 Z-13.000
G1 Z-14.000 F400
G1 X98.000 Y0.000 F800
G1 Y2.400 F800
G1 X0.000 Y2.400 F800
G1 Y4.800 F800
G1 X98.000 Y4.800 F800
G1 Y7.200 F800
G1 X0.000 Y7.200 F800
G1 Y9.600 F800
G1 X98.000 Y9.600 F800
G1 Y12.000 F800
G1 X0.000 Y12.000 F800
G1 Y14.400 F800
G1 X98.000 Y14.400 F800
G1 Y16.800 F800
G1 X0.000 Y16.800 F800
G1 Y19.200 F800
G1 X98.000 Y19.200 F800
G1 Y21.600 F800
G1 X0.000 Y21.600 F800
G1 Y24.000 F800
G1 X98.000 Y24.000 F800
G1 Y26.400 F800
G1 X0.000 Y26.400 F800
G1 Y28.800 F800
G1 X98.000 Y28.800 F800
G1 Y31.200 F800
G1 X0.000 Y31.200 F800
G1 Y33.600 F800
G1 X98.000 Y33.600 F800
G1 Y36.000 F800
G1 X0.000 Y36.000 F800
G1 Y38.400 F800
G1 X98.000 Y38.400 F800
G1 Y40.800 F800
G1 X0.000 Y40.800 F800
G1 Y43.200 F800
G1 X98.000 Y43.200 F800
G1 Y45.600 F800
G1 X0.000 Y45.600 F800
G1 Y48.000 F800
G1 X98.000 Y48.000 F800
G1 Y50.400 F800
G1 X0.000 Y50.400 F800
G1 Y52.800 F800
G1 X98.000 Y52.800 F800
G1 Y55.200 F800
G1 X0.000 Y55.200 F800
G1 Y57.600 F800
G1 X98.000 Y57.600 F800
G1 Y60.000 F800
G1 X0.000 Y60.000 F800
G1 Y62.400 F800
G1 X98.000 Y62.400 F800
G1 Y64.800 F800
G1 X0.000 Y64.800 F800
G1 Y67.200 F800
G1 X98.000 Y67.200 F800
G1 Y69.600 F800
G1 X0.000 Y69.600 F800
G1 Y72.000 F800
G1 X98.000 Y72.000 F800
G1 Y74.400 F800
G1 X0.000 Y74.400 F800
G1 Y76.800 F800
G1 X98.000 Y76.800 F800
G1 Y79.200 F800
G1 X0.000 Y79.200 F800
G1 Y81.600 F800
G1 X98.000 Y81.600 F800
G1 Y84.000 F800
G1 X0.000 Y84.000 F800
G1 Y86.400 F800
G1 X98.000 Y86.400 F800
G1 Y88.800 F800
G1 X0.000 Y88.800 F800
G1 Y91.200 F800
G1 X98.000 Y91.200 F800
G1 Y93.600 F800
G1 X0.000 Y93.600 F800
G1 Y96.000 F800
G1 X98.000 Y96.000 F800
G0 Z5.0
G0 X0 Y0 Z5.0
G0 Z-15.000
G1 Z-16.000 F400
G1 X98.000 Y0.000 F800
G1 Y2.400 F800
G1 X0.000 Y2.400 F800
G1 Y4.800 F800
G1 X98.000 Y4.800 F800
G1 Y7.200 F800
G1 X0.000 Y7.200 F800
G1 Y9.600 F800
G1 X98.000 Y9.600 F800
G1 Y12.000 F800
G1 X0.000 Y12.000 F800
G1 Y14.400 F800
G1 X98.000 Y14.400 F800
G1 Y16.800 F800
G1 X0.000 Y16.800 F800
G1 Y19.200 F800
G1 X98.000 Y19.200 F800
G1 Y21.600 F800
G1 X0.000 Y21.600 F800
G1 Y24.000 F800
G1 X98.000 Y24.000 F800
G1 Y26.400 F800
G1 X0.000 Y26.400 F800
G1 Y28.800 F800
G1 X98.000 Y28.800 F800
G1 Y31.200 F800
G1 X0.000 Y31.200 F800
G1 Y33.600 F800
G1 X98.000 Y33.600 F800
G1 Y36.000 F800
G1 X0.000 Y36.000 F800
G1 Y38.400 F800
G1 X98.000 Y38.400 F800
G1 Y40.800 F800
G1 X0.000 Y40.800 F800
G1 Y43.200 F800
G1 X98.000 Y43.200 F800
G1 Y45.600 F800
G1 X0.000 Y45.600 F800
G1 Y48.000 F800
G1 X98.000 Y48.000 F800
G1 Y50.400 F800
G1 X0.000 Y50.400 F800
G1 Y52.800 F800
G1 X98.000 Y52.800 F800
G1 Y55.200 F800
G1 X0.000 Y55.200 F800
G1 Y57.600 F800
G1 X98.000 Y57.600 F800
G1 Y60.000 F800
G1 X0.000 Y60.000 F800
G1 Y62.400 F800
G1 X98.000 Y62.400 F800
G1 Y64.800 F800
G1 X0.000 Y64.800 F800
G1 Y67.200 F800
G1 X98.000 Y67.200 F800
G1 Y69.600 F800
G1 X0.000 Y69.600 F800
G1 Y72.000 F800
G1 X98.000 Y72.000 F800
G1 Y74.400 F800
G1 X0.000 Y74.400 F800
G1 Y76.800 F800
G1 X98.000 Y76.800 F800
G1 Y79.200 F800
G1 X0.000 Y79.200 F800
G1 Y81.600 F800
G1 X98.000 Y81.600 F800
G1 Y84.000 F800
G1 X0.000 Y84.000 F800
G1 Y86.400 F800
G1 X98.000 Y86.400 F800
G1 Y88.800 F800
G1 X0.000 Y88.800 F800
G1 Y91.200 F800
G1 X98.000 Y91.200 F800
G1 Y93.600 F800
G1 X0.000 Y93.600 F800
G1 Y96.000 F800
G1 X98.000 Y96.000 F800
G0 Z5.0
G0 X0 Y0 Z5.0
G0 Z-17.000
G1 Z-18.000 F400
G1 X98.000 Y0.000 F800
G1 Y2.400 F800
G1 X0.000 Y2.400 F800
G1 Y4.800 F800
G1 X98.000 Y4.800 F800
G1 Y7.200 F800
G1 X0.000 Y7.200 F800
G1 Y9.600 F800
G1 X98.000 Y9.600 F800
G1 Y12.000 F800
G1 X0.000 Y12.000 F800
G1 Y14.400 F800
G1 X98.000 Y14.400 F800
G1 Y16.800 F800
G1 X0.000 Y16.800 F800
G1 Y19.200 F800
G1 X98.000 Y19.200 F800
G1 Y21.600 F800
G1 X0.000 Y21.600 F800
G1 Y24.000 F800
G1 X98.000 Y24.000 F800
G1 Y26.400 F800
G1 X0.000 Y26.400 F800
G1 Y28.800 F800
G1 X98.000 Y28.800 F800
G1 Y31.200 F800
G1 X0.000 Y31.200 F800
G1 Y33.600 F800
G1 X98.000 Y33.600 F800
G1 Y36.000 F800
G1 X0.000 Y36.000 F800
G1 Y38.400 F800
G1 X98.000 Y38.400 F800
G1 Y40.800 F800
G1 X0.000 Y40.800 F800
G1 Y43.200 F800
G1 X98.000 Y43.200 F800
G1 Y45.600 F800
G1 X0.000 Y45.600 F800
G1 Y48.000 F800
G1 X98.000 Y48.000 F800
G1 Y50.400 F800
G1 X0.000 Y50.400 F800
G1 Y52.800 F800
G1 X98.000 Y52.800 F800
G1 Y55.200 F800
G1 X0.000 Y55.200 F800
G1 Y57.600 F800
G1 X98.000 Y57.600 F800
G1 Y60.000 F800
G1 X0.000 Y60.000 F800
G1 Y62.400 F800
G1 X98.000 Y62.400 F800
G1 Y64.800 F800
G1 X0.000 Y64.800 F800
G1 Y67.200 F800
G1 X98.000 Y67.200 F800
G1 Y69.600 F800
G1 X0.000 Y69.600 F800
G1 Y72.000 F800
G1 X98.000 Y72.000 F800
G1 Y74.400 F800
G1 X0.000 Y74.400 F800
G1 Y76.800 F800
G1 X98.000 Y76.800 F800
G1 Y79.200 F800
G1 X0.000 Y79.200 F800
G1 Y81.600 F800
G1 X98.000 Y81.600 F800
G1 Y84.000 F800
G1 X0.000 Y84.000 F800
G1 Y86.400 F800
G1 X98.000 Y86.400 F800
G1 Y88.800 F800
G1 X0.000 Y88.800 F800
G1 Y91.200 F800
G1 X98.000 Y91.200 F800
G1 Y93.600 F800
G1 X0.000 Y93.600 F800
G1 Y96.000 F800
G1 X98.000 Y96.000 F800
G0 Z5.0
G0 X0 Y0 Z5.0
G0 Z-19.000
G1 Z-20.000 F400
G1 X98.000 Y0.000 F800
G1 Y2.400 F800
G1 X0.000 Y2.400 F800
G1 Y4.800 F800
G1 X98.000 Y4.800 F800
G1 Y7.200 F800
G1 X0.000 Y7.200 F800
G1 Y9.600 F800
G1 X98.000 Y9.600 F800
G1 Y12.000 F800
G1 X0.000 Y12.000 F800
G1 Y14.400 F800
G1 X98.000 Y14.400 F800
G1 Y16.800 F800
G1 X0.000 Y16.800 F800
G1 Y19.200 F800
G1 X98.000 Y19.200 F800
G1 Y21.600 F800
G1 X0.000 Y21.600 F800
G1 Y24.000 F800
G1 X98.000 Y24.000 F800
G1 Y26.400 F800
G1 X0.000 Y26.400 F800
G1 Y28.800 F800
G1 X98.000 Y28.800 F800
G1 Y31.200 F800
G1 X0.000 Y31.200 F800
G1 Y33.600 F800
G1 X98.000 Y33.600 F800
G1 Y36.000 F800
G1 X0.000 Y36.000 F800
G1 Y38.400 F800
G1 X98.000 Y38.400 F800
G1 Y40.800 F800
G1 X0.000 Y40.800 F800
G1 Y43.200 F800
G1 X98.000 Y43.200 F800
G1 Y45.600 F800
G1 X0.000 Y45.600 F800
G1 Y48.000 F800
G1 X98.000 Y48.000 F800
G1 Y50.400 F800
G1 X0.000 Y50.400 F800
G1 Y52.800 F800
G1 X98.000 Y52.800 F800
G1 Y55.200 F800
G1 X0.000 Y55.200 F800
G1 Y57.600 F800
G1 X98.000 Y57.600 F800
G1 Y60.000 F800
G1 X0.000 Y60.000 F800
G1 Y62.400 F800
G1 X98.000 Y62.400 F800
G1 Y64.800 F800
G1 X0.000 Y64.800 F800
G1 Y67.200 F800
G1 X98.000 Y67.200 F800
G1 Y69.600 F800
G1 X0.000 Y69.600 F800
G1 Y72.000 F800
G1 X98.000 Y72.000 F800
G1 Y74.400 F800
G1 X0.000 Y74.400 F800
G1 Y76.800 F800
G1 X98.000 Y76.800 F800
G1 Y79.200 F800
G1 X0.000 Y79.200 F800
G1 Y81.600 F800
G1 X98.000 Y81.600 F800
G1 Y84.000 F800
G1 X0.000 Y84.000 F800
G1 Y86.400 F800
G1 X98.000 Y86.400 F800
G1 Y88.800 F800
G1 X0.000 Y88.800 F800
G1 Y91.200 F800
G1 X98.000 Y91.200 F800
G1 Y93.600 F800
G1 X0.000 Y93.600 F800
G1 Y96.000 F800
G1 X98.000 Y96.000 F800
G0 Z5.0
G0 X0 Y0 Z5.0
G0 Z-21.000
G1 Z-22.000 F400
G1 X98.000 Y0.000 F800
G1 Y2.400 F800
G1 X0.000 Y2.400 F800
G1 Y4.800 F800
G1 X98.000 Y4.800 F800
G1 Y7.200 F800
G1 X0.000 Y7.200 F800
G1 Y9.600 F800
G1 X98.000 Y9.600 F800
G1 Y12.000 F800
G1 X0.000 Y12.000 F800
G1 Y14.400 F800
G1 X98.000 Y14.400 F800
G1 Y16.800 F800
G1 X0.000 Y16.800 F800
G1 Y19.200 F800
G1 X98.000 Y19.200 F800
G1 Y21.600 F800
G1 X0.000 Y21.600 F800
G1 Y24.000 F800
G1 X98.000 Y24.000 F800
G1 Y26.400 F800
G1 X0.000 Y26.400 F800
G1 Y28.800 F800
G1 X98.000 Y28.800 F800
G1 Y31.200 F800
G1 X0.000 Y31.200 F800
G1 Y33.600 F800
G1 X98.000 Y33.600 F800
G1 Y36.000 F800
G1 X0.000 Y36.000 F800
G1 Y38.400 F800
G1 X98.000 Y38.400 F800
G1 Y40.800 F800
G1 X0.000 Y40.800 F800
G1 Y43.200 F800
G1 X98.000 Y43.200 F800
G1 Y45.600 F800
G1 X0.000 Y45.600 F800
G1 Y48.000 F800
G1 X98.000 Y48.000 F800
G1 Y50.400 F800
G1 X0.000 Y50.400 F800
G1 Y52.800 F800
G1 X98.000 Y52.800 F800
G1 Y55.200 F800
G1 X0.000 Y55.200 F800
G1 Y57.600 F800
G1 X98.000 Y57.600 F800
G1 Y60.000 F800
G1 X0.000 Y60.000 F800
G1 Y62.400 F800
G1 X98.000 Y62.400 F800
G1 Y64.800 F800
G1 X0.000 Y64.800 F800
G1 Y67.200 F800
G1 X98.000 Y67.200 F800
G1 Y69.600 F800
G1 X0.000 Y69.600 F800
G1 Y72.000 F800
G1 X98.000 Y72.000 F800
G1 Y74.400 F800
G1 X0.000 Y74.400 F800
G1 Y76.800 F800
G1 X98.000 Y76.800 F800
G1 Y79.200 F800
G1 X0.000 Y79.200 F800
G1 Y81.600 F800
G1 X98.000 Y81.600 F800
G1 Y84.000 F800
G1 X0.000 Y84.000 F800
G1 Y86.400 F800
G1 X98.000 Y86.400 F800
G1 Y88.800 F800
G1 X0.000 Y88.800 F800
G1 Y91.200 F800
G1 X98.000 Y91.200 F800
G1 Y93.600 F800
G1 X0.000 Y93.600 F800
G1 Y96.000 F800
G1 X98.000 Y96.000 F800
G0 Z5.0
G0 X0 Y0 Z5.0
G0 Z-23.000
G1 Z-24.000 F400
G1 X98.000 Y0.000 F800
G1 Y2.400 F800
G1 X0.000 Y2.400 F800
G1 Y4.800 F800
G1 X98.000 Y4.800 F800
G1 Y7.200 F800
G1 X0.000 Y7.200 F800
G1 Y9.600 F800
G1 X98.000 Y9.600 F800
G1 Y12.000 F800
G1 X0.000 Y12.000 F800
G1 Y14.400 F800
G1 X98.000 Y14.400 F800
G1 Y16.800 F800
G1 X0.000 Y16.800 F800
G1 Y19.200 F800
G1 X98.000 Y19.200 F800
G1 Y21.600 F800
G1 X0.000 Y21.600 F800
G1 Y24.000 F800
G1 X98.000 Y24.000 F800
G1 Y26.400 F800
G1 X0.000 Y26.400 F800
G1 Y28.800 F800
G1 X98.000 Y28.800 F800
G1 Y31.200 F800
G1 X0.000 Y31.200 F800
G1 Y33.600 F800
G1 X98.000 Y33.600 F800
G1 Y36.000 F800
G1 X0.000 Y36.000 F800
G1 Y38.400 F800
G1 X98.000 Y38.400 F800
G1 Y40.800 F800
G1 X0.000 Y40.800 F800
G1 Y43.200 F800
G1 X98.000 Y43.200 F800
G1 Y45.600 F800
G1 X0.000 Y45.600 F800
G1 Y48.000 F800
G1 X98.000 Y48.000 F800
G1 Y50.400 F800
G1 X0.000 Y50.400 F800
G1 Y52.800 F800
G1 X98.000 Y52.800 F800
G1 Y55.200 F800
G1 X0.000 Y55.200 F800
G1 Y57.600 F800
G1 X98.000 Y57.600 F800
G1 Y60.000 F800
G1 X0.000 Y60.000 F800
G1 Y62.400 F800
G1 X98.000 Y62.400 F800
G1 Y64.800 F800
G1 X0.000 Y64.800 F800
G1 Y67.200 F800
G1 X98.000 Y67.200 F800
G1 Y69.600 F800
G1 X0.000 Y69.600 F800
G1 Y72.000 F800
G1 X98.000 Y72.000 F800
G1 Y74.400 F800
G1 X0.000 Y74.400 F800
G1 Y76.800 F800
G1 X98.000 Y76.800 F800
G1 Y79.200 F800
G1 X0.000 Y79.200 F800
G1 Y81.600 F800
G1 X98.000 Y81.600 F800
G1 Y84.000 F800
G1 X0.000 Y84.000 F800
G1 Y86.400 F800
G1 X98.000 Y86.400 F800
G1 Y88.800 F800
G1 X0.000 Y88.800 F800
G1 Y91.200 F800
G1 X98.000 Y91.200 F800
G1 Y93.600 F800
G1 X0.000 Y93.600 F800
G1 Y96.000 F800
G1 X98.000 Y96.000 F800
G0 Z5.0
G0 X0 Y0 Z5.0
G0 Z-25.000
G1 Z-26.000 F400
G1 X98.000 Y0.000 F800
G1 Y2.400 F800
G1 X0.000 Y2.400 F800
G1 Y4.800 F800
G1 X98.000 Y4.800 F800
G1 Y7.200 F800
G1 X0.000 Y7.200 F800
G1 Y9.600 F800
G1 X98.000 Y9.600 F800
G1 Y12.000 F800
G1 X0.000 Y12.000 F800
G1 Y14.400 F800
G1 X98.000 Y14.400 F800
G1 Y16.800 F800
G1 X0.000 Y16.800 F800
G1 Y19.200 F800
G1 X98.000 Y19.200 F800
G1 Y21.600 F800
G1 X0.000 Y21.600 F800
G1 Y24.000 F800
G1 X98.000 Y24.000 F800
G1 Y26.400 F800
G1 X0.000 Y26.400 F800
G1 Y28.800 F800
G1 X98.000 Y28.800 F800
G1 Y31.200 F800
G1 X0.000 Y31.200 F800
G1 Y33.600 F800
G1 X98.000 Y33.600 F800
G1 Y36.000 F800
G1 X0.000 Y36.000 F800
G1 Y38.400 F800
G1 X98.000 Y38.400 F800
G1 Y40.800 F800
G1 X0.000 Y40.800 F800
G1 Y43.200 F800
G1 X98.000 Y43.200 F800
G1 Y45.600 F800
G1 X0.000 Y45.600 F800
G1 Y48.000 F800
G1 X98.000 Y48.000 F800
G1 Y50.400 F800
G1 X0.000 Y50.400 F800
G1 Y52.800 F800
G1 X98.000 Y52.800 F800
G1 Y55.200 F800
G1 X0.000 Y55.200 F800
G1 Y57.600 F800
G1 X98.000 Y57.600 F800
G1 Y60.000 F800
G1 X0.000 Y60.000 F800
G1 Y62.400 F800
G1 X98.000 Y62.400 F800
G1 Y64.800 F800
G1 X0.000 Y64.800 F800
G1 Y67.200 F800
G1 X98.000 Y67.200 F800
G1 Y69.600 F800
G1 X0.000 Y69.600 F800
G1 Y72.000 F800
G1 X98.000 Y72.000 F800
G1 Y74.400 F800
G1 X0.000 Y74.400 F800
G1 Y76.800 F800
G1 X98.000 Y76.800 F800
G1 Y79.200 F800
G1 X0.000 Y79.200 F800
G1 Y81.600 F800
G1 X98.000 Y81.600 F800
G1 Y84.000 F800
G1 X0.000 Y84.000 F800
G1 Y86.400 F800
G1 X98.000 Y86.400 F800
G1 Y88.800 F800
G1 X0.000 Y88.800 F800
G1 Y91.200 F800
G1 X98.000 Y91.200 F800
G1 Y93.600 F800
G1 X0.000 Y93.600 F800
G1 Y96.000 F800
G1 X98.000 Y96.000 F800
G0 Z5.0
G0 X0 Y0 Z5.0
G0 Z-27.000
G1 Z-28.000 F400
G1 X98.000 Y0.000 F800
G1 Y2.400 F800
G1 X0.000 Y2.400 F800
G1 Y4.800 F800
G1 X98.000 Y4.800 F800
G1 Y7.200 F800
G1 X0.000 Y7.200 F800
G1 Y9.600 F800
G1 X98.000 Y9.600 F800
G1 Y12.000 F800
G1 X0.000 Y12.000 F800
G1 Y14.400 F800
G1 X98.000 Y14.400 F800
G1 Y16.800 F800
G1 X0.000 Y16.800 F800
G1 Y19.200 F800
G1 X98.000 Y19.200 F800
G1 Y21.600 F800
G1 X0.000 Y21.600 F800
G1 Y24.000 F800
G1 X98.000 Y24.000 F800
G1 Y26.400 F800
G1 X0.000 Y26.400 F800
G1 Y28.800 F800
G1 X98.000 Y28.800 F800
G1 Y31.200 F800
G1 X0.000 Y31.200 F800
G1 Y33.600 F800
G1 X98.000 Y33.600 F800
G1 Y36.000 F800
G1 X0.000 Y36.000 F800
G1 Y38.400 F800
G1 X98.000 Y38.400 F800
G1 Y40.800 F800
G1 X0.000 Y40.800 F800
G1 Y43.200 F800
G1 X98.000 Y43.200 F800
G1 Y45.600 F800
G1 X0.000 Y45.600 F800
G1 Y48.000 F800
G1 X98.000 Y48.000 F800
G1 Y50.400 F800
G1 X0.000 Y50.400 F800
G1 Y52.800 F800
G1 X98.000 Y52.800 F800
G1 Y55.200 F800
G1 X0.000 Y55.200 F800
G1 Y57.600 F800
G1 X98.000 Y57.600 F800
G1 Y60.000 F800
G1 X0.000 Y60.000 F800
G1 Y62.400 F800
G1 X98.000 Y62.400 F800
G1 Y64.800 F800
G1 X0.000 Y64.800 F800
G1 Y67.200 F800
G1 X98.000 Y67.200 F800
G1 Y69.600 F800
G1 X0.000 Y69.600 F800
G1 Y72.000 F800
G1 X98.000 Y72.000 F800
G1 Y74.400 F800
G1 X0.000 Y74.400 F800
G1 Y76.800 F800
G1 X98.000 Y76.800 F800
G1 Y79.200 F800
G1 X0.000 Y79.200 F800
G1 Y81.600 F800
G1 X98.000 Y81.600 F800
G1 Y84.000 F800
G1 X0.000 Y84.000 F800
G1 Y86.400 F800
G1 X98.000 Y86.400 F800
G1 Y88.800 F800
G1 X0.000 Y88.800 F800
G1 Y91.200 F800
G1 X98.000 Y91.200 F800
G1 Y93.600 F800
G1 X0.000 Y93.600 F800
G1 Y96.000 F800
G1 X98.000 Y96.000 F800
G0 Z5.0
G0 X0 Y0 Z5.0
G0 Z-29.000
G1 Z-30.000 F400
G1 X98.000 Y0.000 F800
G1 Y2.400 F800
G1 X0.000 Y2.400 F800
G1 Y4.800 F800
G1 X98.000 Y4.800 F800
G1 Y7.200 F800
G1 X0.000 Y7.200 F800
G1 Y9.600 F800
G1 X98.000 Y9.600 F800
G1 Y12.000 F800
G1 X0.000 Y12.000 F800
G1 Y14.400 F800
G1 X98.000 Y14.400 F800
G1 Y16.800 F800
G1 X0.000 Y16.800 F800
G1 Y19.200 F800
G1 X98.000 Y19.200 F800
G1 Y21.600 F800
G1 X0.000 Y21.600 F800
G1 Y24.000 F800
G1 X98.000 Y24.000 F800
G1 Y26.400 F800
G1 X0.000 Y26.400 F800
G1 Y28.800 F800
G1 X98.000 Y28.800 F800
G1 Y31.200 F800
G1 X0.000 Y31.200 F800
G1 Y33.600 F800
G1 X98.000 Y33.600 F800
G1 Y36.000 F800
G1 X0.000 Y36.000 F800
G1 Y38.400 F800
G1 X98.000 Y38.400 F800
G1 Y40.800 F800
G1 X0.000 Y40.800 F800
G1 Y43.200 F800
G1 X98.000 Y43.200 F800
G1 Y45.600 F800
G1 X0.000 Y45.600 F800
G1 Y48.000 F800
G1 X98.000 Y48.000 F800
G1 Y50.400 F800
G1 X0.000 Y50.400 F800
G1 Y52.800 F800
G1 X98.000 Y52.800 F800
G1 Y55.200 F800
G1 X0.000 Y55.200 F800
G1 Y57.600 F800
G1 X98.000 Y57.600 F800
G1 Y60.000 F800
G1 X0.000 Y60.000 F800
G1 Y62.400 F800
G1 X98.000 Y62.400 F800
G1 Y64.800 F800
G1 X0.000 Y64.800 F800
G1 Y67.200 F800
G1 X98.000 Y67.200 F800
G1 Y69.600 F800
G1 X0.000 Y69.600 F800
G1 Y72.000 F800
G1 X98.000 Y72.000 F800
G1 Y74.400 F800
G1 X0.000 Y74.400 F800
G1 Y76.800 F800
G1 X98.000 Y76.800 F800
G1 Y79.200 F800
G1 X0.000 Y79.200 F800
G1 Y81.600 F800
G1 X98.000 Y81.600 F800
G1 Y84.000 F800
G1 X0.000 Y84.000 F800
G1 Y86.400 F800
G1 X98.000 Y86.400 F800
G1 Y88.800 F800
G1 X0.000 Y88.800 F800
G1 Y91.200 F800
G1 X98.000 Y91.200 F800
G1 Y93.600 F800
G1 X0.000 Y93.600 F800
G1 Y96.000 F800
G1 X98.000 Y96.000 F800
G0 Z5.0
G0 X0 Y0 Z5.0
G0 Z-31.000
G1 Z-32.000 F400
G1 X98.000 Y0.000 F800
G1 Y2.400 F800
G1 X0.000 Y2.400 F800
G1 Y4.800 F800
G1 X98.000 Y4.800 F800
G1 Y7.200 F800
G1 X0.000 Y7.200 F800
G1 Y9.600 F800
G1 X98.000 Y9.600 F800
G1 Y12.000 F800
G1 X0.000 Y12.000 F800
G1 Y14.400 F800
G1 X98.000 Y14.400 F800
G1 Y16.800 F800
G1 X0.000 Y16.800 F800
G1 Y19.200 F800
G1 X98.000 Y19.200 F800
G1 Y21.600 F800
G1 X0.000 Y21.600 F800
G1 Y24.000 F800
G1 X98.000 Y24.000 F800
G1 Y26.400 F800
G1 X0.000 Y26.400 F800
G1 Y28.800 F800
G1 X98.000 Y28.800 F800
G1 Y31.200 F800
G1 X0.000 Y31.200 F800
G1 Y33.600 F800
G1 X98.000 Y33.600 F800
G1 Y36.000 F800
G1 X0.000 Y36.000 F800
G1 Y38.400 F800
G1 X98.000 Y38.400 F800
G1 Y40.800 F800
G1 X0.000 Y40.800 F800
G1 Y43.200 F800
G1 X98.000 Y43.200 F800
G1 Y45.600 F800
G1 X0.000 Y45.600 F800
G1 Y48.000 F800
G1 X98.000 Y48.000 F800
G1 Y50.400 F800
G1 X0.000 Y50.400 F800
G1 Y52.800 F800
G1 X98.000 Y52.800 F800
G1 Y55.200 F800
G1 X0.000 Y55.200 F800
G1 Y57.600 F800
G1 X98.000 Y57.600 F800
G1 Y60.000 F800
G1 X0.000 Y60.000 F800
G1 Y62.400 F800
G1 X98.000 Y62.400 F800
G1 Y64.800 F800
G1 X0.000 Y64.800 F800
G1 Y67.200 F800
G1 X98.000 Y67.200 F800
G1 Y69.600 F800
G1 X0.000 Y69.600 F800
G1 Y72.000 F800
G1 X98.000 Y72.000 F800
G1 Y74.400 F800
G1 X0.000 Y74.400 F800
G1 Y76.800 F800
G1 X98.000 Y76.800 F800
G1 Y79.200 F800
G1 X0.000 Y79.200 F800
G1 Y81.600 F800
G1 X98.000 Y81.600 F800
G1 Y84.000 F800
G1 X0.000 Y84.000 F800
G1 Y86.400 F800
G1 X98.000 Y86.400 F800
G1 Y88.800 F800
G1 X0.000 Y88.800 F800
G1 Y91.200 F800
G1 X98.000 Y91.200 F800
G1 Y93.600 F800
G1 X0.000 Y93.600 F800
G1 Y96.000 F800
G1 X98.000 Y96.000 F800
G0 Z5.0
G0 X0 Y0 Z5.0
G0 Z-33.000
G1 Z-34.000 F400
G1 X98.000 Y0.000 F800
G1 Y2.400 F800
G1 X0.000 Y2.400 F800
G1 Y4.800 F800
G1 X98.000 Y4.800 F800
G1 Y7.200 F800
G1 X0.000 Y7.200 F800
G1 Y9.600 F800
G1 X98.000 Y9.600 F800
G1 Y12.000 F800
G1 X0.000 Y12.000 F800
G1 Y14.400 F800
G1 X98.000 Y14.400 F800
G1 Y16.800 F800
G1 X0.000 Y16.800 F800
G1 Y19.200 F800
G1 X98.000 Y19.200 F800
G1 Y21.600 F800
G1 X0.000 Y21.600 F800
G1 Y24.000 F800
G1 X98.000 Y24.000 F800
G1 Y26.400 F800
G1 X0.000 Y26.400 F800
G1 Y28.800 F800
G1 X98.000 Y28.800 F800
G1 Y31.200 F800
G1 X0.000 Y31.200 F800
G1 Y33.600 F800
G1 X98.000 Y33.600 F800
G1 Y36.000 F800
G1 X0.000 Y36.000 F800
G1 Y38.400 F800
G1 X98.000 Y38.400 F800
G1 Y40.800 F800
G1 X0.000 Y40.800 F800
G1 Y43.200 F800
G1 X98.000 Y43.200 F800
G1 Y45.600 F800
G1 X0.000 Y45.600 F800
G1 Y48.000 F800
G1 X98.000 Y48.000 F800
G1 Y50.400 F800
G1 X0.000 Y50.400 F800
G1 Y52.800 F800
G1 X98.000 Y52.800 F800
G1 Y55.200 F800
G1 X0.000 Y55.200 F800
G1 Y57.600 F800
G1 X98.000 Y57.600 F800
G1 Y60.000 F800
G1 X0.000 Y60.000 F800
G1 Y62.400 F800
G1 X98.000 Y62.400 F800
G1 Y64.800 F800
G1 X0.000 Y64.800 F800
G1 Y67.200 F800
G1 X98.000 Y67.200 F800
G1 Y69.600 F800
G1 X0.000 Y69.600 F800
G1 Y72.000 F800
G1 X98.000 Y72.000 F800
G1 Y74.400 F800
G1 X0.000 Y74.400 F800
G1 Y76.800 F800
G1 X98.000 Y76.800 F800
G1 Y79.200 F800
G1 X0.000 Y79.200 F800
G1 Y81.600 F800
G1 X98.000 Y81.600 F800
G1 Y84.000 F800
G1 X0.000 Y84.000 F800
G1 Y86.400 F800
G1 X98.000 Y86.400 F800
G1 Y88.800 F800
G1 X0.000 Y88.800 F800
G1 Y91.200 F800
G1 X98.000 Y91.200 F800
G1 Y93.600 F800
G1 X0.000 Y93.600 F800
G1 Y96.000 F800
G1 X98.000 Y96.000 F800
G0 Z5.0
G0 X0 Y0 Z5.0
G0 Z-35.000
G1 Z-36.000 F400
G1 X98.000 Y0.000 F800
G1 Y2.400 F800
G1 X0.000 Y2.400 F800
G1 Y4.800 F800
G1 X98.000 Y4.800 F800
G1 Y7.200 F800
G1 X0.000 Y7.200 F800
G1 Y9.600 F800
G1 X98.000 Y9.600 F800
G1 Y12.000 F800
G1 X0.000 Y12.000 F800
G1 Y14.400 F800
G1 X98.000 Y14.400 F800
G1 Y16.800 F800
G1 X0.000 Y16.800 F800
G1 Y19.200 F800
G1 X98.000 Y19.200 F800
G1 Y21.600 F800
G1 X0.000 Y21.600 F800
G1 Y24.000 F800
G1 X98.000 Y24.000 F800
G1 Y26.400 F800
G1 X0.000 Y26.400 F800
G1 Y28.800 F800
G1 X98.000 Y28.800 F800
G1 Y31.200 F800
G1 X0.000 Y31.200 F800
G1 Y33.600 F800
G1 X98.000 Y33.600 F800
G1 Y36.000 F800
G1 X0.000 Y36.000 F800
G1 Y38.400 F800
G1 X98.000 Y38.400 F800
G1 Y40.800 F800
G1 X0.000 Y40.800 F800
G1 Y43.200 F800
G1 X98.000 Y43.200 F800
G1 Y45.600 F800
G1 X0.000 Y45.600 F800
G1 Y48.000 F800
G1 X98.000 Y48.000 F800
G1 Y50.400 F800
G1 X0.000 Y50.400 F800
G1 Y52.800 F800
G1 X98.000 Y52.800 F800
G1 Y55.200 F800
G1 X0.000 Y55.200 F800
G1 Y57.600 F800
G1 X98.000 Y57.600 F800
G1 Y60.000 F800
G1 X0.000 Y60.000 F800
G1 Y62.400 F800
G1 X98.000 Y62.400 F800
G1 Y64.800 F800
G1 X0.000 Y64.800 F800
G1 Y67.200 F800
G1 X98.000 Y67.200 F800
G1 Y69.600 F800
G1 X0.000 Y69.600 F800
G1 Y72.000 F800
G1 X98.000 Y72.000 F800
G1 Y74.400 F800
G1 X0.000 Y74.400 F800
G1 Y76.800 F800
G1 X98.000 Y76.800 F800
G1 Y79.200 F800
G1 X0.000 Y79.200 F800
G1 Y81.600 F800
G1 X98.000 Y81.600 F800
G1 Y84.000 F800
G1 X0.000 Y84.000 F800
G1 Y86.400 F800
G1 X98.000 Y86.400 F800
G1 Y88.800 F800
G1 X0.000 Y88.800 F800
G1 Y91.200 F800
G1 X98.000 Y91.200 F800
G1 Y93.600 F800
G1 X0.000 Y93.600 F800
G1 Y96.000 F800
G1 X98.000 Y96.000 F800
G0 Z5.0
G0 X0 Y0 Z5.0
G0 Z-37.000
G1 Z-38.000 F400
G1 X98.000 Y0.000 F800
G1 Y2.400 F800
G1 X0.000 Y2.400 F800
G1 Y4.800 F800
G1 X98.000 Y4.800 F800
G1 Y7.200 F800
G1 X0.000 Y7.200 F800
G1 Y9.600 F800
G1 X98.000 Y9.600 F800
G1 Y12.000 F800
G1 X0.000 Y12.000 F800
G1 Y14.400 F800
G1 X98.000 Y14.400 F800
G1 Y16.800 F800
G1 X0.000 Y16.800 F800
G1 Y19.200 F800
G1 X98.000 Y19.200 F800
G1 Y21.600 F800
G1 X0.000 Y21.600 F800
G1 Y24.000 F800
G1 X98.000 Y24.000 F800
G1 Y26.400 F800
G1 X0.000 Y26.400 F800
G1 Y28.800 F800
G1 X98.000 Y28.800 F800
G1 Y31.200 F800
G1 X0.000 Y31.200 F800
G1 Y33.600 F800
G1 X98.000 Y33.600 F800
G1 Y36.000 F800
G1 X0.000 Y36.000 F800
G1 Y38.400 F800
G1 X98.000 Y38.400 F800
G1 Y40.800 F800
G1 X0.000 Y40.800 F800
G1 Y43.200 F800
G1 X98.000 Y43.200 F800
G1 Y45.600 F800
G1 X0.000 Y45.600 F800
G1 Y48.000 F800
G1 X98.000 Y48.000 F800
G1 Y50.400 F800
G1 X0.000 Y50.400 F800
G1 Y52.800 F800
G1 X98.000 Y52.800 F800
G1 Y55.200 F800
G1 X0.000 Y55.200 F800
G1 Y57.600 F800
G1 X98.000 Y57.600 F800
G1 Y60.000 F800
G1 X0.000 Y60.000 F800
G1 Y62.400 F800
G1 X98.000 Y62.400 F800
G1 Y64.800 F800
G1 X0.000 Y64.800 F800
G1 Y67.200 F800
G1 X98.000 Y67.200 F800
G1 Y69.600 F800
G1 X0.000 Y69.600 F800
G1 Y72.000 F800
G1 X98.000 Y72.000 F800
G1 Y74.400 F800
G1 X0.000 Y74.400 F800
G1 Y76.800 F800
G1 X98.000 Y76.800 F800
G1 Y79.200 F800
G1 X0.000 Y79.200 F800
G1 Y81.600 F800
G1 X98.000 Y81.600 F800
G1 Y84.000 F800
G1 X0.000 Y84.000 F800
G1 Y86.400 F800
G1 X98.000 Y86.400 F800
G1 Y88.800 F800
G1 X0.000 Y88.800 F800
G1 Y91.200 F800
G1 X98.000 Y91.200 F800
G1 Y93.600 F800
G1 X0.000 Y93.600 F800
G1 Y96.000 F800
G1 X98.000 Y96.000 F800
G0 Z5.0
G0 X0 Y0 Z5.0
G0 Z-39.000
G1 Z-40.000 F400
G1 X98.000 Y0.000 F800
G1 Y2.400 F800
G1 X0.000 Y2.400 F800
G1 Y4.800 F800
G1 X98.000 Y4.800 F800
G1 Y7.200 F800
G1 X0.000 Y7.200 F800
G1 Y9.600 F800
G1 X98.000 Y9.600 F800
G1 Y12.000 F800
G1 X0.000 Y12.000 F800
G1 Y14.400 F800
G1 X98.000 Y14.400 F800
G1 Y16.800 F800
G1 X0.000 Y16.800 F800
G1 Y19.200 F800
G1 X98.000 Y19.200 F800
G1 Y21.600 F800
G1 X0.000 Y21.600 F800
G1 Y24.000 F800
G1 X98.000 Y24.000 F800
G1 Y26.400 F800
G1 X0.000 Y26.400 F800
G1 Y28.800 F800
G1 X98.000 Y28.800 F800
G1 Y31.200 F800
G1 X0.000 Y31.200 F800
G1 Y33.600 F800
G1 X98.000 Y33.600 F800
G1 Y36.000 F800
G1 X0.000 Y36.000 F800
G1 Y38.400 F800
G1 X98.000 Y38.400 F800
G1 Y40.800 F800
G1 X0.000 Y40.800 F800
G1 Y43.200 F800
G1 X98.000 Y43.200 F800
G1 Y45.600 F800
G1 X0.000 Y45.600 F800
G1 Y48.000 F800
G1 X98.000 Y48.000 F800
G1 Y50.400 F800
G1 X0.000 Y50.400 F800
G1 Y52.800 F800
G1 X98.000 Y52.800 F800
G1 Y55.200 F800
G1 X0.000 Y55.200 F800
G1 Y57.600 F800
G1 X98.000 Y57.600 F800
G1 Y60.000 F800
G1 X0.000 Y60.000 F800
G1 Y62.400 F800
G1 X98.000 Y62.400 F800
G1 Y64.800 F800
G1 X0.000 Y64.800 F800
G1 Y67.200 F800
G1 X98.000 Y67.200 F800
G1 Y69.600 F800
G1 X0.000 Y69.600 F800
G1 Y72.000 F800
G1 X98.000 Y72.000 F800
G1 Y74.400 F800
G1 X0.000 Y74.400 F800
G1 Y76.800 F800
G1 X98.000 Y76.800 F800
G1 Y79.200 F800
G1 X0.000 Y79.200 F800
G1 Y81.600 F800
G1 X98.000 Y81.600 F800
G1 Y84.000 F800
G1 X0.000 Y84.000 F800
G1 Y86.400 F800
G1 X98.000 Y86.400 F800
G1 Y88.800 F800
G1 X0.000 Y88.800 F800
G1 Y91.200 F800
G1 X98.000 Y91.200 F800
G1 Y93.600 F800
G1 X0.000 Y93.600 F800
G1 Y96.000 F800
G1 X98.000 Y96.000 F800
G0 Z5.0
G0 X0 Y0 Z5.0
G0 Z-41.000
G1 Z-42.000 F400
G1 X98.000 Y0.000 F800
G1 Y2.400 F800
G1 X0.000 Y2.400 F800
G1 Y4.800 F800
G1 X98.000 Y4.800 F800
G1 Y7.200 F800
G1 X0.000 Y7.200 F800
G1 Y9.600 F800
G1 X98.000 Y9.600 F800
G1 Y12.000 F800
G1 X0.000 Y12.000 F800
G1 Y14.400 F800
G1 X98.000 Y14.400 F800
G1 Y16.800 F800
G1 X0.000 Y16.800 F800
G1 Y19.200 F800
G1 X98.000 Y19.200 F800
G1 Y21.600 F800
G1 X0.000 Y21.600 F800
G1 Y24.000 F800
G1 X98.000 Y24.000 F800
G1 Y26.400 F800
G1 X0.000 Y26.400 F800
G1 Y28.800 F800
G1 X98.000 Y28.800 F800
G1 Y31.200 F800
G1 X0.000 Y31.200 F800
G1 Y33.600 F800
G1 X98.000 Y33.600 F800
G1 Y36.000 F800
G1 X0.000 Y36.000 F800
G1 Y38.400 F800
G1 X98.000 Y38.400 F800
G1 Y40.800 F800
G1 X0.000 Y40.800 F800
G1 Y43.200 F800
G1 X98.000 Y43.200 F800
G1 Y45.600 F800
G1 X0.000 Y45.600 F800
G1 Y48.000 F800
G1 X98.000 Y48.000 F800
G1 Y50.400 F800
G1 X0.000 Y50.400 F800
G1 Y52.800 F800
G1 X98.000 Y52.800 F800
G1 Y55.200 F800
G1 X0.000 Y55.200 F800
G1 Y57.600 F800
G1 X98.000 Y57.600 F800
G1 Y60.000 F800
G1 X0.000 Y60.000 F800
G1 Y62.400 F800
G1 X98.000 Y62.400 F800
G1 Y64.800 F800
G1 X0.000 Y64.800 F800
G1 Y67.200 F800
G1 X98.000 Y67.200 F800
G1 Y69.600 F800
G1 X0.000 Y69.600 F800
G1 Y72.000 F800
G1 X98.000 Y72.000 F800
G1 Y74.400 F800
G1 X0.000 Y74.400 F800
G1 Y76.800 F800
G1 X98.000 Y76.800 F800
G1 Y79.200 F800
G1 X0.000 Y79.200 F800
G1 Y81.600 F800
G1 X98.000 Y81.600 F800
G1 Y84.000 F800
G1 X0.000 Y84.000 F800
G1 Y86.400 F800
G1 X98.000 Y86.400 F800
G1 Y88.800 F800
G1 X0.000 Y88.800 F800
G1 Y91.200 F800
G1 X98.000 Y91.200 F800
G1 Y93.600 F800
G1 X0.000 Y93.600 F800
G1 Y96.000 F800
G1 X98.000 Y96.000 F800
G0 Z5.0
G0 X0 Y0 Z5.0
G0 Z-43.000
G1 Z-44.000 F400
G1 X98.000 Y0.000 F800
G1 Y2.400 F800
G1 X0.000 Y2.400 F800
G1 Y4.800 F800
G1 X98.000 Y4.800 F800
G1 Y7.200 F800
G1 X0.000 Y7.200 F800
G1 Y9.600 F800
G1 X98.000 Y9.600 F800
G1 Y12.000 F800
G1 X0.000 Y12.000 F800
G1 Y14.400 F800
G1 X98.000 Y14.400 F800
G1 Y16.800 F800
G1 X0.000 Y16.800 F800
G1 Y19.200 F800
G1 X98.000 Y19.200 F800
G1 Y21.600 F800
G1 X0.000 Y21.600 F800
G1 Y24.000 F800
G1 X98.000 Y24.000 F800
G1 Y26.400 F800
G1 X0.000 Y26.400 F800
G1 Y28.800 F800
G1 X98.000 Y28.800 F800
G1 Y31.200 F800
G1 X0.000 Y31.200 F800
G1 Y33.600 F800
G1 X98.000 Y33.600 F800
G1 Y36.000 F800
G1 X0.000 Y36.000 F800
G1 Y38.400 F800
G1 X98.000 Y38.400 F800
G1 Y40.800 F800
G1 X0.000 Y40.800 F800
G1 Y43.200 F800
G1 X98.000 Y43.200 F800
G1 Y45.600 F800
G1 X0.000 Y45.600 F800
G1 Y48.000 F800
G1 X98.000 Y48.000 F800
G1 Y50.400 F800
G1 X0.000 Y50.400 F800
G1 Y52.800 F800
G1 X98.000 Y52.800 F800
G1 Y55.200 F800
G1 X0.000 Y55.200 F800
G1 Y57.600 F800
G1 X98.000 Y57.600 F800
G1 Y60.000 F800
G1 X0.000 Y60.000 F800
G1 Y62.400 F800
G1 X98.000 Y62.400 F800
G1 Y64.800 F800
G1 X0.000 Y64.800 F800
G1 Y67.200 F800
G1 X98.000 Y67.200 F800
G1 Y69.600 F800
G1 X0.000 Y69.600 F800
G1 Y72.000 F800
G1 X98.000 Y72.000 F800
G1 Y74.400 F800
G1 X0.000 Y74.400 F800
G1 Y76.800 F800
G1 X98.000 Y76.800 F800
G1 Y79.200 F800
G1 X0.000 Y79.200 F800
G1 Y81.600 F800
G1 X98.000 Y81.600 F800
G1 Y84.000 F800
G1 X0.000 Y84.000 F800
G1 Y86.400 F800
G1 X98.000 Y86.400 F800
G1 Y88.800 F800
G1 X0.000 Y88.800 F800
G1 Y91.200 F800
G1 X98.000 Y91.200 F800
G1 Y93.600 F800
G1 X0.000 Y93.600 F800
G1 Y96.000 F800
G1 X98.000 Y96.000 F800
G0 Z5.0
G0 X0 Y0 Z5.0
G0 Z-45.000
G1 Z-46.000 F400
G1 X98.000 Y0.000 F800
G1 Y2.400 F800
G1 X0.000 Y2.400 F800
G1 Y4.800 F800
G1 X98.000 Y4.800 F800
G1 Y7.200 F800
G1 X0.000 Y7.200 F800
G1 Y9.600 F800
G1 X98.000 Y9.600 F800
G1 Y12.000 F800
G1 X0.000 Y12.000 F800
G1 Y14.400 F800
G1 X98.000 Y14.400 F800
G1 Y16.800 F800
G1 X0.000 Y16.800 F800
G1 Y19.200 F800
G1 X98.000 Y19.200 F800
G1 Y21.600 F800
G1 X0.000 Y21.600 F800
G1 Y24.000 F800
G1 X98.000 Y24.000 F800
G1 Y26.400 F800
G1 X0.000 Y26.400 F800
G1 Y28.800 F800
G1 X98.000 Y28.800 F800
G1 Y31.200 F800
G1 X0.000 Y31.200 F800
G1 Y33.600 F800
G1 X98.000 Y33.600 F800
G1 Y36.000 F800
G1 X0.000 Y36.000 F800
G1 Y38.400 F800
G1 X98.000 Y38.400 F800
G1 Y40.800 F800
G1 X0.000 Y40.800 F800
G1 Y43.200 F800
G1 X98.000 Y43.200 F800
G1 Y45.600 F800
G1 X0.000 Y45.600 F800
G1 Y48.000 F800
G1 X98.000 Y48.000 F800
G1 Y50.400 F800
G1 X0.000 Y50.400 F800
G1 Y52.800 F800
G1 X98.000 Y52.800 F800
G1 Y55.200 F800
G1 X0.000 Y55.200 F800
G1 Y57.600 F800
G1 X98.000 Y57.600 F800
G1 Y60.000 F800
G1 X0.000 Y60.000 F800
G1 Y62.400 F800
G1 X98.000 Y62.400 F800
G1 Y64.800 F800
G1 X0.000 Y64.800 F800
G1 Y67.200 F800
G1 X98.000 Y67.200 F800
G1 Y69.600 F800
G1 X0.000 Y69.600 F800
G1 Y72.000 F800
G1 X98.000 Y72.000 F800
G1 Y74.400 F800
G1 X0.000 Y74.400 F800
G1 Y76.800 F800
G1 X98.000 Y76.800 F800
G1 Y79.200 F800
G1 X0.000 Y79.200 F800
G1 Y81.600 F800
G1 X98.000 Y81.600 F800
G1 Y84.000 F800
G1 X0.000 Y84.000 F800
G1 Y86.400 F800
G1 X98.000 Y86.400 F800
G1 Y88.800 F800
G1 X0.000 Y88.800 F800
G1 Y91.200 F800
G1 X98.000 Y91.200 F800
G1 Y93.600 F800
G1 X0.000 Y93.600 F800
G1 Y96.000 F800
G1 X98.000 Y96.000 F800
G0 Z5.0
G0 X0 Y0 Z5.0
G0 Z-47.000
G1 Z-48.000 F400
G1 X98.000 Y0.000 F800
G1 Y2.400 F800
G1 X0.000 Y2.400 F800
G1 Y4.800 F800
G1 X98.000 Y4.800 F800
G1 Y7.200 F800
G1 X0.000 Y7.200 F800
G1 Y9.600 F800
G1 X98.000 Y9.600 F800
G1 Y12.000 F800
G1 X0.000 Y12.000 F800
G1 Y14.400 F800
G1 X98.000 Y14.400 F800
G1 Y16.800 F800
G1 X0.000 Y16.800 F800
G1 Y19.200 F800
G1 X98.000 Y19.200 F800
G1 Y21.600 F800
G1 X0.000 Y21.600 F800
G1 Y24.000 F800
G1 X98.000 Y24.000 F800
G1 Y26.400 F800
G1 X0.000 Y26.400 F800
G1 Y28.800 F800
G1 X98.000 Y28.800 F800
G1 Y31.200 F800
G1 X0.000 Y31.200 F800
G1 Y33.600 F800
G1 X98.000 Y33.600 F800
G1 Y36.000 F800
G1 X0.000 Y36.000 F800
G1 Y38.400 F800
G1 X98.000 Y38.400 F800
G1 Y40.800 F800
G1 X0.000 Y40.800 F800
G1 Y43.200 F800
G1 X98.000 Y43.200 F800
G1 Y45.600 F800
G1 X0.000 Y45.600 F800
G1 Y48.000 F800
G1 X98.000 Y48.000 F800
G1 Y50.400 F800
G1 X0.000 Y50.400 F800
G1 Y52.800 F800
G1 X98.000 Y52.800 F800
G1 Y55.200 F800
G1 X0.000 Y55.200 F800
G1 Y57.600 F800
G1 X98.000 Y57.600 F800
G1 Y60.000 F800
G1 X0.000 Y60.000 F800
G1 Y62.400 F800
G1 X98.000 Y62.400 F800
G1 Y64.800 F800
G1 X0.000 Y64.800 F800
G1 Y67.200 F800
G1 X98.000 Y67.200 F800
G1 Y69.600 F800
G1 X0.000 Y69.600 F800
G1 Y72.000 F800
G1 X98.000 Y72.000 F800
G1 Y74.400 F800
G1 X0.000 Y74.400 F800
G1 Y76.800 F800
G1 X98.000 Y76.800 F800
G1 Y79.200 F800
G1 X0.000 Y79.200 F800
G1 Y81.600 F800
G1 X98.000 Y81.600 F800
G1 Y84.000 F800
G1 X0.000 Y84.000 F800
G1 Y86.400 F800
G1 X98.000 Y86.400 F800
G1 Y88.800 F800
G1 X0.000 Y88.800 F800
G1 Y91.200 F800
G1 X98.000 Y91.200 F800
G1 Y93.600 F800
G1 X0.000 Y93.600 F800
G1 Y96.000 F800
G1 X98.000 Y96.000 F800
G0 Z5.0
G0 X0 Y0 Z5.0
G0 Z-49.000
G1 Z-50.000 F400
G1 X98.000 Y0.000 F800
G1 Y2.400 F800
G1 X0.000 Y2.400 F800
G1 Y4.800 F800
G1 X98.000 Y4.800 F800
G1 Y7.200 F800
G1 X0.000 Y7.200 F800
G1 Y9.600 F800
G1 X98.000 Y9.600 F800
G1 Y12.000 F800
G1 X0.000 Y12.000 F800
G1 Y14.400 F800
G1 X98.000 Y14.400 F800
G1 Y16.800 F800
G1 X0.000 Y16.800 F800
G1 Y19.200 F800
G1 X98.000 Y19.200 F800
G1 Y21.600 F800
G1 X0.000 Y21.600 F800
G1 Y24.000 F800
G1 X98.000 Y24.000 F800
G1 Y26.400 F800
G1 X0.000 Y26.400 F800
G1 Y28.800 F800
G1 X98.000 Y28.800 F800
G1 Y31.200 F800
G1 X0.000 Y31.200 F800
G1 Y33.600 F800
G1 X98.000 Y33.600 F800
G1 Y36.000 F800
G1 X0.000 Y36.000 F800
G1 Y38.400 F800
G1 X98.000 Y38.400 F800
G1 Y40.800 F800
G1 X0.000 Y40.800 F800
G1 Y43.200 F800
G1 X98.000 Y43.200 F800
G1 Y45.600 F800
G1 X0.000 Y45.600 F800
G1 Y48.000 F800
G1 X98.000 Y48.000 F800
G1 Y50.400 F800
G1 X0.000 Y50.400 F800
G1 Y52.800 F800
G1 X98.000 Y52.800 F800
G1 Y55.200 F800
G1 X0.000 Y55.200 F800
G1 Y57.600 F800
G1 X98.000 Y57.600 F800
G1 Y60.000 F800
G1 X0.000 Y60.000 F800
G1 Y62.400 F800
G1 X98.000 Y62.400 F800
G1 Y64.800 F800
G1 X0.000 Y64.800 F800
G1 Y67.200 F800
G1 X98.000 Y67.200 F800
G1 Y69.600 F800
G1 X0.000 Y69.600 F800
G1 Y72.000 F800
G1 X98.000 Y72.000 F800
G1 Y74.400 F800
G1 X0.000 Y74.400 F800
G1 Y76.800 F800
G1 X98.000 Y76.800 F800
G1 Y79.200 F800
G1 X0.000 Y79.200 F800
G1 Y81.600 F800
G1 X98.000 Y81.600 F800
G1 Y84.000 F800
G1 X0.000 Y84.000 F800
G1 Y86.400 F800
G1 X98.000 Y86.400 F800
G1 Y88.800 F800
G1 X0.000 Y88.800 F800
G1 Y91.200 F800
G1 X98.000 Y91.200 F800
G1 Y93.600 F800
G1 X0.000 Y93.600 F800
G1 Y96.000 F800
G1 X98.000 Y96.000 F800
G0 Z5.0
G0 X0 Y0 Z5.0
G0 Z-51.000
G1 Z-52.000 F400
G1 X98.000 Y0.000 F800
G1 Y2.400 F800
G1 X0.000 Y2.400 F800
G1 Y4.800 F800
G1 X98.000 Y4.800 F800
G1 Y7.200 F800
G1 X0.000 Y7.200 F800
G1 Y9.600 F800
G1 X98.000 Y9.600 F800
G1 Y12.000 F800
G1 X0.000 Y12.000 F800
G1 Y14.400 F800
G1 X98.000 Y14.400 F800
G1 Y16.800 F800
G1 X0.000 Y16.800 F800
G1 Y19.200 F800
G1 X98.000 Y19.200 F800
G1 Y21.600 F800
G1 X0.000 Y21.600 F800
G1 Y24.000 F800
G1 X98.000 Y24.000 F800
G1 Y26.400 F800
G1 X0.000 Y26.400 F800
G1 Y28.800 F800
G1 X98.000 Y28.800 F800
G1 Y31.200 F800
G1 X0.000 Y31.200 F800
G1 Y33.600 F800
G1 X98.000 Y33.600 F800
G1 Y36.000 F800
G1 X0.000 Y36.000 F800
G1 Y38.400 F800
G1 X98.000 Y38.400 F800
G1 Y40.800 F800
G1 X0.000 Y40.800 F800
G1 Y43.200 F800
G1 X98.000 Y43.200 F800
G1 Y45.600 F800
G1 X0.000 Y45.600 F800
G1 Y48.000 F800
G1 X98.000 Y48.000 F800
G1 Y50.400 F800
G1 X0.000 Y50.400 F800
G1 Y52.800 F800
G1 X98.000 Y52.800 F800
G1 Y55.200 F800
G1 X0.000 Y55.200 F800
G1 Y57.600 F800
G1 X98.000 Y57.600 F800
G1 Y60.000 F800
G1 X0.000 Y60.000 F800
G1 Y62.400 F800
G1 X98.000 Y62.400 F800
G1 Y64.800 F800
G1 X0.000 Y64.800 F800
G1 Y67.200 F800
G1 X98.000 Y67.200 F800
G1 Y69.600 F800
G1 X0.000 Y69.600 F800
G1 Y72.000 F800
G1 X98.000 Y72.000 F800
G1 Y74.400 F800
G1 X0.000 Y74.400 F800
G1 Y76.800 F800
G1 X98.000 Y76.800 F800
G1 Y79.200 F800
G1 X0.000 Y79.200 F800
G1 Y81.600 F800
G1 X98.000 Y81.600 F800
G1 Y84.000 F800
G1 X0.000 Y84.000 F800
G1 Y86.400 F800
G1 X98.000 Y86.400 F800
G1 Y88.800 F800
G1 X0.000 Y88.800 F800
G1 Y91.200 F800
G1 X98.000 Y91.200 F800
G1 Y93.600 F800
G1 X0.000 Y93.600 F800
G1 Y96.000 F800
G1 X98.000 Y96.000 F800
G0 Z5.0
G0 X0 Y0 Z5.0
G0 Z-53.000
G1 Z-54.000 F400
G1 X98.000 Y0.000 F800
G1 Y2.400 F800
G1 X0.000 Y2.400 F800
G1 Y4.800 F800
G1 X98.000 Y4.800 F800
G1 Y7.200 F800
G1 X0.000 Y7.200 F800
G1 Y9.600 F800
G1 X98.000 Y9.600 F800
G1 Y12.000 F800
G1 X0.000 Y12.000 F800
G1 Y14.400 F800
G1 X98.000 Y14.400 F800
G1 Y16.800 F800
G1 X0.000 Y16.800 F800
G1 Y19.200 F800
G1 X98.000 Y19.200 F800
G1 Y21.600 F800
G1 X0.000 Y21.600 F800
G1 Y24.000 F800
G1 X98.000 Y24.000 F800
G1 Y26.400 F800
G1 X0.000 Y26.400 F800
G1 Y28.800 F800
G1 X98.000 Y28.800 F800
G1 Y31.200 F800
G1 X0.000 Y31.200 F800
G1 Y33.600 F800
G1 X98.000 Y33.600 F800
G1 Y36.000 F800
G1 X0.000 Y36.000 F800
G1 Y38.400 F800
G1 X98.000 Y38.400 F800
G1 Y40.800 F800
G1 X0.000 Y40.800 F800
G1 Y43.200 F800
G1 X98.000 Y43.200 F800
G1 Y45.600 F800
G1 X0.000 Y45.600 F800
G1 Y48.000 F800
G1 X98.000 Y48.000 F800
G1 Y50.400 F800
G1 X0.000 Y50.400 F800
G1 Y52.800 F800
G1 X98.000 Y52.800 F800
G1 Y55.200 F800
G1 X0.000 Y55.200 F800
G1 Y57.600 F800
G1 X98.000 Y57.600 F800
G1 Y60.000 F800
G1 X0.000 Y60.000 F800
G1 Y62.400 F800
G1 X98.000 Y62.400 F800
G1 Y64.800 F800
G1 X0.000 Y64.800 F800
G1 Y67.200 F800
G1 X98.000 Y67.200 F800
G1 Y69.600 F800
G1 X0.000 Y69.600 F800
G1 Y72.000 F800
G1 X98.000 Y72.000 F800
G1 Y74.400 F800
G1 X0.000 Y74.400 F800
G1 Y76.800 F800
G1 X98.000 Y76.800 F800
G1 Y79.200 F800
G1 X0.000 Y79.200 F800
G1 Y81.600 F800
G1 X98.000 Y81.600 F800
G1 Y84.000 F800
G1 X0.000 Y84.000 F800
G1 Y86.400 F800
G1 X98.000 Y86.400 F800
G1 Y88.800 F800
G1 X0.000 Y88.800 F800
G1 Y91.200 F800
G1 X98.000 Y91.200 F800
G1 Y93.600 F800
G1 X0.000 Y93.600 F800
G1 Y96.000 F800
G1 X98.000 Y96.000 F800
G0 Z5.0
G0 X0 Y0 Z5.0
G0 Z-55.000
G1 Z-56.000 F400
G1 X98.000 Y0.000 F800
G1 Y2.400 F800
G1 X0.000 Y2.400 F800
G1 Y4.800 F800
G1 X98.000 Y4.800 F800
G1 Y7.200 F800
G1 X0.000 Y7.200 F800
G1 Y9.600 F800
G1 X98.000 Y9.600 F800
G1 Y12.000 F800
G1 X0.000 Y12.000 F800
G1 Y14.400 F800
G1 X98.000 Y14.400 F800
G1 Y16.800 F800
G1 X0.000 Y16.800 F800
G1 Y19.200 F800
G1 X98.000 Y19.200 F800
G1 Y21.600 F800
G1 X0.000 Y21.600 F800
G1 Y24.000 F800
G1 X98.000 Y24.000 F800
G1 Y26.400 F800
G1 X0.000 Y26.400 F800
G1 Y28.800 F800
G1 X98.000 Y28.800 F800
G1 Y31.200 F800
G1 X0.000 Y31.200 F800
G1 Y33.600 F800
G1 X98.000 Y33.600 F800
G1 Y36.000 F800
G1 X0.000 Y36.000 F800
G1 Y38.400 F800
G1 X98.000 Y38.400 F800
G1 Y40.800 F800
G1 X0.000 Y40.800 F800
G1 Y43.200 F800
G1 X98.000 Y43.200 F800
G1 Y45.600 F800
G1 X0.000 Y45.600 F800
G1 Y48.000 F800
G1 X98.000 Y48.000 F800
G1 Y50.400 F800
G1 X0.000 Y50.400 F800
G1 Y52.800 F800
G1 X98.000 Y52.800 F800
G1 Y55.200 F800
G1 X0.000 Y55.200 F800
G1 Y57.600 F800
G1 X98.000 Y57.600 F800
G1 Y60.000 F800
G1 X0.000 Y60.000 F800
G1 Y62.400 F800
G1 X98.000 Y62.400 F800
G1 Y64.800 F800
G1 X0.000 Y64.800 F800
G1 Y67.200 F800
G1 X98.000 Y67.200 F800
G1 Y69.600 F800
G1 X0.000 Y69.600 F800
G1 Y72.000 F800
G1 X98.000 Y72.000 F800
G1 Y74.400 F800
G1 X0.000 Y74.400 F800
G1 Y76.800 F800
G1 X98.000 Y76.800 F800
G1 Y79.200 F800
G1 X0.000 Y79.200 F800
G1 Y81.600 F800
G1 X98.000 Y81.600 F800
G1 Y84.000 F800
G1 X0.000 Y84.000 F800
G1 Y86.400 F800
G1 X98.000 Y86.400 F800
G1 Y88.800 F800
G1 X0.000 Y88.800 F800
G1 Y91.200 F800
G1 X98.000 Y91.200 F800
G1 Y93.600 F800
G1 X0.000 Y93.600 F800
G1 Y96.000 F800
G1 X98.000 Y96.000 F800
G0 Z5.0
G0 X0 Y0 Z5.0
G0 Z-57.000
G1 Z-58.000 F400
G1 X98.000 Y0.000 F800
G1 Y2.400 F800
G1 X0.000 Y2.400 F800
G1 Y4.800 F800
G1 X98.000 Y4.800 F800
G1 Y7.200 F800
G1 X0.000 Y7.200 F800
G1 Y9.600 F800
G1 X98.000 Y9.600 F800
G1 Y12.000 F800
G1 X0.000 Y12.000 F800
G1 Y14.400 F800
G1 X98.000 Y14.400 F800
G1 Y16.800 F800
G1 X0.000 Y16.800 F800
G1 Y19.200 F800
G1 X98.000 Y19.200 F800
G1 Y21.600 F800
G1 X0.000 Y21.600 F800
G1 Y24.000 F800
G1 X98.000 Y24.000 F800
G1 Y26.400 F800
G1 X0.000 Y26.400 F800
G1 Y28.800 F800
G1 X98.000 Y28.800 F800
G1 Y31.200 F800
G1 X0.000 Y31.200 F800
G1 Y33.600 F800
G1 X98.000 Y33.600 F800
G1 Y36.000 F800
G1 X0.000 Y36.000 F800
G1 Y38.400 F800
G1 X98.000 Y38.400 F800
G1 Y40.800 F800
G1 X0.000 Y40.800 F800
G1 Y43.200 F800
G1 X98.000 Y43.200 F800
G1 Y45.600 F800
G1 X0.000 Y45.600 F800
G1 Y48.000 F800
G1 X98.000 Y48.000 F800
G1 Y50.400 F800
G1 X0.000 Y50.400 F800
G1 Y52.800 F800
G1 X98.000 Y52.800 F800
G1 Y55.200 F800
G1 X0.000 Y55.200 F800
G1 Y57.600 F800
G1 X98.000 Y57.600 F800
G1 Y60.000 F800
G1 X0.000 Y60.000 F800
G1 Y62.400 F800
G1 X98.000 Y62.400 F800
G1 Y64.800 F800
G1 X0.000 Y64.800 F800
G1 Y67.200 F800
G1 X98.000 Y67.200 F800
G1 Y69.600 F800
G1 X0.000 Y69.600 F800
G1 Y72.000 F800
G1 X98.000 Y72.000 F800
G1 Y74.400 F800
G1 X0.000 Y74.400 F800
G1 Y76.800 F800
G1 X98.000 Y76.800 F800
G1 Y79.200 F800
G1 X0.000 Y79.200 F800
G1 Y81.600 F800
G1 X98.000 Y81.600 F800
G1 Y84.000 F800
G1 X0.000 Y84.000 F800
G1 Y86.400 F800
G1 X98.000 Y86.400 F800
G1 Y88.800 F800
G1 X0.000 Y88.800 F800
G1 Y91.200 F800
G1 X98.000 Y91.200 F800
G1 Y93.600 F800
G1 X0.000 Y93.600 F800
G1 Y96.000 F800
G1 X98.000 Y96.000 F800
G0 Z5.0
G0 X0 Y0 Z5.0
G0 Z-59.000
G1 Z-60.000 F400
G1 X98.000 Y0.000 F800
G1 Y2.400 F800
G1 X0.000 Y2.400 F800
G1 Y4.800 F800
G1 X98.000 Y4.800 F800
G1 Y7.200 F800
G1 X0.000 Y7.200 F800
G1 Y9.600 F800
G1 X98.000 Y9.600 F800
G1 Y12.000 F800
G1 X0.000 Y12.000 F800
G1 Y14.400 F800
G1 X98.000 Y14.400 F800
G1 Y16.800 F800
G1 X0.000 Y16.800 F800
G1 Y19.200 F800
G1 X98.000 Y19.200 F800
G1 Y21.600 F800
G1 X0.000 Y21.600 F800
G1 Y24.000 F800
G1 X98.000 Y24.000 F800
G1 Y26.400 F800
G1 X0.000 Y26.400 F800
G1 Y28.800 F800
G1 X98.000 Y28.800 F800
G1 Y31.200 F800
G1 X0.000 Y31.200 F800
G1 Y33.600 F800
G1 X98.000 Y33.600 F800
G1 Y36.000 F800
G1 X0.000 Y36.000 F800
G1 Y38.400 F800
G1 X98.000 Y38.400 F800
G1 Y40.800 F800
G1 X0.000 Y40.800 F800
G1 Y43.200 F800
G1 X98.000 Y43.200 F800
G1 Y45.600 F800
G1 X0.000 Y45.600 F800
G1 Y48.000 F800
G1 X98.000 Y48.000 F800
G1 Y50.400 F800
G1 X0.000 Y50.400 F800
G1 Y52.800 F800
G1 X98.000 Y52.800 F800
G1 Y55.200 F800
G1 X0.000 Y55.200 F800
G1 Y57.600 F800
G1 X98.000 Y57.600 F800
G1 Y60.000 F800
G1 X0.000 Y60.000 F800
G1 Y62.400 F800
G1 X98.000 Y62.400 F800
G1 Y64.800 F800
G1 X0.000 Y64.800 F800
G1 Y67.200 F800
G1 X98.000 Y67.200 F800
G1 Y69.600 F800
G1 X0.000 Y69.600 F800
G1 Y72.000 F800
G1 X98.000 Y72.000 F800
G1 Y74.400 F800
G1 X0.000 Y74.400 F800
G1 Y76.800 F800
G1 X98.000 Y76.800 F800
G1 Y79.200 F800
G1 X0.000 Y79.200 F800
G1 Y81.600 F800
G1 X98.000 Y81.600 F800
G1 Y84.000 F800
G1 X0.000 Y84.000 F800
G1 Y86.400 F800
G1 X98.000 Y86.400 F800
G1 Y88.800 F800
G1 X0.000 Y88.800 F800
G1 Y91.200 F800
G1 X98.000 Y91.200 F800
G1 Y93.600 F800
G1 X0.000 Y93.600 F800
G1 Y96.000 F800
G1 X98.000 Y96.000 F800
G0 Z5.0
G0 X0 Y0 Z5.0
G0 Z-61.000
G1 Z-62.000 F400
G1 X98.000 Y0.000 F800
G1 Y2.400 F800
G1 X0.000 Y2.400 F800
G1 Y4.800 F800
G1 X98.000 Y4.800 F800
G1 Y7.200 F800
G1 X0.000 Y7.200 F800
G1 Y9.600 F800
G1 X98.000 Y9.600 F800
G1 Y12.000 F800
G1 X0.000 Y12.000 F800
G1 Y14.400 F800
G1 X98.000 Y14.400 F800
G1 Y16.800 F800
G1 X0.000 Y16.800 F800
G1 Y19.200 F800
G1 X98.000 Y19.200 F800
G1 Y21.600 F800
G1 X0.000 Y21.600 F800
G1 Y24.000 F800
G1 X98.000 Y24.000 F800
G1 Y26.400 F800
G1 X0.000 Y26.400 F800
G1 Y28.800 F800
G1 X98.000 Y28.800 F800
G1 Y31.200 F800
G1 X0.000 Y31.200 F800
G1 Y33.600 F800
G1 X98.000 Y33.600 F800
G1 Y36.000 F800
G1 X0.000 Y36.000 F800
G1 Y38.400 F800
G1 X98.000 Y38.400 F800
G1 Y40.800 F800
G1 X0.000 Y40.800 F800
G1 Y43.200 F800
G1 X98.000 Y43.200 F800
G1 Y45.600 F800
G1 X0.000 Y45.600 F800
G1 Y48.000 F800
G1 X98.000 Y48.000 F800
G1 Y50.400 F800
G1 X0.000 Y50.400 F800
G1 Y52.800 F800
G1 X98.000 Y52.800 F800
G1 Y55.200 F800
G1 X0.000 Y55.200 F800
G1 Y57.600 F800
G1 X98.000 Y57.600 F800
G1 Y60.000 F800
G1 X0.000 Y60.000 F800
G1 Y62.400 F800
G1 X98.000 Y62.400 F800
G1 Y64.800 F800
G1 X0.000 Y64.800 F800
G1 Y67.200 F800
G1 X98.000 Y67.200 F800
G1 Y69.600 F800
G1 X0.000 Y69.600 F800
G1 Y72.000 F800
G1 X98.000 Y72.000 F800
G1 Y74.400 F800
G1 X0.000 Y74.400 F800
G1 Y76.800 F800
G1 X98.000 Y76.800 F800
G1 Y79.200 F800
G1 X0.000 Y79.200 F800
G1 Y81.600 F800
G1 X98.000 Y81.600 F800
G1 Y84.000 F800
G1 X0.000 Y84.000 F800
G1 Y86.400 F800
G1 X98.000 Y86.400 F800
G1 Y88.800 F800
G1 X0.000 Y88.800 F800
G1 Y91.200 F800
G1 X98.000 Y91.200 F800
G1 Y93.600 F800
G1 X0.000 Y93.600 F800
G1 Y96.000 F800
G1 X98.000 Y96.000 F800
G0 Z5.0
G0 X0 Y0 Z5.0
G0 Z-63.000
G1 Z-64.000 F400
G1 X98.000 Y0.000 F800
G1 Y2.400 F800
G1 X0.000 Y2.400 F800
G1 Y4.800 F800
G1 X98.000 Y4.800 F800
G1 Y7.200 F800
G1 X0.000 Y7.200 F800
G1 Y9.600 F800
G1 X98.000 Y9.600 F800
G1 Y12.000 F800
G1 X0.000 Y12.000 F800
G1 Y14.400 F800
G1 X98.000 Y14.400 F800
G1 Y16.800 F800
G1 X0.000 Y16.800 F800
G1 Y19.200 F800
G1 X98.000 Y19.200 F800
G1 Y21.600 F800
G1 X0.000 Y21.600 F800
G1 Y24.000 F800
G1 X98.000 Y24.000 F800
G1 Y26.400 F800
G1 X0.000 Y26.400 F800
G1 Y28.800 F800
G1 X98.000 Y28.800 F800
G1 Y31.200 F800
G1 X0.000 Y31.200 F800
G1 Y33.600 F800
G1 X98.000 Y33.600 F800
G1 Y36.000 F800
G1 X0.000 Y36.000 F800
G1 Y38.400 F800
G1 X98.000 Y38.400 F800
G1 Y40.800 F800
G1 X0.000 Y40.800 F800
G1 Y43.200 F800
G1 X98.000 Y43.200 F800
G1 Y45.600 F800
G1 X0.000 Y45.600 F800
G1 Y48.000 F800
G1 X98.000 Y48.000 F800
G1 Y50.400 F800
G1 X0.000 Y50.400 F800
G1 Y52.800 F800
G1 X98.000 Y52.800 F800
G1 Y55.200 F800
G1 X0.000 Y55.200 F800
G1 Y57.600 F800
G1 X98.000 Y57.600 F800
G1 Y60.000 F800
G1 X0.000 Y60.000 F800
G1 Y62.400 F800
G1 X98.000 Y62.400 F800
G1 Y64.800 F800
G1 X0.000 Y64.800 F800
G1 Y67.200 F800
G1 X98.000 Y67.200 F800
G1 Y69.600 F800
G1 X0.000 Y69.600 F800
G1 Y72.000 F800
G1 X98.000 Y72.000 F800
G1 Y74.400 F800
G1 X0.000 Y74.400 F800
G1 Y76.800 F800
G1 X98.000 Y76.800 F800
G1 Y79.200 F800
G1 X0.000 Y79.200 F800
G1 Y81.600 F800
G1 X98.000 Y81.600 F800
G1 Y84.000 F800
G1 X0.000 Y84.000 F800
G1 Y86.400 F800
G1 X98.000 Y86.400 F800
G1 Y88.800 F800
G1 X0.000 Y88.800 F800
G1 Y91.200 F800
G1 X98.000 Y91.200 F800
G1 Y93.600 F800
G1 X0.000 Y93.600 F800
G1 Y96.000 F800
G1 X98.000 Y96.000 F800
G0 Z5.0
G0 X0 Y0 Z5.0
G0 Z-65.000
G1 Z-66.000 F400
G1 X98.000 Y0.000 F800
G1 Y2.400 F800
G1 X0.000 Y2.400 F800
G1 Y4.800 F800
G1 X98.000 Y4.800 F800
G1 Y7.200 F800
G1 X0.000 Y7.200 F800
G1 Y9.600 F800
G1 X98.000 Y9.600 F800
G1 Y12.000 F800
G1 X0.000 Y12.000 F800
G1 Y14.400 F800
G1 X98.000 Y14.400 F800
G1 Y16.800 F800
G1 X0.000 Y16.800 F800
G1 Y19.200 F800
G1 X98.000 Y19.200 F800
G1 Y21.600 F800
G1 X0.000 Y21.600 F800
G1 Y24.000 F800
G1 X98.000 Y24.000 F800
G1 Y26.400 F800
G1 X0.000 Y26.400 F800
G1 Y28.800 F800
G1 X98.000 Y28.800 F800
G1 Y31.200 F800
G1 X0.000 Y31.200 F800
G1 Y33.600 F800
G1 X98.000 Y33.600 F800
G1 Y36.000 F800
G1 X0.000 Y36.000 F800
G1 Y38.400 F800
G1 X98.000 Y38.400 F800
G1 Y40.800 F800
G1 X0.000 Y40.800 F800
G1 Y43.200 F800
G1 X98.000 Y43.200 F800
G1 Y45.600 F800
G1 X0.000 Y45.600 F800
G1 Y48.000 F800
G1 X98.000 Y48.000 F800
G1 Y50.400 F800
G1 X0.000 Y50.400 F800
G1 Y52.800 F800
G1 X98.000 Y52.800 F800
G1 Y55.200 F800
G1 X0.000 Y55.200 F800
G1 Y57.600 F800
G1 X98.000 Y57.600 F800
G1 Y60.000 F800
G1 X0.000 Y60.000 F800
G1 Y62.400 F800
G1 X98.000 Y62.400 F800
G1 Y64.800 F800
G1 X0.000 Y64.800 F800
G1 Y67.200 F800
G1 X98.000 Y67.200 F800
G1 Y69.600 F800
G1 X0.000 Y69.600 F800
G1 Y72.000 F800
G1 X98.000 Y72.000 F800
G1 Y74.400 F800
G1 X0.000 Y74.400 F800
G1 Y76.800 F800
G1 X98.000 Y76.800 F800
G1 Y79.200 F800
G1 X0.000 Y79.200 F800
G1 Y81.600 F800
G1 X98.000 Y81.600 F800
G1 Y84.000 F800
G1 X0.000 Y84.000 F800
G1 Y86.400 F800
G1 X98.000 Y86.400 F800
G1 Y88.800 F800
G1 X0.000 Y88.800 F800
G1 Y91.200 F800
G1 X98.000 Y91.200 F800
G1 Y93.600 F800
G1 X0.000 Y93.600 F800
G1 Y96.000 F800
G1 X98.000 Y96.000 F800
G0 Z5.0
G0 X0 Y0 Z5.0
G0 Z-67.000
G1 Z-68.000 F400
G1 X98.000 Y0.000 F800
G1 Y2.400 F800
G1 X0.000 Y2.400 F800
G1 Y4.800 F800
G1 X98.000 Y4.800 F800
G1 Y7.200 F800
G1 X0.000 Y7.200 F800
G1 Y9.600 F800
G1 X98.000 Y9.600 F800
G1 Y12.000 F800
G1 X0.000 Y12.000 F800
G1 Y14.400 F800
G1 X98.000 Y14.400 F800
G1 Y16.800 F800
G1 X0.000 Y16.800 F800
G1 Y19.200 F800
G1 X98.000 Y19.200 F800
G1 Y21.600 F800
G1 X0.000 Y21.600 F800
G1 Y24.000 F800
G1 X98.000 Y24.000 F800
G1 Y26.400 F800
G1 X0.000 Y26.400 F800
G1 Y28.800 F800
G1 X98.000 Y28.800 F800
G1 Y31.200 F800
G1 X0.000 Y31.200 F800
G1 Y33.600 F800
G1 X98.000 Y33.600 F800
G1 Y36.000 F800
G1 X0.000 Y36.000 F800
G1 Y38.400 F800
G1 X98.000 Y38.400 F800
G1 Y40.800 F800
G1 X0.000 Y40.800 F800
G1 Y43.200 F800
G1 X98.000 Y43.200 F800
G1 Y45.600 F800
G1 X0.000 Y45.600 F800
G1 Y48.000 F800
G1 X98.000 Y48.000 F800
G1 Y50.400 F800
G1 X0.000 Y50.400 F800
G1 Y52.800 F800
G1 X98.000 Y52.800 F800
G1 Y55.200 F800
G1 X0.000 Y55.200 F800
G1 Y57.600 F800
G1 X98.000 Y57.600 F800
G1 Y60.000 F800
G1 X0.000 Y60.000 F800
G1 Y62.400 F800
G1 X98.000 Y62.400 F800
G1 Y64.800 F800
G1 X0.000 Y64.800 F800
G1 Y67.200 F800
G1 X98.000 Y67.200 F800
G1 Y69.600 F800
G1 X0.000 Y69.600 F800
G1 Y72.000 F800
G1 X98.000 Y72.000 F800
G1 Y74.400 F800
G1 X0.000 Y74.400 F800
G1 Y76.800 F800
G1 X98.000 Y76.800 F800
G1 Y79.200 F800
G1 X0.000 Y79.200 F800
G1 Y81.600 F800
G1 X98.000 Y81.600 F800
G1 Y84.000 F800
G1 X0.000 Y84.000 F800
G1 Y86.400 F800
G1 X98.000 Y86.400 F800
G1 Y88.800 F800
G1 X0.000 Y88.800 F800
G1 Y91.200 F800
G1 X98.000 Y91.200 F800
G1 Y93.600 F800
G1 X0.000 Y93.600 F800
G1 Y96.000 F800
G1 X98.000 Y96.000 F800
G0 Z5.0
G0 X0 Y0 Z5.0
G0 Z-69.000
G1 Z-70.000 F400
G1 X98.000 Y0.000 F800
G1 Y2.400 F800
G1 X0.000 Y2.400 F800
G1 Y4.800 F800
G1 X98.000 Y4.800 F800
G1 Y7.200 F800
G1 X0.000 Y7.200 F800
G1 Y9.600 F800
G1 X98.000 Y9.600 F800
G1 Y12.000 F800
G1 X0.000 Y12.000 F800
G1 Y14.400 F800
G1 X98.000 Y14.400 F800
G1 Y16.800 F800
G1 X0.000 Y16.800 F800
G1 Y19.200 F800
G1 X98.000 Y19.200 F800
G1 Y21.600 F800
G1 X0.000 Y21.600 F800
G1 Y24.000 F800
G1 X98.000 Y24.000 F800
G1 Y26.400 F800
G1 X0.000 Y26.400 F800
G1 Y28.800 F800
G1 X98.000 Y28.800 F800
G1 Y31.200 F800
G1 X0.000 Y31.200 F800
G1 Y33.600 F800
G1 X98.000 Y33.600 F800
G1 Y36.000 F800
G1 X0.000 Y36.000 F800
G1 Y38.400 F800
G1 X98.000 Y38.400 F800
G1 Y40.800 F800
G1 X0.000 Y40.800 F800
G1 Y43.200 F800
G1 X98.000 Y43.200 F800
G1 Y45.600 F800
G1 X0.000 Y45.600 F800
G1 Y48.000 F800
G1 X98.000 Y48.000 F800
G1 Y50.400 F800
G1 X0.000 Y50.400 F800
G1 Y52.800 F800
G1 X98.000 Y52.800 F800
G1 Y55.200 F800
G1 X0.000 Y55.200 F800
G1 Y57.600 F800
G1 X98.000 Y57.600 F800
G1 Y60.000 F800
G1 X0.000 Y60.000 F800
G1 Y62.400 F800
G1 X98.000 Y62.400 F800
G1 Y64.800 F800
G1 X0.000 Y64.800 F800
G1 Y67.200 F800
G1 X98.000 Y67.200 F800
G1 Y69.600 F800
G1 X0.000 Y69.600 F800
G1 Y72.000 F800
G1 X98.000 Y72.000 F800
G1 Y74.400 F800
G1 X0.000 Y74.400 F800
G1 Y76.800 F800
G1 X98.000 Y76.800 F800
G1 Y79.200 F800
G1 X0.000 Y79.200 F800
G1 Y81.600 F800
G1 X98.000 Y81.600 F800
G1 Y84.000 F800
G1 X0.000 Y84.000 F800
G1 Y86.400 F800
G1 X98.000 Y86.400 F800
G1 Y88.800 F800
G1 X0.000 Y88.800 F800
G1 Y91.200 F800
G1 X98.000 Y91.200 F800
G1 Y93.600 F800
G1 X0.000 Y93.600 F800
G1 Y96.000 F800
G1 X98.000 Y96.000 F800
G0 Z5.0
G0 X0 Y0 Z5.0
G0 Z-71.000
G1 Z-72.000 F400
G1 X98.000 Y0.000 F800
G1 Y2.400 F800
G1 X0.000 Y2.400 F800
G1 Y4.800 F800
G1 X98.000 Y4.800 F800
G1 Y7.200 F800
G1 X0.000 Y7.200 F800
G1 Y9.600 F800
G1 X98.000 Y9.600 F800
G1 Y12.000 F800
G1 X0.000 Y12.000 F800
G1 Y14.400 F800
G1 X98.000 Y14.400 F800
G1 Y16.800 F800
G1 X0.000 Y16.800 F800
G1 Y19.200 F800
G1 X98.000 Y19.200 F800
G1 Y21.600 F800
G1 X0.000 Y21.600 F800
G1 Y24.000 F800
G1 X98.000 Y24.000 F800
G1 Y26.400 F800
G1 X0.000 Y26.400 F800
G1 Y28.800 F800
G1 X98.000 Y28.800 F800
G1 Y31.200 F800
G1 X0.000 Y31.200 F800
G1 Y33.600 F800
G1 X98.000 Y33.600 F800
G1 Y36.000 F800
G1 X0.000 Y36.000 F800
G1 Y38.400 F800
G1 X98.000 Y38.400 F800
G1 Y40.800 F800
G1 X0.000 Y40.800 F800
G1 Y43.200 F800
G1 X98.000 Y43.200 F800
G1 Y45.600 F800
G1 X0.000 Y45.600 F800
G1 Y48.000 F800
G1 X98.000 Y48.000 F800
G1 Y50.400 F800
G1 X0.000 Y50.400 F800
G1 Y52.800 F800
G1 X98.000 Y52.800 F800
G1 Y55.200 F800
G1 X0.000 Y55.200 F800
G1 Y57.600 F800
G1 X98.000 Y57.600 F800
G1 Y60.000 F800
G1 X0.000 Y60.000 F800
G1 Y62.400 F800
G1 X98.000 Y62.400 F800
G1 Y64.800 F800
G1 X0.000 Y64.800 F800
G1 Y67.200 F800
G1 X98.000 Y67.200 F800
G1 Y69.600 F800
G1 X0.000 Y69.600 F800
G1 Y72.000 F800
G1 X98.000 Y72.000 F800
G1 Y74.400 F800
G1 X0.000 Y74.400 F800
G1 Y76.800 F800
G1 X98.000 Y76.800 F800
G1 Y79.200 F800
G1 X0.000 Y79.200 F800
G1 Y81.600 F800
G1 X98.000 Y81.600 F800
G1 Y84.000 F800
G1 X0.000 Y84.000 F800
G1 Y86.400 F800
G1 X98.000 Y86.400 F800
G1 Y88.800 F800
G1 X0.000 Y88.800 F800
G1 Y91.200 F800
G1 X98.000 Y91.200 F800
G1 Y93.600 F800
G1 X0.000 Y93.600 F800
G1 Y96.000 F800
G1 X98.000 Y96.000 F800
G0 Z5.0
G0 X0 Y0 Z5.0
G0 Z-73.000
G1 Z-74.000 F400
G1 X98.000 Y0.000 F800
G1 Y2.400 F800
G1 X0.000 Y2.400 F800
G1 Y4.800 F800
G1 X98.000 Y4.800 F800
G1 Y7.200 F800
G1 X0.000 Y7.200 F800
G1 Y9.600 F800
G1 X98.000 Y9.600 F800
G1 Y12.000 F800
G1 X0.000 Y12.000 F800
G1 Y14.400 F800
G1 X98.000 Y14.400 F800
G1 Y16.800 F800
G1 X0.000 Y16.800 F800
G1 Y19.200 F800
G1 X98.000 Y19.200 F800
G1 Y21.600 F800
G1 X0.000 Y21.600 F800
G1 Y24.000 F800
G1 X98.000 Y24.000 F800
G1 Y26.400 F800
G1 X0.000 Y26.400 F800
G1 Y28.800 F800
G1 X98.000 Y28.800 F800
G1 Y31.200 F800
G1 X0.000 Y31.200 F800
G1 Y33.600 F800
G1 X98.000 Y33.600 F800
G1 Y36.000 F800
G1 X0.000 Y36.000 F800
G1 Y38.400 F800
G1 X98.000 Y38.400 F800
G1 Y40.800 F800
G1 X0.000 Y40.800 F800
G1 Y43.200 F800
G1 X98.000 Y43.200 F800
G1 Y45.600 F800
G1 X0.000 Y45.600 F800
G1 Y48.000 F800
G1 X98.000 Y48.000 F800
G1 Y50.400 F800
G1 X0.000 Y50.400 F800
G1 Y52.800 F800
G1 X98.000 Y52.800 F800
G1 Y55.200 F800
G1 X0.000 Y55.200 F800
G1 Y57.600 F800
G1 X98.000 Y57.600 F800
G1 Y60.000 F800
G1 X0.000 Y60.000 F800
G1 Y62.400 F800
G1 X98.000 Y62.400 F800
G1 Y64.800 F800
G1 X0.000 Y64.800 F800
G1 Y67.200 F800
G1 X98.000 Y67.200 F800
G1 Y69.600 F800
G1 X0.000 Y69.600 F800
G1 Y72.000 F800
G1 X98.000 Y72.000 F800
G1 Y74.400 F800
G1 X0.000 Y74.400 F800
G1 Y76.800 F800
G1 X98.000 Y76.800 F800
G1 Y79.200 F800
G1 X0.000 Y79.200 F800
G1 Y81.600 F800
G1 X98.000 Y81.600 F800
G1 Y84.000 F800
G1 X0.000 Y84.000 F800
G1 Y86.400 F800
G1 X98.000 Y86.400 F800
G1 Y88.800 F800
G1 X0.000 Y88.800 F800
G1 Y91.200 F800
G1 X98.000 Y91.200 F800
G1 Y93.600 F800
G1 X0.000 Y93.600 F800
G1 Y96.000 F800
G1 X98.000 Y96.000 F800
G0 Z5.0
G0 X0 Y0 Z5.0
G0 Z-75.000
G1 Z-76.000 F400
G1 X98.000 Y0.000 F800
G1 Y2.400 F800
G1 X0.000 Y2.400 F800
G1 Y4.800 F800
G1 X98.000 Y4.800 F800
G1 Y7.200 F800
G1 X0.000 Y7.200 F800
G1 Y9.600 F800
G1 X98.000 Y9.600 F800
G1 Y12.000 F800
G1 X0.000 Y12.000 F800
G1 Y14.400 F800
G1 X98.000 Y14.400 F800
G1 Y16.800 F800
G1 X0.000 Y16.800 F800
G1 Y19.200 F800
G1 X98.000 Y19.200 F800
G1 Y21.600 F800
G1 X0.000 Y21.600 F800
G1 Y24.000 F800
G1 X98.000 Y24.000 F800
G1 Y26.400 F800
G1 X0.000 Y26.400 F800
G1 Y28.800 F800
G1 X98.000 Y28.800 F800
G1 Y31.200 F800
G1 X0.000 Y31.200 F800
G1 Y33.600 F800
G1 X98.000 Y33.600 F800
G1 Y36.000 F800
G1 X0.000 Y36.000 F800
G1 Y38.400 F800
G1 X98.000 Y38.400 F800
G1 Y40.800 F800
G1 X0.000 Y40.800 F800
G1 Y43.200 F800
G1 X98.000 Y43.200 F800
G1 Y45.600 F800
G1 X0.000 Y45.600 F800
G1 Y48.000 F800
G1 X98.000 Y48.000 F800
G1 Y50.400 F800
G1 X0.000 Y50.400 F800
G1 Y52.800 F800
G1 X98.000 Y52.800 F800
G1 Y55.200 F800
G1 X0.000 Y55.200 F800
G1 Y57.600 F800
G1 X98.000 Y57.600 F800
G1 Y60.000 F800
G1 X0.000 Y60.000 F800
G1 Y62.400 F800
G1 X98.000 Y62.400 F800
G1 Y64.800 F800
G1 X0.000 Y64.800 F800
G1 Y67.200 F800
G1 X98.000 Y67.200 F800
G1 Y69.600 F800
G1 X0.000 Y69.600 F800
G1 Y72.000 F800
G1 X98.000 Y72.000 F800
G1 Y74.400 F800
G1 X0.000 Y74.400 F800
G1 Y76.800 F800
G1 X98.000 Y76.800 F800
G1 Y79.200 F800
G1 X0.000 Y79.200 F800
G1 Y81.600 F800
G1 X98.000 Y81.600 F800
G1 Y84.000 F800
G1 X0.000 Y84.000 F800
G1 Y86.400 F800
G1 X98.000 Y86.400 F800
G1 Y88.800 F800
G1 X0.000 Y88.800 F800
G1 Y91.200 F800
G1 X98.000 Y91.200 F800
G1 Y93.600 F800
G1 X0.000 Y93.600 F800
G1 Y96.000 F800
G1 X98.000 Y96.000 F800
G0 Z5.0
G0 X0 Y0 Z5.0
G0 Z-77.000
G1 Z-78.000 F400
G1 X98.000 Y0.000 F800
G1 Y2.400 F800
G1 X0.000 Y2.400 F800
G1 Y4.800 F800
G1 X98.000 Y4.800 F800
G1 Y7.200 F800
G1 X0.000 Y7.200 F800
G1 Y9.600 F800
G1 X98.000 Y9.600 F800
G1 Y12.000 F800
G1 X0.000 Y12.000 F800
G1 Y14.400 F800
G1 X98.000 Y14.400 F800
G1 Y16.800 F800
G1 X0.000 Y16.800 F800
G1 Y19.200 F800
G1 X98.000 Y19.200 F800
G1 Y21.600 F800
G1 X0.000 Y21.600 F800
G1 Y24.000 F800
G1 X98.000 Y24.000 F800
G1 Y26.400 F800
G1 X0.000 Y26.400 F800
G1 Y28.800 F800
G1 X98.000 Y28.800 F800
G1 Y31.200 F800
G1 X0.000 Y31.200 F800
G1 Y33.600 F800
G1 X98.000 Y33.600 F800
G1 Y36.000 F800
G1 X0.000 Y36.000 F800
G1 Y38.400 F800
G1 X98.000 Y38.400 F800
G1 Y40.800 F800
G1 X0.000 Y40.800 F800
G1 Y43.200 F800
G1 X98.000 Y43.200 F800
G1 Y45.600 F800
G1 X0.000 Y45.600 F800
G1 Y48.000 F800
G1 X98.000 Y48.000 F800
G1 Y50.400 F800
G1 X0.000 Y50.400 F800
G1 Y52.800 F800
G1 X98.000 Y52.800 F800
G1 Y55.200 F800
G1 X0.000 Y55.200 F800
G1 Y57.600 F800
G1 X98.000 Y57.600 F800
G1 Y60.000 F800
G1 X0.000 Y60.000 F800
G1 Y62.400 F800
G1 X98.000 Y62.400 F800
G1 Y64.800 F800
G1 X0.000 Y64.800 F800
G1 Y67.200 F800
G1 X98.000 Y67.200 F800
G1 Y69.600 F800
G1 X0.000 Y69.600 F800
G1 Y72.000 F800
G1 X98.000 Y72.000 F800
G1 Y74.400 F800
G1 X0.000 Y74.400 F800
G1 Y76.800 F800
G1 X98.000 Y76.800 F800
G1 Y79.200 F800
G1 X0.000 Y79.200 F800
G1 Y81.600 F800
G1 X98.000 Y81.600 F800
G1 Y84.000 F800
G1 X0.000 Y84.000 F800
G1 Y86.400 F800
G1 X98.000 Y86.400 F800
G1 Y88.800 F800
G1 X0.000 Y88.800 F800
G1 Y91.200 F800
G1 X98.000 Y91.200 F800
G1 Y93.600 F800
G1 X0.000 Y93.600 F800
G1 Y96.000 F800
G1 X98.000 Y96.000 F800
G0 Z5.0
G0 X0 Y0 Z5.0
G0 Z-79.000
G1 Z-80.000 F400
G1 X98.000 Y0.000 F800
G1 Y2.400 F800
G1 X0.000 Y2.400 F800
G1 Y4.800 F800
G1 X98.000 Y4.800 F800
G1 Y7.200 F800
G1 X0.000 Y7.200 F800
G1 Y9.600 F800
G1 X98.000 Y9.600 F800
G1 Y12.000 F800
G1 X0.000 Y12.000 F800
G1 Y14.400 F800
G1 X98.000 Y14.400 F800
G1 Y16.800 F800
G1 X0.000 Y16.800 F800
G1 Y19.200 F800
G1 X98.000 Y19.200 F800
G1 Y21.600 F800
G1 X0.000 Y21.600 F800
G1 Y24.000 F800
G1 X98.000 Y24.000 F800
G1 Y26.400 F800
G1 X0.000 Y26.400 F800
G1 Y28.800 F800
G1 X98.000 Y28.800 F800
G1 Y31.200 F800
G1 X0.000 Y31.200 F800
G1 Y33.600 F800
G1 X98.000 Y33.600 F800
G1 Y36.000 F800
G1 X0.000 Y36.000 F800
G1 Y38.400 F800
G1 X98.000 Y38.400 F800
G1 Y40.800 F800
G1 X0.000 Y40.800 F800
G1 Y43.200 F800
G1 X98.000 Y43.200 F800
G1 Y45.600 F800
G1 X0.000 Y45.600 F800
G1 Y48.000 F800
G1 X98.000 Y48.000 F800
G1 Y50.400 F800
G1 X0.000 Y50.400 F800
G1 Y52.800 F800
G1 X98.000 Y52.800 F800
G1 Y55.200 F800
G1 X0.000 Y55.200 F800
G1 Y57.600 F800
G1 X98.000 Y57.600 F800
G1 Y60.000 F800
G1 X0.000 Y60.000 F800
G1 Y62.400 F800
G1 X98.000 Y62.400 F800
G1 Y64.800 F800
G1 X0.000 Y64.800 F800
G1 Y67.200 F800
G1 X98.000 Y67.200 F800
G1 Y69.600 F800
G1 X0.000 Y69.600 F800
G1 Y72.000 F800
G1 X98.000 Y72.000 F800
G1 Y74.400 F800
G1 X0.000 Y74.400 F800
G1 Y76.800 F800
G1 X98.000 Y76.800 F800
G1 Y79.200 F800
G1 X0.000 Y79.200 F800
G1 Y81.600 F800
G1 X98.000 Y81.600 F800
G1 Y84.000 F800
G1 X0.000 Y84.000 F800
G1 Y86.400 F800
G1 X98.000 Y86.400 F800
G1 Y88.800 F800
G1 X0.000 Y88.800 F800
G1 Y91.200 F800
G1 X98.000 Y91.200 F800
G1 Y93.600 F800
G1 X0.000 Y93.600 F800
G1 Y96.000 F800
G1 X98.000 Y96.000 F800
G0 Z5.0
G0 X0 Y0 Z5.0
G0 Z-81.000
G1 Z-82.000 F400
G1 X98.000 Y0.000 F800
G1 Y2.400 F800
G1 X0.000 Y2.400 F800
G1 Y4.800 F800
G1 X98.000 Y4.800 F800
G1 Y7.200 F800
G1 X0.000 Y7.200 F800
G1 Y9.600 F800
G1 X98.000 Y9.600 F800
G1 Y12.000 F800
G1 X0.000 Y12.000 F800
G1 Y14.400 F800
G1 X98.000 Y14.400 F800
G1 Y16.800 F800
G1 X0.000 Y16.800 F800
G1 Y19.200 F800
G1 X98.000 Y19.200 F800
G1 Y21.600 F800
G1 X0.000 Y21.600 F800
G1 Y24.000 F800
G1 X98.000 Y24.000 F800
G1 Y26.400 F800
G1 X0.000 Y26.400 F800
G1 Y28.800 F800
G1 X98.000 Y28.800 F800
G1 Y31.200 F800
G1 X0.000 Y31.200 F800
G1 Y33.600 F800
G1 X98.000 Y33.600 F800
G1 Y36.000 F800
G1 X0.000 Y36.000 F800
G1 Y38.400 F800
G1 X98.000 Y38.400 F800
G1 Y40.800 F800
G1 X0.000 Y40.800 F800
G1 Y43.200 F800
G1 X98.000 Y43.200 F800
G1 Y45.600 F800
G1 X0.000 Y45.600 F800
G1 Y48.000 F800
G1 X98.000 Y48.000 F800
G1 Y50.400 F800
G1 X0.000 Y50.400 F800
G1 Y52.800 F800
G1 X98.000 Y52.800 F800
G1 Y55.200 F800
G1 X0.000 Y55.200 F800
G1 Y57.600 F800
G1 X98.000 Y57.600 F800
G1 Y60.000 F800
G1 X0.000 Y60.000 F800
G1 Y62.400 F800
G1 X98.000 Y62.400 F800
G1 Y64.800 F800
G1 X0.000 Y64.800 F800
G1 Y67.200 F800
G1 X98.000 Y67.200 F800
G1 Y69.600 F800
G1 X0.000 Y69.600 F800
G1 Y72.000 F800
G1 X98.000 Y72.000 F800
G1 Y74.400 F800
G1 X0.000 Y74.400 F800
G1 Y76.800 F800
G1 X98.000 Y76.800 F800
G1 Y79.200 F800
G1 X0.000 Y79.200 F800
G1 Y81.600 F800
G1 X98.000 Y81.600 F800
G1 Y84.000 F800
G1 X0.000 Y84.000 F800
G1 Y86.400 F800
G1 X98.000 Y86.400 F800
G1 Y88.800 F800
G1 X0.000 Y88.800 F800
G1 Y91.200 F800
G1 X98.000 Y91.200 F800
G1 Y93.600 F800
G1 X0.000 Y93.600 F800
G1 Y96.000 F800
G1 X98.000 Y96.000 F800
G0 Z5.0
G0 X0 Y0 Z5.0
G0 Z-83.000
G1 Z-84.000 F400
G1 X98.000 Y0.000 F800
G1 Y2.400 F800
G1 X0.000 Y2.400 F800
G1 Y4.800 F800
G1 X98.000 Y4.800 F800
G1 Y7.200 F800
G1 X0.000 Y7.200 F800
G1 Y9.600 F800
G1 X98.000 Y9.600 F800
G1 Y12.000 F800
G1 X0.000 Y12.000 F800
G1 Y14.400 F800
G1 X98.000 Y14.400 F800
G1 Y16.800 F800
G1 X0.000 Y16.800 F800
G1 Y19.200 F800
G1 X98.000 Y19.200 F800
G1 Y21.600 F800
G1 X0.000 Y21.600 F800
G1 Y24.000 F800
G1 X98.000 Y24.000 F800
G1 Y26.400 F800
G1 X0.000 Y26.400 F800
G1 Y28.800 F800
G1 X98.000 Y28.800 F800
G1 Y31.200 F800
G1 X0.000 Y31.200 F800
G1 Y33.600 F800
G1 X98.000 Y33.600 F800
G1 Y36.000 F800
G1 X0.000 Y36.000 F800
G1 Y38.400 F800
G1 X98.000 Y38.400 F800
G1 Y40.800 F800
G1 X0.000 Y40.800 F800
G1 Y43.200 F800
G1 X98.000 Y43.200 F800
G1 Y45.600 F800
G1 X0.000 Y45.600 F800
G1 Y48.000 F800
G1 X98.000 Y48.000 F800
G1 Y50.400 F800
G1 X0.000 Y50.400 F800
G1 Y52.800 F800
G1 X98.000 Y52.800 F800
G1 Y55.200 F800
G1 X0.000 Y55.200 F800
G1 Y57.600 F800
G1 X98.000 Y57.600 F800
G1 Y60.000 F800
G1 X0.000 Y60.000 F800
G1 Y62.400 F800
G1 X98.000 Y62.400 F800
G1 Y64.800 F800
G1 X0.000 Y64.800 F800
G1 Y67.200 F800
G1 X98.000 Y67.200 F800
G1 Y69.600 F800
G1 X0.000 Y69.600 F800
G1 Y72.000 F800
G1 X98.000 Y72.000 F800
G1 Y74.400 F800
G1 X0.000 Y74.400 F800
G1 Y76.800 F800
G1 X98.000 Y76.800 F800
G1 Y79.200 F800
G1 X0.000 Y79.200 F800
G1 Y81.600 F800
G1 X98.000 Y81.600 F800
G1 Y84.000 F800
G1 X0.000 Y84.000 F800
G1 Y86.400 F800
G1 X98.000 Y86.400 F800
G1 Y88.800 F800
G1 X0.000 Y88.800 F800
G1 Y91.200 F800
G1 X98.000 Y91.200 F800
G1 Y93.600 F800
G1 X0.000 Y93.600 F800
G1 Y96.000 F800
G1 X98.000 Y96.000 F800
G0 Z5.0
G0 X0 Y0 Z5.0
G0 Z-85.000
G1 Z-86.000 F400
G1 X98.000 Y0.000 F800
G1 Y2.400 F800
G1 X0.000 Y2.400 F800
G1 Y4.800 F800
G1 X98.000 Y4.800 F800
G1 Y7.200 F800
G1 X0.000 Y7.200 F800
G1 Y9.600 F800
G1 X98.000 Y9.600 F800
G1 Y12.000 F800
G1 X0.000 Y12.000 F800
G1 Y14.400 F800
G1 X98.000 Y14.400 F800
G1 Y16.800 F800
G1 X0.000 Y16.800 F800
G1 Y19.200 F800
G1 X98.000 Y19.200 F800
G1 Y21.600 F800
G1 X0.000 Y21.600 F800
G1 Y24.000 F800
G1 X98.000 Y24.000 F800
G1 Y26.400 F800
G1 X0.000 Y26.400 F800
G1 Y28.800 F800
G1 X98.000 Y28.800 F800
G1 Y31.200 F800
G1 X0.000 Y31.200 F800
G1 Y33.600 F800
G1 X98.000 Y33.600 F800
G1 Y36.000 F800
G1 X0.000 Y36.000 F800
G1 Y38.400 F800
G1 X98.000 Y38.400 F800
G1 Y40.800 F800
G1 X0.000 Y40.800 F800
G1 Y43.200 F800
G1 X98.000 Y43.200 F800
G1 Y45.600 F800
G1 X0.000 Y45.600 F800
G1 Y48.000 F800
G1 X98.000 Y48.000 F800
G1 Y50.400 F800
G1 X0.000 Y50.400 F800
G1 Y52.800 F800
G1 X98.000 Y52.800 F800
G1 Y55.200 F800
G1 X0.000 Y55.200 F800
G1 Y57.600 F800
G1 X98.000 Y57.600 F800
G1 Y60.000 F800
G1 X0.000 Y60.000 F800
G1 Y62.400 F800
G1 X98.000 Y62.400 F800
G1 Y64.800 F800
G1 X0.000 Y64.800 F800
G1 Y67.200 F800
G1 X98.000 Y67.200 F800
G1 Y69.600 F800
G1 X0.000 Y69.600 F800
G1 Y72.000 F800
G1 X98.000 Y72.000 F800
G1 Y74.400 F800
G1 X0.000 Y74.400 F800
G1 Y76.800 F800
G1 X98.000 Y76.800 F800
G1 Y79.200 F800
G1 X0.000 Y79.200 F800
G1 Y81.600 F800
G1 X98.000 Y81.600 F800
G1 Y84.000 F800
G1 X0.000 Y84.000 F800
G1 Y86.400 F800
G1 X98.000 Y86.400 F800
G1 Y88.800 F800
G1 X0.000 Y88.800 F800
G1 Y91.200 F800
G1 X98.000 Y91.200 F800
G1 Y93.600 F800
G1 X0.000 Y93.600 F800
G1 Y96.000 F800
G1 X98.000 Y96.000 F800
G0 Z5.0
G0 X0 Y0 Z5.0
G0 Z-87.000
G1 Z-88.000 F400
G1 X98.000 Y0.000 F800
G1 Y2.400 F800
G1 X0.000 Y2.400 F800
G1 Y4.800 F800
G1 X98.000 Y4.800 F800
G1 Y7.200 F800
G1 X0.000 Y7.200 F800
G1 Y9.600 F800
G1 X98.000 Y9.600 F800
G1 Y12.000 F800
G1 X0.000 Y12.000 F800
G1 Y14.400 F800
G1 X98.000 Y14.400 F800
G1 Y16.800 F800
G1 X0.000 Y16.800 F800
G1 Y19.200 F800
G1 X98.000 Y19.200 F800
G1 Y21.600 F800
G1 X0.000 Y21.600 F800
G1 Y24.000 F800
G1 X98.000 Y24.000 F800
G1 Y26.400 F800
G1 X0.000 Y26.400 F800
G1 Y28.800 F800
G1 X98.000 Y28.800 F800
G1 Y31.200 F800
G1 X0.000 Y31.200 F800
G1 Y33.600 F800
G1 X98.000 Y33.600 F800
G1 Y36.000 F800
G1 X0.000 Y36.000 F800
G1 Y38.400 F800
G1 X98.000 Y38.400 F800
G1 Y40.800 F800
G1 X0.000 Y40.800 F800
G1 Y43.200 F800
G1 X98.000 Y43.200 F800
G1 Y45.600 F800
G1 X0.000 Y45.600 F800
G1 Y48.000 F800
G1 X98.000 Y48.000 F800
G1 Y50.400 F800
G1 X0.000 Y50.400 F800
G1 Y52.800 F800
G1 X98.000 Y52.800 F800
G1 Y55.200 F800
G1 X0.000 Y55.200 F800
G1 Y57.600 F800
G1 X98.000 Y57.600 F800
G1 Y60.000 F800
G1 X0.000 Y60.000 F800
G1 Y62.400 F800
G1 X98.000 Y62.400 F800
G1 Y64.800 F800
G1 X0.000 Y64.800 F800
G1 Y67.200 F800
G1 X98.000 Y67.200 F800
G1 Y69.600 F800
G1 X0.000 Y69.600 F800
G1 Y72.000 F800
G1 X98.000 Y72.000 F800
G1 Y74.400 F800
G1 X0.000 Y74.400 F800
G1 Y76.800 F800
G1 X98.000 Y76.800 F800
G1 Y79.200 F800
G1 X0.000 Y79.200 F800
G1 Y81.600 F800
G1 X98.000 Y81.600 F800
G1 Y84.000 F800
G1 X0.000 Y84.000 F800
G1 Y86.400 F800
G1 X98.000 Y86.400 F800
G1 Y88.800 F800
G1 X0.000 Y88.800 F800
G1 Y91.200 F800
G1 X98.000 Y91.200 F800
G1 Y93.600 F800
G1 X0.000 Y93.600 F800
G1 Y96.000 F800
G1 X98.000 Y96.000 F800
G0 Z5.0
G0 X0 Y0 Z5.0
G0 Z-89.000
G1 Z-90.000 F400
G1 X98.000 Y0.000 F800
G1 Y2.400 F800
G1 X0.000 Y2.400 F800
G1 Y4.800 F800
G1 X98.000 Y4.800 F800
G1 Y7.200 F800
G1 X0.000 Y7.200 F800
G1 Y9.600 F800
G1 X98.000 Y9.600 F800
G1 Y12.000 F800
G1 X0.000 Y12.000 F800
G1 Y14.400 F800
G1 X98.000 Y14.400 F800
G1 Y16.800 F800
G1 X0.000 Y16.800 F800
G1 Y19.200 F800
G1 X98.000 Y19.200 F800
G1 Y21.600 F800
G1 X0.000 Y21.600 F800
G1 Y24.000 F800
G1 X98.000 Y24.000 F800
G1 Y26.400 F800
G1 X0.000 Y26.400 F800
G1 Y28.800 F800
G1 X98.000 Y28.800 F800
G1 Y31.200 F800
G1 X0.000 Y31.200 F800
G1 Y33.600 F800
G1 X98.000 Y33.600 F800
G1 Y36.000 F800
G1 X0.000 Y36.000 F800
G1 Y38.400 F800
G1 X98.000 Y38.400 F800
G1 Y40.800 F800
G1 X0.000 Y40.800 F800
G1 Y43.200 F800
G1 X98.000 Y43.200 F800
G1 Y45.600 F800
G1 X0.000 Y45.600 F800
G1 Y48.000 F800
G1 X98.000 Y48.000 F800
G1 Y50.400 F800
G1 X0.000 Y50.400 F800
G1 Y52.800 F800
G1 X98.000 Y52.800 F800
G1 Y55.200 F800
G1 X0.000 Y55.200 F800
G1 Y57.600 F800
G1 X98.000 Y57.600 F800
G1 Y60.000 F800
G1 X0.000 Y60.000 F800
G1 Y62.400 F800
G1 X98.000 Y62.400 F800
G1 Y64.800 F800
G1 X0.000 Y64.800 F800
G1 Y67.200 F800
G1 X98.000 Y67.200 F800
G1 Y69.600 F800
G1 X0.000 Y69.600 F800
G1 Y72.000 F800
G1 X98.000 Y72.000 F800
G1 Y74.400 F800
G1 X0.000 Y74.400 F800
G1 Y76.800 F800
G1 X98.000 Y76.800 F800
G1 Y79.200 F800
G1 X0.000 Y79.200 F800
G1 Y81.600 F800
G1 X98.000 Y81.600 F800
G1 Y84.000 F800
G1 X0.000 Y84.000 F800
G1 Y86.400 F800
G1 X98.000 Y86.400 F800
G1 Y88.800 F800
G1 X0.000 Y88.800 F800
G1 Y91.200 F800
G1 X98.000 Y91.200 F800
G1 Y93.600 F800
G1 X0.000 Y93.600 F800
G1 Y96.000 F800
G1 X98.000 Y96.000 F800
G0 Z5.0
G0 X0 Y0 Z5.0
G0 Z-91.000
G1 Z-92.000 F400
G1 X98.000 Y0.000 F800
G1 Y2.400 F800
G1 X0.000 Y2.400 F800
G1 Y4.800 F800
G1 X98.000 Y4.800 F800
G1 Y7.200 F800
G1 X0.000 Y7.200 F800
G1 Y9.600 F800
G1 X98.000 Y9.600 F800
G1 Y12.000 F800
G1 X0.000 Y12.000 F800
G1 Y14.400 F800
G1 X98.000 Y14.400 F800
G1 Y16.800 F800
G1 X0.000 Y16.800 F800
G1 Y19.200 F800
G1 X98.000 Y19.200 F800
G1 Y21.600 F800
G1 X0.000 Y21.600 F800
G1 Y24.000 F800
G1 X98.000 Y24.000 F800
G1 Y26.400 F800
G1 X0.000 Y26.400 F800
G1 Y28.800 F800
G1 X98.000 Y28.800 F800
G1 Y31.200 F800
G1 X0.000 Y31.200 F800
G1 Y33.600 F800
G1 X98.000 Y33.600 F800
G1 Y36.000 F800
G1 X0.000 Y36.000 F800
G1 Y38.400 F800
G1 X98.000 Y38.400 F800
G1 Y40.800 F800
G1 X0.000 Y40.800 F800
G1 Y43.200 F800
G1 X98.000 Y43.200 F800
G1 Y45.600 F800
G1 X0.000 Y45.600 F800
G1 Y48.000 F800
G1 X98.000 Y48.000 F800
G1 Y50.400 F800
G1 X0.000 Y50.400 F800
G1 Y52.800 F800
G1 X98.000 Y52.800 F800
G1 Y55.200 F800
G1 X0.000 Y55.200 F800
G1 Y57.600 F800
G1 X98.000 Y57.600 F800
G1 Y60.000 F800
G1 X0.000 Y60.000 F800
G1 Y62.400 F800
G1 X98.000 Y62.400 F800
G1 Y64.800 F800
G1 X0.000 Y64.800 F800
G1 Y67.200 F800
G1 X98.000 Y67.200 F800
G1 Y69.600 F800
G1 X0.000 Y69.600 F800
G1 Y72.000 F800
G1 X98.000 Y72.000 F800
G1 Y74.400 F800
G1 X0.000 Y74.400 F800
G1 Y76.800 F800
G1 X98.000 Y76.800 F800
G1 Y79.200 F800
G1 X0.000 Y79.200 F800
G1 Y81.600 F800
G1 X98.000 Y81.600 F800
G1 Y84.000 F800
G1 X0.000 Y84.000 F800
G1 Y86.400 F800
G1 X98.000 Y86.400 F800
G1 Y88.800 F800
G1 X0.000 Y88.800 F800
G1 Y91.200 F800
G1 X98.000 Y91.200 F800
G1 Y93.600 F800
G1 X0.000 Y93.600 F800
G1 Y96.000 F800
G1 X98.000 Y96.000 F800
G0 Z5.0
G0 X0 Y0 Z5.0
G0 Z-93.000
G1 Z-94.000 F400
G1 X98.000 Y0.000 F800
G1 Y2.400 F800
G1 X0.000 Y2.400 F800
G1 Y4.800 F800
G1 X98.000 Y4.800 F800
G1 Y7.200 F800
G1 X0.000 Y7.200 F800
G1 Y9.600 F800
G1 X98.000 Y9.600 F800
G1 Y12.000 F800
G1 X0.000 Y12.000 F800
G1 Y14.400 F800
G1 X98.000 Y14.400 F800
G1 Y16.800 F800
G1 X0.000 Y16.800 F800
G1 Y19.200 F800
G1 X98.000 Y19.200 F800
G1 Y21.600 F800
G1 X0.000 Y21.600 F800
G1 Y24.000 F800
G1 X98.000 Y24.000 F800
G1 Y26.400 F800
G1 X0.000 Y26.400 F800
G1 Y28.800 F800
G1 X98.000 Y28.800 F800
G1 Y31.200 F800
G1 X0.000 Y31.200 F800
G1 Y33.600 F800
G1 X98.000 Y33.600 F800
G1 Y36.000 F800
G1 X0.000 Y36.000 F800
G1 Y38.400 F800
G1 X98.000 Y38.400 F800
G1 Y40.800 F800
G1 X0.000 Y40.800 F800
G1 Y43.200 F800
G1 X98.000 Y43.200 F800
G1 Y45.600 F800
G1 X0.000 Y45.600 F800
G1 Y48.000 F800
G1 X98.000 Y48.000 F800
G1 Y50.400 F800
G1 X0.000 Y50.400 F800
G1 Y52.800 F800
G1 X98.000 Y52.800 F800
G1 Y55.200 F800
G1 X0.000 Y55.200 F800
G1 Y57.600 F800
G1 X98.000 Y57.600 F800
G1 Y60.000 F800
G1 X0.000 Y60.000 F800
G1 Y62.400 F800
G1 X98.000 Y62.400 F800
G1 Y64.800 F800
G1 X0.000 Y64.800 F800
G1 Y67.200 F800
G1 X98.000 Y67.200 F800
G1 Y69.600 F800
G1 X0.000 Y69.600 F800
G1 Y72.000 F800
G1 X98.000 Y72.000 F800
G1 Y74.400 F800
G1 X0.000 Y74.400 F800
G1 Y76.800 F800
G1 X98.000 Y76.800 F800
G1 Y79.200 F800
G1 X0.000 Y79.200 F800
G1 Y81.600 F800
G1 X98.000 Y81.600 F800
G1 Y84.000 F800
G1 X0.000 Y84.000 F800
G1 Y86.400 F800
G1 X98.000 Y86.400 F800
G1 Y88.800 F800
G1 X0.000 Y88.800 F800
G1 Y91.200 F800
G1 X98.000 Y91.200 F800
G1 Y93.600 F800
G1 X0.000 Y93.600 F800
G1 Y96.000 F800
G1 X98.000 Y96.000 F800
G0 Z5.0
G0 X0 Y0 Z5.0
G0 Z-95.000
G1 Z-96.000 F400
G1 X98.000 Y0.000 F800
G1 Y2.400 F800
G1 X0.000 Y2.400 F800
G1 Y4.800 F800
G1 X98.000 Y4.800 F800
G1 Y7.200 F800
G1 X0.000 Y7.200 F800
G1 Y9.600 F800
G1 X98.000 Y9.600 F800
G1 Y12.000 F800
G1 X0.000 Y12.000 F800
G1 Y14.400 F800
G1 X98.000 Y14.400 F800
G1 Y16.800 F800
G1 X0.000 Y16.800 F800
G1 Y19.200 F800
G1 X98.000 Y19.200 F800
G1 Y21.600 F800
G1 X0.000 Y21.600 F800
G1 Y24.000 F800
G1 X98.000 Y24.000 F800
G1 Y26.400 F800
G1 X0.000 Y26.400 F800
G1 Y28.800 F800
G1 X98.000 Y28.800 F800
G1 Y31.200 F800
G1 X0.000 Y31.200 F800
G1 Y33.600 F800
G1 X98.000 Y33.600 F800
G1 Y36.000 F800
G1 X0.000 Y36.000 F800
G1 Y38.400 F800
G1 X98.000 Y38.400 F800
G1 Y40.800 F800
G1 X0.000 Y40.800 F800
G1 Y43.200 F800
G1 X98.000 Y43.200 F800
G1 Y45.600 F800
G1 X0.000 Y45.600 F800
G1 Y48.000 F800
G1 X98.000 Y48.000 F800
G1 Y50.400 F800
G1 X0.000 Y50.400 F800
G1 Y52.800 F800
G1 X98.000 Y52.800 F800
G1 Y55.200 F800
G1 X0.000 Y55.200 F800
G1 Y57.600 F800
G1 X98.000 Y57.600 F800
G1 Y60.000 F800
G1 X0.000 Y60.000 F800
G1 Y62.400 F800
G1 X98.000 Y62.400 F800
G1 Y64.800 F800
G1 X0.000 Y64.800 F800
G1 Y67.200 F800
G1 X98.000 Y67.200 F800
G1 Y69.600 F800
G1 X0.000 Y69.600 F800
G1 Y72.000 F800
G1 X98.000 Y72.000 F800
G1 Y74.400 F800
G1 X0.000 Y74.400 F800
G1 Y76.800 F800
G1 X98.000 Y76.800 F800
G1 Y79.200 F800
G1 X0.000 Y79.200 F800
G1 Y81.600 F800
G1 X98.000 Y81.600 F800
G1 Y84.000 F800
G1 X0.000 Y84.000 F800
G1 Y86.400 F800
G1 X98.000 Y86.400 F800
G1 Y88.800 F800
G1 X0.000 Y88.800 F800
G1 Y91.200 F800
G1 X98.000 Y91.200 F800
G1 Y93.600 F800
G1 X0.000 Y93.600 F800
G1 Y96.000 F800
G1 X98.000 Y96.000 F800
G0 Z5.0
G0 X0 Y0 Z5.0
G0 Z-97.000
G1 Z-98.000 F400
G1 X98.000 Y0.000 F800
G1 Y2.400 F800
G1 X0.000 Y2.400 F800
G1 Y4.800 F800
G1 X98.000 Y4.800 F800
G1 Y7.200 F800
G1 X0.000 Y7.200 F800
G1 Y9.600 F800
G1 X98.000 Y9.600 F800
G1 Y12.000 F800
G1 X0.000 Y12.000 F800
G1 Y14.400 F800
G1 X98.000 Y14.400 F800
G1 Y16.800 F800
G1 X0.000 Y16.800 F800
G1 Y19.200 F800
G1 X98.000 Y19.200 F800
G1 Y21.600 F800
G1 X0.000 Y21.600 F800
G1 Y24.000 F800
G1 X98.000 Y24.000 F800
G1 Y26.400 F800
G1 X0.000 Y26.400 F800
G1 Y28.800 F800
G1 X98.000 Y28.800 F800
G1 Y31.200 F800
G1 X0.000 Y31.200 F800
G1 Y33.600 F800
G1 X98.000 Y33.600 F800
G1 Y36.000 F800
G1 X0.000 Y36.000 F800
G1 Y38.400 F800
G1 X98.000 Y38.400 F800
G1 Y40.800 F800
G1 X0.000 Y40.800 F800
G1 Y43.200 F800
G1 X98.000 Y43.200 F800
G1 Y45.600 F800
G1 X0.000 Y45.600 F800
G1 Y48.000 F800
G1 X98.000 Y48.000 F800
G1 Y50.400 F800
G1 X0.000 Y50.400 F800
G1 Y52.800 F800
G1 X98.000 Y52.800 F800
G1 Y55.200 F800
G1 X0.000 Y55.200 F800
G1 Y57.600 F800
G1 X98.000 Y57.600 F800
G1 Y60.000 F800
G1 X0.000 Y60.000 F800
G1 Y62.400 F800
G1 X98.000 Y62.400 F800
G1 Y64.800 F800
G1 X0.000 Y64.800 F800
G1 Y67.200 F800
G1 X98.000 Y67.200 F800
G1 Y69.600 F800
G1 X0.000 Y69.600 F800
G1 Y72.000 F800
G1 X98.000 Y72.000 F800
G1 Y74.400 F800
G1 X0.000 Y74.400 F800
G1 Y76.800 F800
G1 X98.000 Y76.800 F800
G1 Y79.200 F800
G1 X0.000 Y79.200 F800
G1 Y81.600 F800
G1 X98.000 Y81.600 F800
G1 Y84.000 F800
G1 X0.000 Y84.000 F800
G1 Y86.400 F800
G1 X98.000 Y86.400 F800
G1 Y88.800 F800
G1 X0.000 Y88.800 F800
G1 Y91.200 F800
G1 X98.000 Y91.200 F800
G1 Y93.600 F800
G1 X0.000 Y93.600 F800
G1 Y96.000 F800
G1 X98.000 Y96.000 F800
G0 Z5.0
G0 X0 Y0
G0 Z5.0
M5
M30
