(Cloud CAM Generated for Job e0de964f-8b52-4e74-a229-cb40aff64136)
(Model: 320.0 x 385.0 x 10.0 mm)
(Params: step_down=2.0 spindle=4000 feed=800.0)
(Strategy: stock_aware_fallback)
G21 (metric)
G90 (absolute)
S4000 M3
G0 Z5.0
G0 X-0.500 Y-0.500 Z5.000
G1 Z1.000 F400
G1 X320.500 Y-0.500 F800
G0 Z5.000
G0 X320.500 Y1.500 Z5.000
G1 Z1.000 F400
G1 X-0.500 Y1.500 F800
G0 Z5.000
G0 X-0.500 Y3.500 Z5.000
G1 Z1.000 F400
G1 X320.500 Y3.500 F800
G0 Z5.000
G0 X320.500 Y5.500 Z5.000
G1 Z1.000 F400
G1 X-0.500 Y5.500 F800
G0 Z5.000
G0 X-0.500 Y7.500 Z5.000
G1 Z1.000 F400
G1 X320.500 Y7.500 F800
G0 Z5.000
G0 X320.500 Y9.500 Z5.000
G1 Z1.000 F400
G1 X-0.500 Y9.500 F800
G0 Z5.000
G0 X-0.500 Y11.500 Z5.000
G1 Z1.000 F400
G1 X320.500 Y11.500 F800
G0 Z5.000
G0 X320.500 Y13.500 Z5.000
G1 Z1.000 F400
G1 X-0.500 Y13.500 F800
G0 Z5.000
G0 X-0.500 Y15.500 Z5.000
G1 Z1.000 F400
G1 X320.500 Y15.500 F800
G0 Z5.000
G0 X320.500 Y17.500 Z5.000
G1 Z1.000 F400
G1 X-0.500 Y17.500 F800
G0 Z5.000
G0 X-0.500 Y19.500 Z5.000
G1 Z1.000 F400
G1 X320.500 Y19.500 F800
G0 Z5.000
G0 X320.500 Y21.500 Z5.000
G1 Z1.000 F400
G1 X-0.500 Y21.500 F800
G0 Z5.000
G0 X-0.500 Y23.500 Z5.000
G1 Z1.000 F400
G1 X320.500 Y23.500 F800
G0 Z5.000
G0 X320.500 Y25.500 Z5.000
G1 Z1.000 F400
G1 X-0.500 Y25.500 F800
G0 Z5.000
G0 X-0.500 Y27.500 Z5.000
G1 Z1.000 F400
G1 X320.500 Y27.500 F800
G0 Z5.000
G0 X320.500 Y29.500 Z5.000
G1 Z1.000 F400
G1 X-0.500 Y29.500 F800
G0 Z5.000
G0 X-0.500 Y31.500 Z5.000
G1 Z1.000 F400
G1 X320.500 Y31.500 F800
G0 Z5.000
G0 X320.500 Y33.500 Z5.000
G1 Z1.000 F400
G1 X-0.500 Y33.500 F800
G0 Z5.000
G0 X-0.500 Y35.500 Z5.000
G1 Z1.000 F400
G1 X320.500 Y35.500 F800
G0 Z5.000
G0 X320.500 Y37.500 Z5.000
G1 Z1.000 F400
G1 X-0.500 Y37.500 F800
G0 Z5.000
G0 X-0.500 Y39.500 Z5.000
G1 Z1.000 F400
G1 X320.500 Y39.500 F800
G0 Z5.000
G0 X320.500 Y41.500 Z5.000
G1 Z1.000 F400
G1 X-0.500 Y41.500 F800
G0 Z5.000
G0 X-0.500 Y43.500 Z5.000
G1 Z1.000 F400
G1 X320.500 Y43.500 F800
G0 Z5.000
G0 X320.500 Y45.500 Z5.000
G1 Z1.000 F400
G1 X-0.500 Y45.500 F800
G0 Z5.000
G0 X-0.500 Y47.500 Z5.000
G1 Z1.000 F400
G1 X320.500 Y47.500 F800
G0 Z5.000
G0 X320.500 Y49.500 Z5.000
G1 Z1.000 F400
G1 X-0.500 Y49.500 F800
G0 Z5.000
G0 X-0.500 Y51.500 Z5.000
G1 Z1.000 F400
G1 X320.500 Y51.500 F800
G0 Z5.000
G0 X320.500 Y53.500 Z5.000
G1 Z1.000 F400
G1 X-0.500 Y53.500 F800
G0 Z5.000
G0 X-0.500 Y55.500 Z5.000
G1 Z1.000 F400
G1 X320.500 Y55.500 F800
G0 Z5.000
G0 X320.500 Y57.500 Z5.000
G1 Z1.000 F400
G1 X-0.500 Y57.500 F800
G0 Z5.000
G0 X-0.500 Y59.500 Z5.000
G1 Z1.000 F400
G1 X320.500 Y59.500 F800
G0 Z5.000
G0 X320.500 Y61.500 Z5.000
G1 Z1.000 F400
G1 X-0.500 Y61.500 F800
G0 Z5.000
G0 X-0.500 Y63.500 Z5.000
G1 Z1.000 F400
G1 X320.500 Y63.500 F800
G0 Z5.000
G0 X320.500 Y65.500 Z5.000
G1 Z1.000 F400
G1 X-0.500 Y65.500 F800
G0 Z5.000
G0 X-0.500 Y67.500 Z5.000
G1 Z1.000 F400
G1 X320.500 Y67.500 F800
G0 Z5.000
G0 X320.500 Y69.500 Z5.000
G1 Z1.000 F400
G1 X-0.500 Y69.500 F800
G0 Z5.000
G0 X-0.500 Y71.500 Z5.000
G1 Z1.000 F400
G1 X320.500 Y71.500 F800
G0 Z5.000
G0 X320.500 Y73.500 Z5.000
G1 Z1.000 F400
G1 X-0.500 Y73.500 F800
G0 Z5.000
G0 X-0.500 Y75.500 Z5.000
G1 Z1.000 F400
G1 X320.500 Y75.500 F800
G0 Z5.000
G0 X320.500 Y77.500 Z5.000
G1 Z1.000 F400
G1 X-0.500 Y77.500 F800
G0 Z5.000
G0 X-0.500 Y79.500 Z5.000
G1 Z1.000 F400
G1 X320.500 Y79.500 F800
G0 Z5.000
G0 X320.500 Y81.500 Z5.000
G1 Z1.000 F400
G1 X-0.500 Y81.500 F800
G0 Z5.000
G0 X-0.500 Y83.500 Z5.000
G1 Z1.000 F400
G1 X320.500 Y83.500 F800
G0 Z5.000
G0 X320.500 Y85.500 Z5.000
G1 Z1.000 F400
G1 X-0.500 Y85.500 F800
G0 Z5.000
G0 X-0.500 Y87.500 Z5.000
G1 Z1.000 F400
G1 X320.500 Y87.500 F800
G0 Z5.000
G0 X320.500 Y89.500 Z5.000
G1 Z1.000 F400
G1 X-0.500 Y89.500 F800
G0 Z5.000
G0 X-0.500 Y91.500 Z5.000
G1 Z1.000 F400
G1 X320.500 Y91.500 F800
G0 Z5.000
G0 X320.500 Y93.500 Z5.000
G1 Z1.000 F400
G1 X-0.500 Y93.500 F800
G0 Z5.000
G0 X-0.500 Y95.500 Z5.000
G1 Z1.000 F400
G1 X320.500 Y95.500 F800
G0 Z5.000
G0 X320.500 Y97.500 Z5.000
G1 Z1.000 F400
G1 X-0.500 Y97.500 F800
G0 Z5.000
G0 X-0.500 Y99.500 Z5.000
G1 Z1.000 F400
G1 X320.500 Y99.500 F800
G0 Z5.000
G0 X320.500 Y101.500 Z5.000
G1 Z1.000 F400
G1 X-0.500 Y101.500 F800
G0 Z5.000
G0 X-0.500 Y103.500 Z5.000
G1 Z1.000 F400
G1 X320.500 Y103.500 F800
G0 Z5.000
G0 X320.500 Y105.500 Z5.000
G1 Z1.000 F400
G1 X-0.500 Y105.500 F800
G0 Z5.000
G0 X-0.500 Y107.500 Z5.000
G1 Z1.000 F400
G1 X320.500 Y107.500 F800
G0 Z5.000
G0 X320.500 Y109.500 Z5.000
G1 Z1.000 F400
G1 X-0.500 Y109.500 F800
G0 Z5.000
G0 X-0.500 Y111.500 Z5.000
G1 Z1.000 F400
G1 X320.500 Y111.500 F800
G0 Z5.000
G0 X320.500 Y113.500 Z5.000
G1 Z1.000 F400
G1 X-0.500 Y113.500 F800
G0 Z5.000
G0 X-0.500 Y115.500 Z5.000
G1 Z1.000 F400
G1 X320.500 Y115.500 F800
G0 Z5.000
G0 X320.500 Y117.500 Z5.000
G1 Z1.000 F400
G1 X-0.500 Y117.500 F800
G0 Z5.000
G0 X-0.500 Y119.500 Z5.000
G1 Z1.000 F400
G1 X320.500 Y119.500 F800
G0 Z5.000
G0 X320.500 Y121.500 Z5.000
G1 Z1.000 F400
G1 X-0.500 Y121.500 F800
G0 Z5.000
G0 X-0.500 Y123.500 Z5.000
G1 Z1.000 F400
G1 X320.500 Y123.500 F800
G0 Z5.000
G0 X320.500 Y125.500 Z5.000
G1 Z1.000 F400
G1 X-0.500 Y125.500 F800
G0 Z5.000
G0 X-0.500 Y127.500 Z5.000
G1 Z1.000 F400
G1 X320.500 Y127.500 F800
G0 Z5.000
G0 X320.500 Y129.500 Z5.000
G1 Z1.000 F400
G1 X-0.500 Y129.500 F800
G0 Z5.000
G0 X-0.500 Y131.500 Z5.000
G1 Z1.000 F400
G1 X320.500 Y131.500 F800
G0 Z5.000
G0 X320.500 Y133.500 Z5.000
G1 Z1.000 F400
G1 X-0.500 Y133.500 F800
G0 Z5.000
G0 X-0.500 Y135.500 Z5.000
G1 Z1.000 F400
G1 X320.500 Y135.500 F800
G0 Z5.000
G0 X320.500 Y137.500 Z5.000
G1 Z1.000 F400
G1 X-0.500 Y137.500 F800
G0 Z5.000
G0 X-0.500 Y139.500 Z5.000
G1 Z1.000 F400
G1 X320.500 Y139.500 F800
G0 Z5.000
G0 X320.500 Y141.500 Z5.000
G1 Z1.000 F400
G1 X-0.500 Y141.500 F800
G0 Z5.000
G0 X-0.500 Y143.500 Z5.000
G1 Z1.000 F400
G1 X320.500 Y143.500 F800
G0 Z5.000
G0 X320.500 Y145.500 Z5.000
G1 Z1.000 F400
G1 X-0.500 Y145.500 F800
G0 Z5.000
G0 X-0.500 Y147.500 Z5.000
G1 Z1.000 F400
G1 X320.500 Y147.500 F800
G0 Z5.000
G0 X320.500 Y149.500 Z5.000
G1 Z1.000 F400
G1 X-0.500 Y149.500 F800
G0 Z5.000
G0 X-0.500 Y151.500 Z5.000
G1 Z1.000 F400
G1 X320.500 Y151.500 F800
G0 Z5.000
G0 X320.500 Y153.500 Z5.000
G1 Z1.000 F400
G1 X-0.500 Y153.500 F800
G0 Z5.000
G0 X-0.500 Y155.500 Z5.000
G1 Z1.000 F400
G1 X320.500 Y155.500 F800
G0 Z5.000
G0 X320.500 Y157.500 Z5.000
G1 Z1.000 F400
G1 X-0.500 Y157.500 F800
G0 Z5.000
G0 X-0.500 Y159.500 Z5.000
G1 Z1.000 F400
G1 X320.500 Y159.500 F800
G0 Z5.000
G0 X320.500 Y161.500 Z5.000
G1 Z1.000 F400
G1 X-0.500 Y161.500 F800
G0 Z5.000
G0 X-0.500 Y163.500 Z5.000
G1 Z1.000 F400
G1 X320.500 Y163.500 F800
G0 Z5.000
G0 X320.500 Y165.500 Z5.000
G1 Z1.000 F400
G1 X-0.500 Y165.500 F800
G0 Z5.000
G0 X-0.500 Y167.500 Z5.000
G1 Z1.000 F400
G1 X320.500 Y167.500 F800
G0 Z5.000
G0 X320.500 Y169.500 Z5.000
G1 Z1.000 F400
G1 X-0.500 Y169.500 F800
G0 Z5.000
G0 X-0.500 Y171.500 Z5.000
G1 Z1.000 F400
G1 X320.500 Y171.500 F800
G0 Z5.000
G0 X320.500 Y173.500 Z5.000
G1 Z1.000 F400
G1 X-0.500 Y173.500 F800
G0 Z5.000
G0 X-0.500 Y175.500 Z5.000
G1 Z1.000 F400
G1 X320.500 Y175.500 F800
G0 Z5.000
G0 X320.500 Y177.500 Z5.000
G1 Z1.000 F400
G1 X-0.500 Y177.500 F800
G0 Z5.000
G0 X-0.500 Y179.500 Z5.000
G1 Z1.000 F400
G1 X320.500 Y179.500 F800
G0 Z5.000
G0 X320.500 Y181.500 Z5.000
G1 Z1.000 F400
G1 X-0.500 Y181.500 F800
G0 Z5.000
G0 X-0.500 Y183.500 Z5.000
G1 Z1.000 F400
G1 X320.500 Y183.500 F800
G0 Z5.000
G0 X320.500 Y185.500 Z5.000
G1 Z1.000 F400
G1 X-0.500 Y185.500 F800
G0 Z5.000
G0 X-0.500 Y187.500 Z5.000
G1 Z1.000 F400
G1 X320.500 Y187.500 F800
G0 Z5.000
G0 X320.500 Y189.500 Z5.000
G1 Z1.000 F400
G1 X-0.500 Y189.500 F800
G0 Z5.000
G0 X-0.500 Y191.500 Z5.000
G1 Z1.000 F400
G1 X320.500 Y191.500 F800
G0 Z5.000
G0 X320.500 Y193.500 Z5.000
G1 Z1.000 F400
G1 X-0.500 Y193.500 F800
G0 Z5.000
G0 X-0.500 Y195.500 Z5.000
G1 Z1.000 F400
G1 X320.500 Y195.500 F800
G0 Z5.000
G0 X320.500 Y197.500 Z5.000
G1 Z1.000 F400
G1 X-0.500 Y197.500 F800
G0 Z5.000
G0 X-0.500 Y199.500 Z5.000
G1 Z1.000 F400
G1 X320.500 Y199.500 F800
G0 Z5.000
G0 X320.500 Y201.500 Z5.000
G1 Z1.000 F400
G1 X-0.500 Y201.500 F800
G0 Z5.000
G0 X-0.500 Y203.500 Z5.000
G1 Z1.000 F400
G1 X320.500 Y203.500 F800
G0 Z5.000
G0 X320.500 Y205.500 Z5.000
G1 Z1.000 F400
G1 X-0.500 Y205.500 F800
G0 Z5.000
G0 X-0.500 Y207.500 Z5.000
G1 Z1.000 F400
G1 X320.500 Y207.500 F800
G0 Z5.000
G0 X320.500 Y209.500 Z5.000
G1 Z1.000 F400
G1 X-0.500 Y209.500 F800
G0 Z5.000
G0 X-0.500 Y211.500 Z5.000
G1 Z1.000 F400
G1 X320.500 Y211.500 F800
G0 Z5.000
G0 X320.500 Y213.500 Z5.000
G1 Z1.000 F400
G1 X-0.500 Y213.500 F800
G0 Z5.000
G0 X-0.500 Y215.500 Z5.000
G1 Z1.000 F400
G1 X320.500 Y215.500 F800
G0 Z5.000
G0 X320.500 Y217.500 Z5.000
G1 Z1.000 F400
G1 X-0.500 Y217.500 F800
G0 Z5.000
G0 X-0.500 Y219.500 Z5.000
G1 Z1.000 F400
G1 X320.500 Y219.500 F800
G0 Z5.000
G0 X320.500 Y221.500 Z5.000
G1 Z1.000 F400
G1 X-0.500 Y221.500 F800
G0 Z5.000
G0 X-0.500 Y223.500 Z5.000
G1 Z1.000 F400
G1 X320.500 Y223.500 F800
G0 Z5.000
G0 X320.500 Y225.500 Z5.000
G1 Z1.000 F400
G1 X-0.500 Y225.500 F800
G0 Z5.000
G0 X-0.500 Y227.500 Z5.000
G1 Z1.000 F400
G1 X320.500 Y227.500 F800
G0 Z5.000
G0 X320.500 Y229.500 Z5.000
G1 Z1.000 F400
G1 X-0.500 Y229.500 F800
G0 Z5.000
G0 X-0.500 Y231.500 Z5.000
G1 Z1.000 F400
G1 X320.500 Y231.500 F800
G0 Z5.000
G0 X320.500 Y233.500 Z5.000
G1 Z1.000 F400
G1 X-0.500 Y233.500 F800
G0 Z5.000
G0 X-0.500 Y235.500 Z5.000
G1 Z1.000 F400
G1 X320.500 Y235.500 F800
G0 Z5.000
G0 X320.500 Y237.500 Z5.000
G1 Z1.000 F400
G1 X-0.500 Y237.500 F800
G0 Z5.000
G0 X-0.500 Y239.500 Z5.000
G1 Z1.000 F400
G1 X320.500 Y239.500 F800
G0 Z5.000
G0 X320.500 Y241.500 Z5.000
G1 Z1.000 F400
G1 X-0.500 Y241.500 F800
G0 Z5.000
G0 X-0.500 Y243.500 Z5.000
G1 Z1.000 F400
G1 X320.500 Y243.500 F800
G0 Z5.000
G0 X320.500 Y245.500 Z5.000
G1 Z1.000 F400
G1 X-0.500 Y245.500 F800
G0 Z5.000
G0 X-0.500 Y247.500 Z5.000
G1 Z1.000 F400
G1 X320.500 Y247.500 F800
G0 Z5.000
G0 X320.500 Y249.500 Z5.000
G1 Z1.000 F400
G1 X-0.500 Y249.500 F800
G0 Z5.000
G0 X-0.500 Y251.500 Z5.000
G1 Z1.000 F400
G1 X320.500 Y251.500 F800
G0 Z5.000
G0 X320.500 Y253.500 Z5.000
G1 Z1.000 F400
G1 X-0.500 Y253.500 F800
G0 Z5.000
G0 X-0.500 Y255.500 Z5.000
G1 Z1.000 F400
G1 X320.500 Y255.500 F800
G0 Z5.000
G0 X320.500 Y257.500 Z5.000
G1 Z1.000 F400
G1 X-0.500 Y257.500 F800
G0 Z5.000
G0 X-0.500 Y259.500 Z5.000
G1 Z1.000 F400
G1 X320.500 Y259.500 F800
G0 Z5.000
G0 X320.500 Y261.500 Z5.000
G1 Z1.000 F400
G1 X-0.500 Y261.500 F800
G0 Z5.000
G0 X-0.500 Y263.500 Z5.000
G1 Z1.000 F400
G1 X320.500 Y263.500 F800
G0 Z5.000
G0 X320.500 Y265.500 Z5.000
G1 Z1.000 F400
G1 X-0.500 Y265.500 F800
G0 Z5.000
G0 X-0.500 Y267.500 Z5.000
G1 Z1.000 F400
G1 X320.500 Y267.500 F800
G0 Z5.000
G0 X320.500 Y269.500 Z5.000
G1 Z1.000 F400
G1 X-0.500 Y269.500 F800
G0 Z5.000
G0 X-0.500 Y271.500 Z5.000
G1 Z1.000 F400
G1 X320.500 Y271.500 F800
G0 Z5.000
G0 X320.500 Y273.500 Z5.000
G1 Z1.000 F400
G1 X-0.500 Y273.500 F800
G0 Z5.000
G0 X-0.500 Y275.500 Z5.000
G1 Z1.000 F400
G1 X320.500 Y275.500 F800
G0 Z5.000
G0 X320.500 Y277.500 Z5.000
G1 Z1.000 F400
G1 X-0.500 Y277.500 F800
G0 Z5.000
G0 X-0.500 Y279.500 Z5.000
G1 Z1.000 F400
G1 X320.500 Y279.500 F800
G0 Z5.000
G0 X320.500 Y281.500 Z5.000
G1 Z1.000 F400
G1 X-0.500 Y281.500 F800
G0 Z5.000
G0 X-0.500 Y283.500 Z5.000
G1 Z1.000 F400
G1 X320.500 Y283.500 F800
G0 Z5.000
G0 X320.500 Y285.500 Z5.000
G1 Z1.000 F400
G1 X-0.500 Y285.500 F800
G0 Z5.000
G0 X-0.500 Y287.500 Z5.000
G1 Z1.000 F400
G1 X320.500 Y287.500 F800
G0 Z5.000
G0 X320.500 Y289.500 Z5.000
G1 Z1.000 F400
G1 X-0.500 Y289.500 F800
G0 Z5.000
G0 X-0.500 Y291.500 Z5.000
G1 Z1.000 F400
G1 X320.500 Y291.500 F800
G0 Z5.000
G0 X320.500 Y293.500 Z5.000
G1 Z1.000 F400
G1 X-0.500 Y293.500 F800
G0 Z5.000
G0 X-0.500 Y295.500 Z5.000
G1 Z1.000 F400
G1 X320.500 Y295.500 F800
G0 Z5.000
G0 X320.500 Y297.500 Z5.000
G1 Z1.000 F400
G1 X-0.500 Y297.500 F800
G0 Z5.000
G0 X-0.500 Y299.500 Z5.000
G1 Z1.000 F400
G1 X320.500 Y299.500 F800
G0 Z5.000
G0 X320.500 Y301.500 Z5.000
G1 Z1.000 F400
G1 X-0.500 Y301.500 F800
G0 Z5.000
G0 X-0.500 Y303.500 Z5.000
G1 Z1.000 F400
G1 X320.500 Y303.500 F800
G0 Z5.000
G0 X320.500 Y305.500 Z5.000
G1 Z1.000 F400
G1 X-0.500 Y305.500 F800
G0 Z5.000
G0 X-0.500 Y307.500 Z5.000
G1 Z1.000 F400
G1 X320.500 Y307.500 F800
G0 Z5.000
G0 X320.500 Y309.500 Z5.000
G1 Z1.000 F400
G1 X-0.500 Y309.500 F800
G0 Z5.000
G0 X-0.500 Y311.500 Z5.000
G1 Z1.000 F400
G1 X320.500 Y311.500 F800
G0 Z5.000
G0 X320.500 Y313.500 Z5.000
G1 Z1.000 F400
G1 X-0.500 Y313.500 F800
G0 Z5.000
G0 X-0.500 Y315.500 Z5.000
G1 Z1.000 F400
G1 X320.500 Y315.500 F800
G0 Z5.000
G0 X320.500 Y317.500 Z5.000
G1 Z1.000 F400
G1 X-0.500 Y317.500 F800
G0 Z5.000
G0 X-0.500 Y319.500 Z5.000
G1 Z1.000 F400
G1 X320.500 Y319.500 F800
G0 Z5.000
G0 X320.500 Y321.500 Z5.000
G1 Z1.000 F400
G1 X-0.500 Y321.500 F800
G0 Z5.000
G0 X-0.500 Y323.500 Z5.000
G1 Z1.000 F400
G1 X320.500 Y323.500 F800
G0 Z5.000
G0 X320.500 Y325.500 Z5.000
G1 Z1.000 F400
G1 X-0.500 Y325.500 F800
G0 Z5.000
G0 X-0.500 Y327.500 Z5.000
G1 Z1.000 F400
G1 X320.500 Y327.500 F800
G0 Z5.000
G0 X320.500 Y329.500 Z5.000
G1 Z1.000 F400
G1 X-0.500 Y329.500 F800
G0 Z5.000
G0 X-0.500 Y331.500 Z5.000
G1 Z1.000 F400
G1 X320.500 Y331.500 F800
G0 Z5.000
G0 X320.500 Y333.500 Z5.000
G1 Z1.000 F400
G1 X-0.500 Y333.500 F800
G0 Z5.000
G0 X-0.500 Y335.500 Z5.000
G1 Z1.000 F400
G1 X320.500 Y335.500 F800
G0 Z5.000
G0 X320.500 Y337.500 Z5.000
G1 Z1.000 F400
G1 X-0.500 Y337.500 F800
G0 Z5.000
G0 X-0.500 Y339.500 Z5.000
G1 Z1.000 F400
G1 X320.500 Y339.500 F800
G0 Z5.000
G0 X320.500 Y341.500 Z5.000
G1 Z1.000 F400
G1 X-0.500 Y341.500 F800
G0 Z5.000
G0 X-0.500 Y343.500 Z5.000
G1 Z1.000 F400
G1 X320.500 Y343.500 F800
G0 Z5.000
G0 X320.500 Y345.500 Z5.000
G1 Z1.000 F400
G1 X-0.500 Y345.500 F800
G0 Z5.000
G0 X-0.500 Y347.500 Z5.000
G1 Z1.000 F400
G1 X320.500 Y347.500 F800
G0 Z5.000
G0 X320.500 Y349.500 Z5.000
G1 Z1.000 F400
G1 X-0.500 Y349.500 F800
G0 Z5.000
G0 X-0.500 Y351.500 Z5.000
G1 Z1.000 F400
G1 X320.500 Y351.500 F800
G0 Z5.000
G0 X320.500 Y353.500 Z5.000
G1 Z1.000 F400
G1 X-0.500 Y353.500 F800
G0 Z5.000
G0 X-0.500 Y355.500 Z5.000
G1 Z1.000 F400
G1 X320.500 Y355.500 F800
G0 Z5.000
G0 X320.500 Y357.500 Z5.000
G1 Z1.000 F400
G1 X-0.500 Y357.500 F800
G0 Z5.000
G0 X-0.500 Y359.500 Z5.000
G1 Z1.000 F400
G1 X320.500 Y359.500 F800
G0 Z5.000
G0 X320.500 Y361.500 Z5.000
G1 Z1.000 F400
G1 X-0.500 Y361.500 F800
G0 Z5.000
G0 X-0.500 Y363.500 Z5.000
G1 Z1.000 F400
G1 X320.500 Y363.500 F800
G0 Z5.000
G0 X320.500 Y365.500 Z5.000
G1 Z1.000 F400
G1 X-0.500 Y365.500 F800
G0 Z5.000
G0 X-0.500 Y367.500 Z5.000
G1 Z1.000 F400
G1 X320.500 Y367.500 F800
G0 Z5.000
G0 X320.500 Y369.500 Z5.000
G1 Z1.000 F400
G1 X-0.500 Y369.500 F800
G0 Z5.000
G0 X-0.500 Y371.500 Z5.000
G1 Z1.000 F400
G1 X320.500 Y371.500 F800
G0 Z5.000
G0 X320.500 Y373.500 Z5.000
G1 Z1.000 F400
G1 X-0.500 Y373.500 F800
G0 Z5.000
G0 X-0.500 Y375.500 Z5.000
G1 Z1.000 F400
G1 X320.500 Y375.500 F800
G0 Z5.000
G0 X320.500 Y377.500 Z5.000
G1 Z1.000 F400
G1 X-0.500 Y377.500 F800
G0 Z5.000
G0 X-0.500 Y379.500 Z5.000
G1 Z1.000 F400
G1 X320.500 Y379.500 F800
G0 Z5.000
G0 X320.500 Y381.500 Z5.000
G1 Z1.000 F400
G1 X-0.500 Y381.500 F800
G0 Z5.000
G0 X-0.500 Y383.500 Z5.000
G1 Z1.000 F400
G1 X320.500 Y383.500 F800
G0 Z5.000
G0 X320.500 Y385.500 Z5.000
G1 Z1.000 F400
G1 X-0.500 Y385.500 F800
G0 Z5.000
G0 X-0.500 Y-0.500 Z5.000
G1 Z-1.000 F400
G1 X3.222 Y-0.500 F800
G0 Z5.000
G0 X316.778 Y-0.500 Z5.000
G1 Z-1.000 F400
G1 X320.500 Y-0.500 F800
G0 Z5.000
G0 X320.500 Y1.500 Z5.000
G1 Z-1.000 F400
G1 X319.162 Y1.500 F800
G0 Z5.000
G0 X0.838 Y1.500 Z5.000
G1 Z-1.000 F400
G1 X-0.500 Y1.500 F800
G0 Z5.000
G0 X7.500 Y93.500 Z5.000
G1 Z-1.000 F400
G1 X320.500 Y93.500 F800
G0 Z5.000
G0 X320.500 Y95.500 Z5.000
G1 Z-1.000 F400
G1 X7.500 Y95.500 F800
G0 Z5.000
G0 X7.500 Y97.500 Z5.000
G1 Z-1.000 F400
G1 X320.500 Y97.500 F800
G0 Z5.000
G0 X320.500 Y99.500 Z5.000
G1 Z-1.000 F400
G1 X7.500 Y99.500 F800
G0 Z5.000
G0 X7.500 Y101.500 Z5.000
G1 Z-1.000 F400
G1 X320.500 Y101.500 F800
G0 Z5.000
G0 X320.500 Y103.500 Z5.000
G1 Z-1.000 F400
G1 X7.500 Y103.500 F800
G0 Z5.000
G0 X7.500 Y105.500 Z5.000
G1 Z-1.000 F400
G1 X320.500 Y105.500 F800
G0 Z5.000
G0 X320.500 Y107.500 Z5.000
G1 Z-1.000 F400
G1 X7.500 Y107.500 F800
G0 Z5.000
G0 X7.500 Y109.500 Z5.000
G1 Z-1.000 F400
G1 X320.500 Y109.500 F800
G0 Z5.000
G0 X320.500 Y111.500 Z5.000
G1 Z-1.000 F400
G1 X7.500 Y111.500 F800
G0 Z5.000
G0 X7.500 Y113.500 Z5.000
G1 Z-1.000 F400
G1 X320.500 Y113.500 F800
G0 Z5.000
G0 X320.500 Y115.500 Z5.000
G1 Z-1.000 F400
G1 X7.500 Y115.500 F800
G0 Z5.000
G0 X7.500 Y117.500 Z5.000
G1 Z-1.000 F400
G1 X320.500 Y117.500 F800
G0 Z5.000
G0 X320.500 Y119.500 Z5.000
G1 Z-1.000 F400
G1 X7.500 Y119.500 F800
G0 Z5.000
G0 X7.500 Y121.500 Z5.000
G1 Z-1.000 F400
G1 X320.500 Y121.500 F800
G0 Z5.000
G0 X320.500 Y123.500 Z5.000
G1 Z-1.000 F400
G1 X7.500 Y123.500 F800
G0 Z5.000
G0 X7.500 Y125.500 Z5.000
G1 Z-1.000 F400
G1 X320.500 Y125.500 F800
G0 Z5.000
G0 X320.500 Y127.500 Z5.000
G1 Z-1.000 F400
G1 X7.500 Y127.500 F800
G0 Z5.000
G0 X7.500 Y129.500 Z5.000
G1 Z-1.000 F400
G1 X320.500 Y129.500 F800
G0 Z5.000
G0 X320.500 Y131.500 Z5.000
G1 Z-1.000 F400
G1 X7.500 Y131.500 F800
G0 Z5.000
G0 X7.500 Y133.500 Z5.000
G1 Z-1.000 F400
G1 X320.500 Y133.500 F800
G0 Z5.000
G0 X320.500 Y135.500 Z5.000
G1 Z-1.000 F400
G1 X7.500 Y135.500 F800
G0 Z5.000
G0 X7.500 Y137.500 Z5.000
G1 Z-1.000 F400
G1 X320.500 Y137.500 F800
G0 Z5.000
G0 X320.500 Y139.500 Z5.000
G1 Z-1.000 F400
G1 X7.500 Y139.500 F800
G0 Z5.000
G0 X7.500 Y141.500 Z5.000
G1 Z-1.000 F400
G1 X320.500 Y141.500 F800
G0 Z5.000
G0 X320.500 Y143.500 Z5.000
G1 Z-1.000 F400
G1 X7.500 Y143.500 F800
G0 Z5.000
G0 X7.500 Y145.500 Z5.000
G1 Z-1.000 F400
G1 X320.500 Y145.500 F800
G0 Z5.000
G0 X320.500 Y147.500 Z5.000
G1 Z-1.000 F400
G1 X7.500 Y147.500 F800
G0 Z5.000
G0 X7.500 Y149.500 Z5.000
G1 Z-1.000 F400
G1 X320.500 Y149.500 F800
G0 Z5.000
G0 X320.500 Y151.500 Z5.000
G1 Z-1.000 F400
G1 X7.500 Y151.500 F800
G0 Z5.000
G0 X7.500 Y153.500 Z5.000
G1 Z-1.000 F400
G1 X320.500 Y153.500 F800
G0 Z5.000
G0 X320.500 Y155.500 Z5.000
G1 Z-1.000 F400
G1 X7.500 Y155.500 F800
G0 Z5.000
G0 X7.500 Y157.500 Z5.000
G1 Z-1.000 F400
G1 X320.500 Y157.500 F800
G0 Z5.000
G0 X320.500 Y159.500 Z5.000
G1 Z-1.000 F400
G1 X7.500 Y159.500 F800
G0 Z5.000
G0 X7.500 Y161.500 Z5.000
G1 Z-1.000 F400
G1 X320.500 Y161.500 F800
G0 Z5.000
G0 X320.500 Y163.500 Z5.000
G1 Z-1.000 F400
G1 X7.500 Y163.500 F800
G0 Z5.000
G0 X7.500 Y165.500 Z5.000
G1 Z-1.000 F400
G1 X320.500 Y165.500 F800
G0 Z5.000
G0 X320.500 Y167.500 Z5.000
G1 Z-1.000 F400
G1 X7.500 Y167.500 F800
G0 Z5.000
G0 X7.500 Y169.500 Z5.000
G1 Z-1.000 F400
G1 X320.500 Y169.500 F800
G0 Z5.000
G0 X320.500 Y171.500 Z5.000
G1 Z-1.000 F400
G1 X7.500 Y171.500 F800
G0 Z5.000
G0 X7.500 Y173.500 Z5.000
G1 Z-1.000 F400
G1 X320.500 Y173.500 F800
G0 Z5.000
G0 X320.500 Y175.500 Z5.000
G1 Z-1.000 F400
G1 X7.500 Y175.500 F800
G0 Z5.000
G0 X7.500 Y177.500 Z5.000
G1 Z-1.000 F400
G1 X320.500 Y177.500 F800
G0 Z5.000
G0 X320.500 Y179.500 Z5.000
G1 Z-1.000 F400
G1 X7.500 Y179.500 F800
G0 Z5.000
G0 X7.500 Y181.500 Z5.000
G1 Z-1.000 F400
G1 X320.500 Y181.500 F800
G0 Z5.000
G0 X320.500 Y183.500 Z5.000
G1 Z-1.000 F400
G1 X7.500 Y183.500 F800
G0 Z5.000
G0 X7.500 Y185.500 Z5.000
G1 Z-1.000 F400
G1 X320.500 Y185.500 F800
G0 Z5.000
G0 X320.500 Y187.500 Z5.000
G1 Z-1.000 F400
G1 X7.500 Y187.500 F800
G0 Z5.000
G0 X7.500 Y189.500 Z5.000
G1 Z-1.000 F400
G1 X320.500 Y189.500 F800
G0 Z5.000
G0 X320.500 Y191.500 Z5.000
G1 Z-1.000 F400
G1 X7.500 Y191.500 F800
G0 Z5.000
G0 X7.500 Y193.500 Z5.000
G1 Z-1.000 F400
G1 X320.500 Y193.500 F800
G0 Z5.000
G0 X320.500 Y195.500 Z5.000
G1 Z-1.000 F400
G1 X7.500 Y195.500 F800
G0 Z5.000
G0 X7.500 Y197.500 Z5.000
G1 Z-1.000 F400
G1 X320.500 Y197.500 F800
G0 Z5.000
G0 X320.500 Y199.500 Z5.000
G1 Z-1.000 F400
G1 X7.500 Y199.500 F800
G0 Z5.000
G0 X7.500 Y201.500 Z5.000
G1 Z-1.000 F400
G1 X320.500 Y201.500 F800
G0 Z5.000
G0 X320.500 Y203.500 Z5.000
G1 Z-1.000 F400
G1 X7.500 Y203.500 F800
G0 Z5.000
G0 X7.500 Y205.500 Z5.000
G1 Z-1.000 F400
G1 X320.500 Y205.500 F800
G0 Z5.000
G0 X320.500 Y207.500 Z5.000
G1 Z-1.000 F400
G1 X7.500 Y207.500 F800
G0 Z5.000
G0 X7.500 Y209.500 Z5.000
G1 Z-1.000 F400
G1 X320.500 Y209.500 F800
G0 Z5.000
G0 X320.500 Y211.500 Z5.000
G1 Z-1.000 F400
G1 X7.500 Y211.500 F800
G0 Z5.000
G0 X7.500 Y213.500 Z5.000
G1 Z-1.000 F400
G1 X320.500 Y213.500 F800
G0 Z5.000
G0 X320.500 Y215.500 Z5.000
G1 Z-1.000 F400
G1 X7.500 Y215.500 F800
G0 Z5.000
G0 X7.500 Y217.500 Z5.000
G1 Z-1.000 F400
G1 X320.500 Y217.500 F800
G0 Z5.000
G0 X320.500 Y219.500 Z5.000
G1 Z-1.000 F400
G1 X7.500 Y219.500 F800
G0 Z5.000
G0 X7.500 Y221.500 Z5.000
G1 Z-1.000 F400
G1 X320.500 Y221.500 F800
G0 Z5.000
G0 X320.500 Y223.500 Z5.000
G1 Z-1.000 F400
G1 X7.500 Y223.500 F800
G0 Z5.000
G0 X7.500 Y225.500 Z5.000
G1 Z-1.000 F400
G1 X320.500 Y225.500 F800
G0 Z5.000
G0 X320.500 Y227.500 Z5.000
G1 Z-1.000 F400
G1 X7.500 Y227.500 F800
G0 Z5.000
G0 X7.500 Y229.500 Z5.000
G1 Z-1.000 F400
G1 X320.500 Y229.500 F800
G0 Z5.000
G0 X320.500 Y231.500 Z5.000
G1 Z-1.000 F400
G1 X7.500 Y231.500 F800
G0 Z5.000
G0 X7.500 Y233.500 Z5.000
G1 Z-1.000 F400
G1 X320.500 Y233.500 F800
G0 Z5.000
G0 X320.500 Y235.500 Z5.000
G1 Z-1.000 F400
G1 X7.500 Y235.500 F800
G0 Z5.000
G0 X7.500 Y237.500 Z5.000
G1 Z-1.000 F400
G1 X320.500 Y237.500 F800
G0 Z5.000
G0 X320.500 Y239.500 Z5.000
G1 Z-1.000 F400
G1 X7.500 Y239.500 F800
G0 Z5.000
G0 X7.500 Y241.500 Z5.000
G1 Z-1.000 F400
G1 X320.500 Y241.500 F800
G0 Z5.000
G0 X320.500 Y243.500 Z5.000
G1 Z-1.000 F400
G1 X7.500 Y243.500 F800
G0 Z5.000
G0 X7.500 Y245.500 Z5.000
G1 Z-1.000 F400
G1 X320.500 Y245.500 F800
G0 Z5.000
G0 X320.500 Y247.500 Z5.000
G1 Z-1.000 F400
G1 X7.500 Y247.500 F800
G0 Z5.000
G0 X7.500 Y249.500 Z5.000
G1 Z-1.000 F400
G1 X320.500 Y249.500 F800
G0 Z5.000
G0 X320.500 Y251.500 Z5.000
G1 Z-1.000 F400
G1 X7.500 Y251.500 F800
G0 Z5.000
G0 X7.500 Y253.500 Z5.000
G1 Z-1.000 F400
G1 X320.500 Y253.500 F800
G0 Z5.000
G0 X320.500 Y255.500 Z5.000
G1 Z-1.000 F400
G1 X7.500 Y255.500 F800
G0 Z5.000
G0 X7.500 Y257.500 Z5.000
G1 Z-1.000 F400
G1 X320.500 Y257.500 F800
G0 Z5.000
G0 X320.500 Y259.500 Z5.000
G1 Z-1.000 F400
G1 X7.500 Y259.500 F800
G0 Z5.000
G0 X7.500 Y261.500 Z5.000
G1 Z-1.000 F400
G1 X320.500 Y261.500 F800
G0 Z5.000
G0 X320.500 Y263.500 Z5.000
G1 Z-1.000 F400
G1 X7.500 Y263.500 F800
G0 Z5.000
G0 X7.500 Y265.500 Z5.000
G1 Z-1.000 F400
G1 X320.500 Y265.500 F800
G0 Z5.000
G0 X320.500 Y267.500 Z5.000
G1 Z-1.000 F400
G1 X7.500 Y267.500 F800
G0 Z5.000
G0 X7.500 Y269.500 Z5.000
G1 Z-1.000 F400
G1 X320.500 Y269.500 F800
G0 Z5.000
G0 X320.500 Y271.500 Z5.000
G1 Z-1.000 F400
G1 X7.500 Y271.500 F800
G0 Z5.000
G0 X7.500 Y273.500 Z5.000
G1 Z-1.000 F400
G1 X320.500 Y273.500 F800
G0 Z5.000
G0 X320.500 Y275.500 Z5.000
G1 Z-1.000 F400
G1 X7.500 Y275.500 F800
G0 Z5.000
G0 X7.500 Y277.500 Z5.000
G1 Z-1.000 F400
G1 X320.500 Y277.500 F800
G0 Z5.000
G0 X320.500 Y279.500 Z5.000
G1 Z-1.000 F400
G1 X7.500 Y279.500 F800
G0 Z5.000
G0 X7.500 Y281.500 Z5.000
G1 Z-1.000 F400
G1 X320.500 Y281.500 F800
G0 Z5.000
G0 X320.500 Y283.500 Z5.000
G1 Z-1.000 F400
G1 X7.500 Y283.500 F800
G0 Z5.000
G0 X7.500 Y285.500 Z5.000
G1 Z-1.000 F400
G1 X320.500 Y285.500 F800
G0 Z5.000
G0 X320.500 Y287.500 Z5.000
G1 Z-1.000 F400
G1 X7.500 Y287.500 F800
G0 Z5.000
G0 X7.500 Y289.500 Z5.000
G1 Z-1.000 F400
G1 X320.500 Y289.500 F800
G0 Z5.000
G0 X320.500 Y291.500 Z5.000
G1 Z-1.000 F400
G1 X7.500 Y291.500 F800
G0 Z5.000
G0 X-0.500 Y383.500 Z5.000
G1 Z-1.000 F400
G1 X0.838 Y383.500 F800
G0 Z5.000
G0 X319.162 Y383.500 Z5.000
G1 Z-1.000 F400
G1 X320.500 Y383.500 F800
G0 Z5.000
G0 X320.500 Y385.500 Z5.000
G1 Z-1.000 F400
G1 X316.778 Y385.500 F800
G0 Z5.000
G0 X3.222 Y385.500 Z5.000
G1 Z-1.000 F400
G1 X-0.500 Y385.500 F800
G0 Z5.000
G0 X-0.500 Y-0.500 Z5.000
G1 Z-3.000 F400
G1 X3.222 Y-0.500 F800
G0 Z5.000
G0 X316.778 Y-0.500 Z5.000
G1 Z-3.000 F400
G1 X320.500 Y-0.500 F800
G0 Z5.000
G0 X320.500 Y1.500 Z5.000
G1 Z-3.000 F400
G1 X319.162 Y1.500 F800
G0 Z5.000
G0 X0.838 Y1.500 Z5.000
G1 Z-3.000 F400
G1 X-0.500 Y1.500 F800
G0 Z5.000
G0 X7.500 Y93.500 Z5.000
G1 Z-3.000 F400
G1 X320.000 Y93.500 F800
G0 Z5.000
G0 X320.000 Y93.500 Z5.000
G1 Z-3.000 F400
G1 X320.500 Y93.500 F800
G0 Z5.000
G0 X320.500 Y95.500 Z5.000
G1 Z-3.000 F400
G1 X7.500 Y95.500 F800
G0 Z5.000
G0 X7.500 Y97.500 Z5.000
G1 Z-3.000 F400
G1 X320.500 Y97.500 F800
G0 Z5.000
G0 X320.500 Y99.500 Z5.000
G1 Z-3.000 F400
G1 X7.500 Y99.500 F800
G0 Z5.000
G0 X7.500 Y101.500 Z5.000
G1 Z-3.000 F400
G1 X320.500 Y101.500 F800
G0 Z5.000
G0 X320.500 Y103.500 Z5.000
G1 Z-3.000 F400
G1 X7.500 Y103.500 F800
G0 Z5.000
G0 X7.500 Y105.500 Z5.000
G1 Z-3.000 F400
G1 X320.500 Y105.500 F800
G0 Z5.000
G0 X320.500 Y107.500 Z5.000
G1 Z-3.000 F400
G1 X7.500 Y107.500 F800
G0 Z5.000
G0 X7.500 Y109.500 Z5.000
G1 Z-3.000 F400
G1 X320.500 Y109.500 F800
G0 Z5.000
G0 X320.500 Y111.500 Z5.000
G1 Z-3.000 F400
G1 X7.500 Y111.500 F800
G0 Z5.000
G0 X7.500 Y113.500 Z5.000
G1 Z-3.000 F400
G1 X320.500 Y113.500 F800
G0 Z5.000
G0 X320.500 Y115.500 Z5.000
G1 Z-3.000 F400
G1 X7.500 Y115.500 F800
G0 Z5.000
G0 X7.500 Y117.500 Z5.000
G1 Z-3.000 F400
G1 X320.500 Y117.500 F800
G0 Z5.000
G0 X320.500 Y119.500 Z5.000
G1 Z-3.000 F400
G1 X7.500 Y119.500 F800
G0 Z5.000
G0 X7.500 Y121.500 Z5.000
G1 Z-3.000 F400
G1 X320.500 Y121.500 F800
G0 Z5.000
G0 X320.500 Y123.500 Z5.000
G1 Z-3.000 F400
G1 X7.500 Y123.500 F800
G0 Z5.000
G0 X7.500 Y125.500 Z5.000
G1 Z-3.000 F400
G1 X320.500 Y125.500 F800
G0 Z5.000
G0 X320.500 Y127.500 Z5.000
G1 Z-3.000 F400
G1 X7.500 Y127.500 F800
G0 Z5.000
G0 X7.500 Y129.500 Z5.000
G1 Z-3.000 F400
G1 X320.500 Y129.500 F800
G0 Z5.000
G0 X320.500 Y131.500 Z5.000
G1 Z-3.000 F400
G1 X7.500 Y131.500 F800
G0 Z5.000
G0 X7.500 Y133.500 Z5.000
G1 Z-3.000 F400
G1 X320.500 Y133.500 F800
G0 Z5.000
G0 X320.500 Y135.500 Z5.000
G1 Z-3.000 F400
G1 X7.500 Y135.500 F800
G0 Z5.000
G0 X7.500 Y137.500 Z5.000
G1 Z-3.000 F400
G1 X320.500 Y137.500 F800
G0 Z5.000
G0 X320.500 Y139.500 Z5.000
G1 Z-3.000 F400
G1 X7.500 Y139.500 F800
G0 Z5.000
G0 X7.500 Y141.500 Z5.000
G1 Z-3.000 F400
G1 X320.500 Y141.500 F800
G0 Z5.000
G0 X320.500 Y143.500 Z5.000
G1 Z-3.000 F400
G1 X7.500 Y143.500 F800
G0 Z5.000
G0 X7.500 Y145.500 Z5.000
G1 Z-3.000 F400
G1 X320.500 Y145.500 F800
G0 Z5.000
G0 X320.500 Y147.500 Z5.000
G1 Z-3.000 F400
G1 X7.500 Y147.500 F800
G0 Z5.000
G0 X7.500 Y149.500 Z5.000
G1 Z-3.000 F400
G1 X320.500 Y149.500 F800
G0 Z5.000
G0 X320.500 Y151.500 Z5.000
G1 Z-3.000 F400
G1 X7.500 Y151.500 F800
G0 Z5.000
G0 X7.500 Y153.500 Z5.000
G1 Z-3.000 F400
G1 X320.500 Y153.500 F800
G0 Z5.000
G0 X320.500 Y155.500 Z5.000
G1 Z-3.000 F400
G1 X7.500 Y155.500 F800
G0 Z5.000
G0 X7.500 Y157.500 Z5.000
G1 Z-3.000 F400
G1 X320.500 Y157.500 F800
G0 Z5.000
G0 X320.500 Y159.500 Z5.000
G1 Z-3.000 F400
G1 X7.500 Y159.500 F800
G0 Z5.000
G0 X7.500 Y161.500 Z5.000
G1 Z-3.000 F400
G1 X320.500 Y161.500 F800
G0 Z5.000
G0 X320.500 Y163.500 Z5.000
G1 Z-3.000 F400
G1 X7.500 Y163.500 F800
G0 Z5.000
G0 X7.500 Y165.500 Z5.000
G1 Z-3.000 F400
G1 X320.500 Y165.500 F800
G0 Z5.000
G0 X320.500 Y167.500 Z5.000
G1 Z-3.000 F400
G1 X7.500 Y167.500 F800
G0 Z5.000
G0 X7.500 Y169.500 Z5.000
G1 Z-3.000 F400
G1 X320.500 Y169.500 F800
G0 Z5.000
G0 X320.500 Y171.500 Z5.000
G1 Z-3.000 F400
G1 X7.500 Y171.500 F800
G0 Z5.000
G0 X7.500 Y173.500 Z5.000
G1 Z-3.000 F400
G1 X320.500 Y173.500 F800
G0 Z5.000
G0 X320.500 Y175.500 Z5.000
G1 Z-3.000 F400
G1 X7.500 Y175.500 F800
G0 Z5.000
G0 X7.500 Y177.500 Z5.000
G1 Z-3.000 F400
G1 X320.500 Y177.500 F800
G0 Z5.000
G0 X320.500 Y179.500 Z5.000
G1 Z-3.000 F400
G1 X7.500 Y179.500 F800
G0 Z5.000
G0 X7.500 Y181.500 Z5.000
G1 Z-3.000 F400
G1 X320.500 Y181.500 F800
G0 Z5.000
G0 X320.500 Y183.500 Z5.000
G1 Z-3.000 F400
G1 X7.500 Y183.500 F800
G0 Z5.000
G0 X7.500 Y185.500 Z5.000
G1 Z-3.000 F400
G1 X320.500 Y185.500 F800
G0 Z5.000
G0 X320.500 Y187.500 Z5.000
G1 Z-3.000 F400
G1 X7.500 Y187.500 F800
G0 Z5.000
G0 X7.500 Y189.500 Z5.000
G1 Z-3.000 F400
G1 X320.500 Y189.500 F800
G0 Z5.000
G0 X320.500 Y191.500 Z5.000
G1 Z-3.000 F400
G1 X7.500 Y191.500 F800
G0 Z5.000
G0 X7.500 Y193.500 Z5.000
G1 Z-3.000 F400
G1 X320.500 Y193.500 F800
G0 Z5.000
G0 X320.500 Y195.500 Z5.000
G1 Z-3.000 F400
G1 X7.500 Y195.500 F800
G0 Z5.000
G0 X7.500 Y197.500 Z5.000
G1 Z-3.000 F400
G1 X320.500 Y197.500 F800
G0 Z5.000
G0 X320.500 Y199.500 Z5.000
G1 Z-3.000 F400
G1 X7.500 Y199.500 F800
G0 Z5.000
G0 X7.500 Y201.500 Z5.000
G1 Z-3.000 F400
G1 X320.500 Y201.500 F800
G0 Z5.000
G0 X320.500 Y203.500 Z5.000
G1 Z-3.000 F400
G1 X7.500 Y203.500 F800
G0 Z5.000
G0 X7.500 Y205.500 Z5.000
G1 Z-3.000 F400
G1 X320.500 Y205.500 F800
G0 Z5.000
G0 X320.500 Y207.500 Z5.000
G1 Z-3.000 F400
G1 X7.500 Y207.500 F800
G0 Z5.000
G0 X7.500 Y209.500 Z5.000
G1 Z-3.000 F400
G1 X320.500 Y209.500 F800
G0 Z5.000
G0 X320.500 Y211.500 Z5.000
G1 Z-3.000 F400
G1 X7.500 Y211.500 F800
G0 Z5.000
G0 X7.500 Y213.500 Z5.000
G1 Z-3.000 F400
G1 X320.500 Y213.500 F800
G0 Z5.000
G0 X320.500 Y215.500 Z5.000
G1 Z-3.000 F400
G1 X7.500 Y215.500 F800
G0 Z5.000
G0 X7.500 Y217.500 Z5.000
G1 Z-3.000 F400
G1 X320.500 Y217.500 F800
G0 Z5.000
G0 X320.500 Y219.500 Z5.000
G1 Z-3.000 F400
G1 X7.500 Y219.500 F800
G0 Z5.000
G0 X7.500 Y221.500 Z5.000
G1 Z-3.000 F400
G1 X320.500 Y221.500 F800
G0 Z5.000
G0 X320.500 Y223.500 Z5.000
G1 Z-3.000 F400
G1 X7.500 Y223.500 F800
G0 Z5.000
G0 X7.500 Y225.500 Z5.000
G1 Z-3.000 F400
G1 X320.500 Y225.500 F800
G0 Z5.000
G0 X320.500 Y227.500 Z5.000
G1 Z-3.000 F400
G1 X7.500 Y227.500 F800
G0 Z5.000
G0 X7.500 Y229.500 Z5.000
G1 Z-3.000 F400
G1 X320.500 Y229.500 F800
G0 Z5.000
G0 X320.500 Y231.500 Z5.000
G1 Z-3.000 F400
G1 X7.500 Y231.500 F800
G0 Z5.000
G0 X7.500 Y233.500 Z5.000
G1 Z-3.000 F400
G1 X320.500 Y233.500 F800
G0 Z5.000
G0 X320.500 Y235.500 Z5.000
G1 Z-3.000 F400
G1 X7.500 Y235.500 F800
G0 Z5.000
G0 X7.500 Y237.500 Z5.000
G1 Z-3.000 F400
G1 X320.500 Y237.500 F800
G0 Z5.000
G0 X320.500 Y239.500 Z5.000
G1 Z-3.000 F400
G1 X7.500 Y239.500 F800
G0 Z5.000
G0 X7.500 Y241.500 Z5.000
G1 Z-3.000 F400
G1 X320.500 Y241.500 F800
G0 Z5.000
G0 X320.500 Y243.500 Z5.000
G1 Z-3.000 F400
G1 X7.500 Y243.500 F800
G0 Z5.000
G0 X7.500 Y245.500 Z5.000
G1 Z-3.000 F400
G1 X320.500 Y245.500 F800
G0 Z5.000
G0 X320.500 Y247.500 Z5.000
G1 Z-3.000 F400
G1 X7.500 Y247.500 F800
G0 Z5.000
G0 X7.500 Y249.500 Z5.000
G1 Z-3.000 F400
G1 X320.500 Y249.500 F800
G0 Z5.000
G0 X320.500 Y251.500 Z5.000
G1 Z-3.000 F400
G1 X7.500 Y251.500 F800
G0 Z5.000
G0 X7.500 Y253.500 Z5.000
G1 Z-3.000 F400
G1 X320.500 Y253.500 F800
G0 Z5.000
G0 X320.500 Y255.500 Z5.000
G1 Z-3.000 F400
G1 X7.500 Y255.500 F800
G0 Z5.000
G0 X7.500 Y257.500 Z5.000
G1 Z-3.000 F400
G1 X320.500 Y257.500 F800
G0 Z5.000
G0 X320.500 Y259.500 Z5.000
G1 Z-3.000 F400
G1 X7.500 Y259.500 F800
G0 Z5.000
G0 X7.500 Y261.500 Z5.000
G1 Z-3.000 F400
G1 X320.500 Y261.500 F800
G0 Z5.000
G0 X320.500 Y263.500 Z5.000
G1 Z-3.000 F400
G1 X7.500 Y263.500 F800
G0 Z5.000
G0 X7.500 Y265.500 Z5.000
G1 Z-3.000 F400
G1 X320.500 Y265.500 F800
G0 Z5.000
G0 X320.500 Y267.500 Z5.000
G1 Z-3.000 F400
G1 X7.500 Y267.500 F800
G0 Z5.000
G0 X7.500 Y269.500 Z5.000
G1 Z-3.000 F400
G1 X320.500 Y269.500 F800
G0 Z5.000
G0 X320.500 Y271.500 Z5.000
G1 Z-3.000 F400
G1 X7.500 Y271.500 F800
G0 Z5.000
G0 X7.500 Y273.500 Z5.000
G1 Z-3.000 F400
G1 X320.500 Y273.500 F800
G0 Z5.000
G0 X320.500 Y275.500 Z5.000
G1 Z-3.000 F400
G1 X7.500 Y275.500 F800
G0 Z5.000
G0 X7.500 Y277.500 Z5.000
G1 Z-3.000 F400
G1 X320.500 Y277.500 F800
G0 Z5.000
G0 X320.500 Y279.500 Z5.000
G1 Z-3.000 F400
G1 X7.500 Y279.500 F800
G0 Z5.000
G0 X7.500 Y281.500 Z5.000
G1 Z-3.000 F400
G1 X320.500 Y281.500 F800
G0 Z5.000
G0 X320.500 Y283.500 Z5.000
G1 Z-3.000 F400
G1 X7.500 Y283.500 F800
G0 Z5.000
G0 X7.500 Y285.500 Z5.000
G1 Z-3.000 F400
G1 X320.500 Y285.500 F800
G0 Z5.000
G0 X320.500 Y287.500 Z5.000
G1 Z-3.000 F400
G1 X7.500 Y287.500 F800
G0 Z5.000
G0 X7.500 Y289.500 Z5.000
G1 Z-3.000 F400
G1 X320.500 Y289.500 F800
G0 Z5.000
G0 X320.500 Y291.500 Z5.000
G1 Z-3.000 F400
G1 X320.000 Y291.500 F800
G0 Z5.000
G0 X320.000 Y291.500 Z5.000
G1 Z-3.000 F400
G1 X7.500 Y291.500 F800
G0 Z5.000
G0 X-0.500 Y383.500 Z5.000
G1 Z-3.000 F400
G1 X0.838 Y383.500 F800
G0 Z5.000
G0 X319.162 Y383.500 Z5.000
G1 Z-3.000 F400
G1 X320.500 Y383.500 F800
G0 Z5.000
G0 X320.500 Y385.500 Z5.000
G1 Z-3.000 F400
G1 X316.778 Y385.500 F800
G0 Z5.000
G0 X3.222 Y385.500 Z5.000
G1 Z-3.000 F400
G1 X-0.500 Y385.500 F800
G0 Z5.000
G0 X-0.500 Y-0.500 Z5.000
G1 Z-5.000 F400
G1 X3.222 Y-0.500 F800
G0 Z5.000
G0 X316.778 Y-0.500 Z5.000
G1 Z-5.000 F400
G1 X320.500 Y-0.500 F800
G0 Z5.000
G0 X320.500 Y1.500 Z5.000
G1 Z-5.000 F400
G1 X319.162 Y1.500 F800
G0 Z5.000
G0 X0.838 Y1.500 Z5.000
G1 Z-5.000 F400
G1 X-0.500 Y1.500 F800
G0 Z5.000
G0 X148.587 Y99.500 Z5.000
G1 Z-5.000 F400
G1 X151.413 Y99.500 F800
G0 Z5.000
G0 X198.587 Y99.500 Z5.000
G1 Z-5.000 F400
G1 X201.413 Y99.500 F800
G0 Z5.000
G0 X246.999 Y143.500 Z5.000
G1 Z-5.000 F400
G1 X63.001 Y143.500 F800
G0 Z5.000
G0 X62.552 Y145.500 Z5.000
G1 Z-5.000 F400
G1 X247.448 Y145.500 F800
G0 Z5.000
G0 X244.969 Y147.500 Z5.000
G1 Z-5.000 F400
G1 X65.031 Y147.500 F800
G0 Z5.000
G0 X65.031 Y237.500 Z5.000
G1 Z-5.000 F400
G1 X244.969 Y237.500 F800
G0 Z5.000
G0 X247.448 Y239.500 Z5.000
G1 Z-5.000 F400
G1 X62.552 Y239.500 F800
G0 Z5.000
G0 X63.001 Y241.500 Z5.000
G1 Z-5.000 F400
G1 X246.999 Y241.500 F800
G0 Z5.000
G0 X201.413 Y285.500 Z5.000
G1 Z-5.000 F400
G1 X198.587 Y285.500 F800
G0 Z5.000
G0 X151.413 Y285.500 Z5.000
G1 Z-5.000 F400
G1 X148.587 Y285.500 F800
G0 Z5.000
G0 X-0.500 Y383.500 Z5.000
G1 Z-5.000 F400
G1 X0.838 Y383.500 F800
G0 Z5.000
G0 X319.162 Y383.500 Z5.000
G1 Z-5.000 F400
G1 X320.500 Y383.500 F800
G0 Z5.000
G0 X320.500 Y385.500 Z5.000
G1 Z-5.000 F400
G1 X316.778 Y385.500 F800
G0 Z5.000
G0 X3.222 Y385.500 Z5.000
G1 Z-5.000 F400
G1 X-0.500 Y385.500 F800
G0 Z5.000
G0 X-0.500 Y-0.500 Z5.000
G1 Z-7.000 F400
G1 X3.222 Y-0.500 F800
G0 Z5.000
G0 X316.778 Y-0.500 Z5.000
G1 Z-7.000 F400
G1 X320.500 Y-0.500 F800
G0 Z5.000
G0 X320.500 Y1.500 Z5.000
G1 Z-7.000 F400
G1 X319.162 Y1.500 F800
G0 Z5.000
G0 X0.838 Y1.500 Z5.000
G1 Z-7.000 F400
G1 X-0.500 Y1.500 F800
G0 Z5.000
G0 X127.130 Y5.500 Z5.000
G1 Z-7.000 F400
G1 X132.870 Y5.500 F800
G0 Z5.000
G0 X212.130 Y5.500 Z5.000
G1 Z-7.000 F400
G1 X217.870 Y5.500 F800
G0 Z5.000
G0 X218.498 Y7.500 Z5.000
G1 Z-7.000 F400
G1 X211.502 Y7.500 F800
G0 Z5.000
G0 X133.498 Y7.500 Z5.000
G1 Z-7.000 F400
G1 X126.502 Y7.500 F800
G0 Z5.000
G0 X127.130 Y9.500 Z5.000
G1 Z-7.000 F400
G1 X132.870 Y9.500 F800
G0 Z5.000
G0 X212.130 Y9.500 Z5.000
G1 Z-7.000 F400
G1 X217.870 Y9.500 F800
G0 Z5.000
G0 X216.800 Y79.500 Z5.000
G1 Z-7.000 F400
G1 X213.200 Y79.500 F800
G0 Z5.000
G0 X131.800 Y79.500 Z5.000
G1 Z-7.000 F400
G1 X128.200 Y79.500 F800
G0 Z5.000
G0 X126.648 Y81.500 Z5.000
G1 Z-7.000 F400
G1 X133.352 Y81.500 F800
G0 Z5.000
G0 X211.648 Y81.500 Z5.000
G1 Z-7.000 F400
G1 X218.352 Y81.500 F800
G0 Z5.000
G0 X218.352 Y83.500 Z5.000
G1 Z-7.000 F400
G1 X211.648 Y83.500 F800
G0 Z5.000
G0 X133.352 Y83.500 Z5.000
G1 Z-7.000 F400
G1 X126.648 Y83.500 F800
G0 Z5.000
G0 X128.200 Y85.500 Z5.000
G1 Z-7.000 F400
G1 X131.800 Y85.500 F800
G0 Z5.000
G0 X213.200 Y85.500 Z5.000
G1 Z-7.000 F400
G1 X216.800 Y85.500 F800
G0 Z5.000
G0 X201.413 Y99.500 Z5.000
G1 Z-7.000 F400
G1 X198.587 Y99.500 F800
G0 Z5.000
G0 X151.413 Y99.500 Z5.000
G1 Z-7.000 F400
G1 X148.587 Y99.500 F800
G0 Z5.000
G0 X63.001 Y143.500 Z5.000
G1 Z-7.000 F400
G1 X246.999 Y143.500 F800
G0 Z5.000
G0 X247.448 Y145.500 Z5.000
G1 Z-7.000 F400
G1 X62.552 Y145.500 F800
G0 Z5.000
G0 X65.031 Y147.500 Z5.000
G1 Z-7.000 F400
G1 X244.969 Y147.500 F800
G0 Z5.000
G0 X244.969 Y237.500 Z5.000
G1 Z-7.000 F400
G1 X65.031 Y237.500 F800
G0 Z5.000
G0 X62.552 Y239.500 Z5.000
G1 Z-7.000 F400
G1 X247.448 Y239.500 F800
G0 Z5.000
G0 X246.999 Y241.500 Z5.000
G1 Z-7.000 F400
G1 X63.001 Y241.500 F800
G0 Z5.000
G0 X148.587 Y285.500 Z5.000
G1 Z-7.000 F400
G1 X151.413 Y285.500 F800
G0 Z5.000
G0 X198.587 Y285.500 Z5.000
G1 Z-7.000 F400
G1 X201.413 Y285.500 F800
G0 Z5.000
G0 X216.800 Y299.500 Z5.000
G1 Z-7.000 F400
G1 X213.200 Y299.500 F800
G0 Z5.000
G0 X131.800 Y299.500 Z5.000
G1 Z-7.000 F400
G1 X128.200 Y299.500 F800
G0 Z5.000
G0 X126.648 Y301.500 Z5.000
G1 Z-7.000 F400
G1 X133.352 Y301.500 F800
G0 Z5.000
G0 X211.648 Y301.500 Z5.000
G1 Z-7.000 F400
G1 X218.352 Y301.500 F800
G0 Z5.000
G0 X218.352 Y303.500 Z5.000
G1 Z-7.000 F400
G1 X211.648 Y303.500 F800
G0 Z5.000
G0 X133.352 Y303.500 Z5.000
G1 Z-7.000 F400
G1 X126.648 Y303.500 F800
G0 Z5.000
G0 X128.200 Y305.500 Z5.000
G1 Z-7.000 F400
G1 X131.800 Y305.500 F800
G0 Z5.000
G0 X213.200 Y305.500 Z5.000
G1 Z-7.000 F400
G1 X216.800 Y305.500 F800
G0 Z5.000
G0 X217.870 Y375.500 Z5.000
G1 Z-7.000 F400
G1 X212.130 Y375.500 F800
G0 Z5.000
G0 X132.870 Y375.500 Z5.000
G1 Z-7.000 F400
G1 X127.130 Y375.500 F800
G0 Z5.000
G0 X126.502 Y377.500 Z5.000
G1 Z-7.000 F400
G1 X133.498 Y377.500 F800
G0 Z5.000
G0 X211.502 Y377.500 Z5.000
G1 Z-7.000 F400
G1 X218.498 Y377.500 F800
G0 Z5.000
G0 X217.870 Y379.500 Z5.000
G1 Z-7.000 F400
G1 X212.130 Y379.500 F800
G0 Z5.000
G0 X132.870 Y379.500 Z5.000
G1 Z-7.000 F400
G1 X127.130 Y379.500 F800
G0 Z5.000
G0 X-0.500 Y383.500 Z5.000
G1 Z-7.000 F400
G1 X0.838 Y383.500 F800
G0 Z5.000
G0 X319.162 Y383.500 Z5.000
G1 Z-7.000 F400
G1 X320.500 Y383.500 F800
G0 Z5.000
G0 X320.500 Y385.500 Z5.000
G1 Z-7.000 F400
G1 X316.778 Y385.500 F800
G0 Z5.000
G0 X3.222 Y385.500 Z5.000
G1 Z-7.000 F400
G1 X-0.500 Y385.500 F800
G0 Z5.000
G0 X-0.500 Y-0.500 Z5.000
G1 Z-9.000 F400
G1 X37.551 Y-0.500 F800
G0 Z5.000
G0 X282.449 Y-0.500 Z5.000
G1 Z-9.000 F400
G1 X320.500 Y-0.500 F800
G0 Z5.000
G0 X320.500 Y1.500 Z5.000
G1 Z-9.000 F400
G1 X282.500 Y1.500 F800
G0 Z5.000
G0 X37.500 Y1.500 Z5.000
G1 Z-9.000 F400
G1 X-0.500 Y1.500 F800
G0 Z5.000
G0 X-0.500 Y3.500 Z5.000
G1 Z-9.000 F400
G1 X37.500 Y3.500 F800
G0 Z5.000
G0 X282.500 Y3.500 Z5.000
G1 Z-9.000 F400
G1 X320.500 Y3.500 F800
G0 Z5.000
G0 X320.500 Y5.500 Z5.000
G1 Z-9.000 F400
G1 X282.500 Y5.500 F800
G0 Z5.000
G0 X217.870 Y5.500 Z5.000
G1 Z-9.000 F400
G1 X212.130 Y5.500 F800
G0 Z5.000
G0 X132.870 Y5.500 Z5.000
G1 Z-9.000 F400
G1 X127.130 Y5.500 F800
G0 Z5.000
G0 X37.500 Y5.500 Z5.000
G1 Z-9.000 F400
G1 X-0.500 Y5.500 F800
G0 Z5.000
G0 X-0.500 Y7.500 Z5.000
G1 Z-9.000 F400
G1 X37.500 Y7.500 F800
G0 Z5.000
G0 X126.502 Y7.500 Z5.000
G1 Z-9.000 F400
G1 X133.498 Y7.500 F800
G0 Z5.000
G0 X211.502 Y7.500 Z5.000
G1 Z-9.000 F400
G1 X218.498 Y7.500 F800
G0 Z5.000
G0 X282.500 Y7.500 Z5.000
G1 Z-9.000 F400
G1 X320.500 Y7.500 F800
G0 Z5.000
G0 X320.500 Y9.500 Z5.000
G1 Z-9.000 F400
G1 X282.500 Y9.500 F800
G0 Z5.000
G0 X217.870 Y9.500 Z5.000
G1 Z-9.000 F400
G1 X212.130 Y9.500 F800
G0 Z5.000
G0 X132.870 Y9.500 Z5.000
G1 Z-9.000 F400
G1 X127.130 Y9.500 F800
G0 Z5.000
G0 X37.500 Y9.500 Z5.000
G1 Z-9.000 F400
G1 X-0.500 Y9.500 F800
G0 Z5.000
G0 X-0.500 Y11.500 Z5.000
G1 Z-9.000 F400
G1 X37.500 Y11.500 F800
G0 Z5.000
G0 X282.500 Y11.500 Z5.000
G1 Z-9.000 F400
G1 X320.500 Y11.500 F800
G0 Z5.000
G0 X320.500 Y13.500 Z5.000
G1 Z-9.000 F400
G1 X282.500 Y13.500 F800
G0 Z5.000
G0 X37.500 Y13.500 Z5.000
G1 Z-9.000 F400
G1 X-0.500 Y13.500 F800
G0 Z5.000
G0 X-0.500 Y15.500 Z5.000
G1 Z-9.000 F400
G1 X37.500 Y15.500 F800
G0 Z5.000
G0 X282.500 Y15.500 Z5.000
G1 Z-9.000 F400
G1 X320.500 Y15.500 F800
G0 Z5.000
G0 X320.500 Y17.500 Z5.000
G1 Z-9.000 F400
G1 X282.500 Y17.500 F800
G0 Z5.000
G0 X37.500 Y17.500 Z5.000
G1 Z-9.000 F400
G1 X-0.500 Y17.500 F800
G0 Z5.000
G0 X-0.500 Y19.500 Z5.000
G1 Z-9.000 F400
G1 X37.500 Y19.500 F800
G0 Z5.000
G0 X282.500 Y19.500 Z5.000
G1 Z-9.000 F400
G1 X320.500 Y19.500 F800
G0 Z5.000
G0 X320.500 Y21.500 Z5.000
G1 Z-9.000 F400
G1 X282.500 Y21.500 F800
G0 Z5.000
G0 X37.500 Y21.500 Z5.000
G1 Z-9.000 F400
G1 X-0.500 Y21.500 F800
G0 Z5.000
G0 X-0.500 Y23.500 Z5.000
G1 Z-9.000 F400
G1 X37.500 Y23.500 F800
G0 Z5.000
G0 X282.500 Y23.500 Z5.000
G1 Z-9.000 F400
G1 X320.500 Y23.500 F800
G0 Z5.000
G0 X320.500 Y25.500 Z5.000
G1 Z-9.000 F400
G1 X282.500 Y25.500 F800
G0 Z5.000
G0 X37.500 Y25.500 Z5.000
G1 Z-9.000 F400
G1 X-0.500 Y25.500 F800
G0 Z5.000
G0 X-0.500 Y27.500 Z5.000
G1 Z-9.000 F400
G1 X37.500 Y27.500 F800
G0 Z5.000
G0 X282.500 Y27.500 Z5.000
G1 Z-9.000 F400
G1 X320.500 Y27.500 F800
G0 Z5.000
G0 X320.500 Y29.500 Z5.000
G1 Z-9.000 F400
G1 X282.500 Y29.500 F800
G0 Z5.000
G0 X37.500 Y29.500 Z5.000
G1 Z-9.000 F400
G1 X-0.500 Y29.500 F800
G0 Z5.000
G0 X-0.500 Y31.500 Z5.000
G1 Z-9.000 F400
G1 X37.500 Y31.500 F800
G0 Z5.000
G0 X282.500 Y31.500 Z5.000
G1 Z-9.000 F400
G1 X320.500 Y31.500 F800
G0 Z5.000
G0 X320.500 Y33.500 Z5.000
G1 Z-9.000 F400
G1 X282.500 Y33.500 F800
G0 Z5.000
G0 X37.500 Y33.500 Z5.000
G1 Z-9.000 F400
G1 X-0.500 Y33.500 F800
G0 Z5.000
G0 X-0.500 Y35.500 Z5.000
G1 Z-9.000 F400
G1 X37.500 Y35.500 F800
G0 Z5.000
G0 X282.500 Y35.500 Z5.000
G1 Z-9.000 F400
G1 X320.500 Y35.500 F800
G0 Z5.000
G0 X320.500 Y37.500 Z5.000
G1 Z-9.000 F400
G1 X282.500 Y37.500 F800
G0 Z5.000
G0 X37.500 Y37.500 Z5.000
G1 Z-9.000 F400
G1 X-0.500 Y37.500 F800
G0 Z5.000
G0 X-0.500 Y39.500 Z5.000
G1 Z-9.000 F400
G1 X37.500 Y39.500 F800
G0 Z5.000
G0 X282.500 Y39.500 Z5.000
G1 Z-9.000 F400
G1 X320.500 Y39.500 F800
G0 Z5.000
G0 X320.500 Y41.500 Z5.000
G1 Z-9.000 F400
G1 X282.500 Y41.500 F800
G0 Z5.000
G0 X37.500 Y41.500 Z5.000
G1 Z-9.000 F400
G1 X-0.500 Y41.500 F800
G0 Z5.000
G0 X-0.500 Y43.500 Z5.000
G1 Z-9.000 F400
G1 X37.500 Y43.500 F800
G0 Z5.000
G0 X282.500 Y43.500 Z5.000
G1 Z-9.000 F400
G1 X320.500 Y43.500 F800
G0 Z5.000
G0 X320.500 Y45.500 Z5.000
G1 Z-9.000 F400
G1 X282.500 Y45.500 F800
G0 Z5.000
G0 X37.500 Y45.500 Z5.000
G1 Z-9.000 F400
G1 X-0.500 Y45.500 F800
G0 Z5.000
G0 X-0.500 Y47.500 Z5.000
G1 Z-9.000 F400
G1 X37.500 Y47.500 F800
G0 Z5.000
G0 X282.500 Y47.500 Z5.000
G1 Z-9.000 F400
G1 X320.500 Y47.500 F800
G0 Z5.000
G0 X320.500 Y49.500 Z5.000
G1 Z-9.000 F400
G1 X282.500 Y49.500 F800
G0 Z5.000
G0 X37.500 Y49.500 Z5.000
G1 Z-9.000 F400
G1 X-0.500 Y49.500 F800
G0 Z5.000
G0 X-0.500 Y51.500 Z5.000
G1 Z-9.000 F400
G1 X37.500 Y51.500 F800
G0 Z5.000
G0 X282.500 Y51.500 Z5.000
G1 Z-9.000 F400
G1 X320.500 Y51.500 F800
G0 Z5.000
G0 X320.500 Y53.500 Z5.000
G1 Z-9.000 F400
G1 X282.500 Y53.500 F800
G0 Z5.000
G0 X37.500 Y53.500 Z5.000
G1 Z-9.000 F400
G1 X-0.500 Y53.500 F800
G0 Z5.000
G0 X-0.500 Y55.500 Z5.000
G1 Z-9.000 F400
G1 X37.500 Y55.500 F800
G0 Z5.000
G0 X282.500 Y55.500 Z5.000
G1 Z-9.000 F400
G1 X320.500 Y55.500 F800
G0 Z5.000
G0 X320.500 Y57.500 Z5.000
G1 Z-9.000 F400
G1 X282.500 Y57.500 F800
G0 Z5.000
G0 X37.500 Y57.500 Z5.000
G1 Z-9.000 F400
G1 X-0.500 Y57.500 F800
G0 Z5.000
G0 X-0.500 Y59.500 Z5.000
G1 Z-9.000 F400
G1 X37.500 Y59.500 F800
G0 Z5.000
G0 X282.500 Y59.500 Z5.000
G1 Z-9.000 F400
G1 X320.500 Y59.500 F800
G0 Z5.000
G0 X320.500 Y61.500 Z5.000
G1 Z-9.000 F400
G1 X282.500 Y61.500 F800
G0 Z5.000
G0 X37.500 Y61.500 Z5.000
G1 Z-9.000 F400
G1 X-0.500 Y61.500 F800
G0 Z5.000
G0 X-0.500 Y63.500 Z5.000
G1 Z-9.000 F400
G1 X37.500 Y63.500 F800
G0 Z5.000
G0 X282.500 Y63.500 Z5.000
G1 Z-9.000 F400
G1 X320.500 Y63.500 F800
G0 Z5.000
G0 X320.500 Y65.500 Z5.000
G1 Z-9.000 F400
G1 X282.500 Y65.500 F800
G0 Z5.000
G0 X37.500 Y65.500 Z5.000
G1 Z-9.000 F400
G1 X-0.500 Y65.500 F800
G0 Z5.000
G0 X-0.500 Y67.500 Z5.000
G1 Z-9.000 F400
G1 X37.500 Y67.500 F800
G0 Z5.000
G0 X282.500 Y67.500 Z5.000
G1 Z-9.000 F400
G1 X320.500 Y67.500 F800
G0 Z5.000
G0 X320.500 Y69.500 Z5.000
G1 Z-9.000 F400
G1 X282.500 Y69.500 F800
G0 Z5.000
G0 X37.500 Y69.500 Z5.000
G1 Z-9.000 F400
G1 X-0.500 Y69.500 F800
G0 Z5.000
G0 X-0.500 Y71.500 Z5.000
G1 Z-9.000 F400
G1 X37.500 Y71.500 F800
G0 Z5.000
G0 X282.500 Y71.500 Z5.000
G1 Z-9.000 F400
G1 X320.500 Y71.500 F800
G0 Z5.000
G0 X320.500 Y73.500 Z5.000
G1 Z-9.000 F400
G1 X282.500 Y73.500 F800
G0 Z5.000
G0 X37.500 Y73.500 Z5.000
G1 Z-9.000 F400
G1 X-0.500 Y73.500 F800
G0 Z5.000
G0 X-0.500 Y75.500 Z5.000
G1 Z-9.000 F400
G1 X37.500 Y75.500 F800
G0 Z5.000
G0 X282.500 Y75.500 Z5.000
G1 Z-9.000 F400
G1 X320.500 Y75.500 F800
G0 Z5.000
G0 X320.500 Y77.500 Z5.000
G1 Z-9.000 F400
G1 X282.500 Y77.500 F800
G0 Z5.000
G0 X37.500 Y77.500 Z5.000
G1 Z-9.000 F400
G1 X-0.500 Y77.500 F800
G0 Z5.000
G0 X-0.500 Y79.500 Z5.000
G1 Z-9.000 F400
G1 X37.500 Y79.500 F800
G0 Z5.000
G0 X128.200 Y79.500 Z5.000
G1 Z-9.000 F400
G1 X131.800 Y79.500 F800
G0 Z5.000
G0 X213.200 Y79.500 Z5.000
G1 Z-9.000 F400
G1 X216.800 Y79.500 F800
G0 Z5.000
G0 X282.500 Y79.500 Z5.000
G1 Z-9.000 F400
G1 X320.500 Y79.500 F800
G0 Z5.000
G0 X320.500 Y81.500 Z5.000
G1 Z-9.000 F400
G1 X282.500 Y81.500 F800
G0 Z5.000
G0 X218.352 Y81.500 Z5.000
G1 Z-9.000 F400
G1 X211.648 Y81.500 F800
G0 Z5.000
G0 X133.352 Y81.500 Z5.000
G1 Z-9.000 F400
G1 X126.648 Y81.500 F800
G0 Z5.000
G0 X37.500 Y81.500 Z5.000
G1 Z-9.000 F400
G1 X-0.500 Y81.500 F800
G0 Z5.000
G0 X-0.500 Y83.500 Z5.000
G1 Z-9.000 F400
G1 X37.500 Y83.500 F800
G0 Z5.000
G0 X126.648 Y83.500 Z5.000
G1 Z-9.000 F400
G1 X133.352 Y83.500 F800
G0 Z5.000
G0 X211.648 Y83.500 Z5.000
G1 Z-9.000 F400
G1 X218.352 Y83.500 F800
G0 Z5.000
G0 X282.500 Y83.500 Z5.000
G1 Z-9.000 F400
G1 X320.500 Y83.500 F800
G0 Z5.000
G0 X320.500 Y85.500 Z5.000
G1 Z-9.000 F400
G1 X282.500 Y85.500 F800
G0 Z5.000
G0 X216.800 Y85.500 Z5.000
G1 Z-9.000 F400
G1 X213.200 Y85.500 F800
G0 Z5.000
G0 X131.800 Y85.500 Z5.000
G1 Z-9.000 F400
G1 X128.200 Y85.500 F800
G0 Z5.000
G0 X37.500 Y85.500 Z5.000
G1 Z-9.000 F400
G1 X-0.500 Y85.500 F800
G0 Z5.000
G0 X-0.500 Y87.500 Z5.000
G1 Z-9.000 F400
G1 X37.500 Y87.500 F800
G0 Z5.000
G0 X282.500 Y87.500 Z5.000
G1 Z-9.000 F400
G1 X320.500 Y87.500 F800
G0 Z5.000
G0 X320.500 Y89.500 Z5.000
G1 Z-9.000 F400
G1 X282.500 Y89.500 F800
G0 Z5.000
G0 X37.500 Y89.500 Z5.000
G1 Z-9.000 F400
G1 X-0.500 Y89.500 F800
G0 Z5.000
G0 X-0.500 Y91.500 Z5.000
G1 Z-9.000 F400
G1 X37.500 Y91.500 F800
G0 Z5.000
G0 X282.500 Y91.500 Z5.000
G1 Z-9.000 F400
G1 X320.500 Y91.500 F800
G0 Z5.000
G0 X320.500 Y93.500 Z5.000
G1 Z-9.000 F400
G1 X282.500 Y93.500 F800
G0 Z5.000
G0 X37.500 Y93.500 Z5.000
G1 Z-9.000 F400
G1 X-0.500 Y93.500 F800
G0 Z5.000
G0 X-0.500 Y95.500 Z5.000
G1 Z-9.000 F400
G1 X37.500 Y95.500 F800
G0 Z5.000
G0 X282.500 Y95.500 Z5.000
G1 Z-9.000 F400
G1 X320.500 Y95.500 F800
G0 Z5.000
G0 X320.500 Y97.500 Z5.000
G1 Z-9.000 F400
G1 X282.500 Y97.500 F800
G0 Z5.000
G0 X37.500 Y97.500 Z5.000
G1 Z-9.000 F400
G1 X-0.500 Y97.500 F800
G0 Z5.000
G0 X-0.500 Y99.500 Z5.000
G1 Z-9.000 F400
G1 X37.500 Y99.500 F800
G0 Z5.000
G0 X148.587 Y99.500 Z5.000
G1 Z-9.000 F400
G1 X151.413 Y99.500 F800
G0 Z5.000
G0 X198.587 Y99.500 Z5.000
G1 Z-9.000 F400
G1 X201.413 Y99.500 F800
G0 Z5.000
G0 X282.500 Y99.500 Z5.000
G1 Z-9.000 F400
G1 X320.500 Y99.500 F800
G0 Z5.000
G0 X320.500 Y101.500 Z5.000
G1 Z-9.000 F400
G1 X282.500 Y101.500 F800
G0 Z5.000
G0 X37.500 Y101.500 Z5.000
G1 Z-9.000 F400
G1 X-0.500 Y101.500 F800
G0 Z5.000
G0 X-0.500 Y103.500 Z5.000
G1 Z-9.000 F400
G1 X37.500 Y103.500 F800
G0 Z5.000
G0 X282.500 Y103.500 Z5.000
G1 Z-9.000 F400
G1 X320.500 Y103.500 F800
G0 Z5.000
G0 X320.500 Y105.500 Z5.000
G1 Z-9.000 F400
G1 X282.500 Y105.500 F800
G0 Z5.000
G0 X37.500 Y105.500 Z5.000
G1 Z-9.000 F400
G1 X-0.500 Y105.500 F800
G0 Z5.000
G0 X-0.500 Y107.500 Z5.000
G1 Z-9.000 F400
G1 X37.500 Y107.500 F800
G0 Z5.000
G0 X282.500 Y107.500 Z5.000
G1 Z-9.000 F400
G1 X320.500 Y107.500 F800
G0 Z5.000
G0 X320.500 Y109.500 Z5.000
G1 Z-9.000 F400
G1 X282.500 Y109.500 F800
G0 Z5.000
G0 X37.500 Y109.500 Z5.000
G1 Z-9.000 F400
G1 X-0.500 Y109.500 F800
G0 Z5.000
G0 X-0.500 Y111.500 Z5.000
G1 Z-9.000 F400
G1 X37.500 Y111.500 F800
G0 Z5.000
G0 X282.500 Y111.500 Z5.000
G1 Z-9.000 F400
G1 X320.500 Y111.500 F800
G0 Z5.000
G0 X320.500 Y113.500 Z5.000
G1 Z-9.000 F400
G1 X282.500 Y113.500 F800
G0 Z5.000
G0 X37.500 Y113.500 Z5.000
G1 Z-9.000 F400
G1 X-0.500 Y113.500 F800
G0 Z5.000
G0 X-0.500 Y115.500 Z5.000
G1 Z-9.000 F400
G1 X37.500 Y115.500 F800
G0 Z5.000
G0 X282.500 Y115.500 Z5.000
G1 Z-9.000 F400
G1 X320.500 Y115.500 F800
G0 Z5.000
G0 X320.500 Y117.500 Z5.000
G1 Z-9.000 F400
G1 X282.500 Y117.500 F800
G0 Z5.000
G0 X37.500 Y117.500 Z5.000
G1 Z-9.000 F400
G1 X-0.500 Y117.500 F800
G0 Z5.000
G0 X-0.500 Y119.500 Z5.000
G1 Z-9.000 F400
G1 X37.500 Y119.500 F800
G0 Z5.000
G0 X282.500 Y119.500 Z5.000
G1 Z-9.000 F400
G1 X320.500 Y119.500 F800
G0 Z5.000
G0 X320.500 Y121.500 Z5.000
G1 Z-9.000 F400
G1 X282.500 Y121.500 F800
G0 Z5.000
G0 X37.500 Y121.500 Z5.000
G1 Z-9.000 F400
G1 X-0.500 Y121.500 F800
G0 Z5.000
G0 X-0.500 Y123.500 Z5.000
G1 Z-9.000 F400
G1 X37.500 Y123.500 F800
G0 Z5.000
G0 X282.500 Y123.500 Z5.000
G1 Z-9.000 F400
G1 X320.500 Y123.500 F800
G0 Z5.000
G0 X320.500 Y125.500 Z5.000
G1 Z-9.000 F400
G1 X282.500 Y125.500 F800
G0 Z5.000
G0 X37.500 Y125.500 Z5.000
G1 Z-9.000 F400
G1 X-0.500 Y125.500 F800
G0 Z5.000
G0 X-0.500 Y127.500 Z5.000
G1 Z-9.000 F400
G1 X37.500 Y127.500 F800
G0 Z5.000
G0 X282.500 Y127.500 Z5.000
G1 Z-9.000 F400
G1 X320.500 Y127.500 F800
G0 Z5.000
G0 X320.500 Y129.500 Z5.000
G1 Z-9.000 F400
G1 X282.500 Y129.500 F800
G0 Z5.000
G0 X37.500 Y129.500 Z5.000
G1 Z-9.000 F400
G1 X-0.500 Y129.500 F800
G0 Z5.000
G0 X-0.500 Y131.500 Z5.000
G1 Z-9.000 F400
G1 X37.500 Y131.500 F800
G0 Z5.000
G0 X282.500 Y131.500 Z5.000
G1 Z-9.000 F400
G1 X320.500 Y131.500 F800
G0 Z5.000
G0 X320.500 Y133.500 Z5.000
G1 Z-9.000 F400
G1 X282.500 Y133.500 F800
G0 Z5.000
G0 X37.500 Y133.500 Z5.000
G1 Z-9.000 F400
G1 X-0.500 Y133.500 F800
G0 Z5.000
G0 X-0.500 Y135.500 Z5.000
G1 Z-9.000 F400
G1 X37.500 Y135.500 F800
G0 Z5.000
G0 X282.500 Y135.500 Z5.000
G1 Z-9.000 F400
G1 X320.500 Y135.500 F800
G0 Z5.000
G0 X320.500 Y137.500 Z5.000
G1 Z-9.000 F400
G1 X282.500 Y137.500 F800
G0 Z5.000
G0 X37.500 Y137.500 Z5.000
G1 Z-9.000 F400
G1 X-0.500 Y137.500 F800
G0 Z5.000
G0 X-0.500 Y139.500 Z5.000
G1 Z-9.000 F400
G1 X37.500 Y139.500 F800
G0 Z5.000
G0 X282.500 Y139.500 Z5.000
G1 Z-9.000 F400
G1 X320.500 Y139.500 F800
G0 Z5.000
G0 X320.500 Y141.500 Z5.000
G1 Z-9.000 F400
G1 X282.500 Y141.500 F800
G0 Z5.000
G0 X37.500 Y141.500 Z5.000
G1 Z-9.000 F400
G1 X-0.500 Y141.500 F800
G0 Z5.000
G0 X-0.500 Y143.500 Z5.000
G1 Z-9.000 F400
G1 X37.500 Y143.500 F800
G0 Z5.000
G0 X63.001 Y143.500 Z5.000
G1 Z-9.000 F400
G1 X246.999 Y143.500 F800
G0 Z5.000
G0 X282.500 Y143.500 Z5.000
G1 Z-9.000 F400
G1 X320.500 Y143.500 F800
G0 Z5.000
G0 X320.500 Y145.500 Z5.000
G1 Z-9.000 F400
G1 X282.500 Y145.500 F800
G0 Z5.000
G0 X247.448 Y145.500 Z5.000
G1 Z-9.000 F400
G1 X62.552 Y145.500 F800
G0 Z5.000
G0 X37.500 Y145.500 Z5.000
G1 Z-9.000 F400
G1 X-0.500 Y145.500 F800
G0 Z5.000
G0 X-0.500 Y147.500 Z5.000
G1 Z-9.000 F400
G1 X37.500 Y147.500 F800
G0 Z5.000
G0 X65.031 Y147.500 Z5.000
G1 Z-9.000 F400
G1 X244.969 Y147.500 F800
G0 Z5.000
G0 X282.500 Y147.500 Z5.000
G1 Z-9.000 F400
G1 X320.500 Y147.500 F800
G0 Z5.000
G0 X320.500 Y149.500 Z5.000
G1 Z-9.000 F400
G1 X282.500 Y149.500 F800
G0 Z5.000
G0 X37.500 Y149.500 Z5.000
G1 Z-9.000 F400
G1 X-0.500 Y149.500 F800
G0 Z5.000
G0 X-0.500 Y151.500 Z5.000
G1 Z-9.000 F400
G1 X37.500 Y151.500 F800
G0 Z5.000
G0 X282.500 Y151.500 Z5.000
G1 Z-9.000 F400
G1 X320.500 Y151.500 F800
G0 Z5.000
G0 X320.500 Y153.500 Z5.000
G1 Z-9.000 F400
G1 X282.500 Y153.500 F800
G0 Z5.000
G0 X37.500 Y153.500 Z5.000
G1 Z-9.000 F400
G1 X-0.500 Y153.500 F800
G0 Z5.000
G0 X-0.500 Y155.500 Z5.000
G1 Z-9.000 F400
G1 X37.500 Y155.500 F800
G0 Z5.000
G0 X282.500 Y155.500 Z5.000
G1 Z-9.000 F400
G1 X320.500 Y155.500 F800
G0 Z5.000
G0 X320.500 Y157.500 Z5.000
G1 Z-9.000 F400
G1 X282.500 Y157.500 F800
G0 Z5.000
G0 X37.500 Y157.500 Z5.000
G1 Z-9.000 F400
G1 X-0.500 Y157.500 F800
G0 Z5.000
G0 X-0.500 Y159.500 Z5.000
G1 Z-9.000 F400
G1 X37.500 Y159.500 F800
G0 Z5.000
G0 X282.500 Y159.500 Z5.000
G1 Z-9.000 F400
G1 X320.500 Y159.500 F800
G0 Z5.000
G0 X320.500 Y161.500 Z5.000
G1 Z-9.000 F400
G1 X282.500 Y161.500 F800
G0 Z5.000
G0 X37.500 Y161.500 Z5.000
G1 Z-9.000 F400
G1 X-0.500 Y161.500 F800
G0 Z5.000
G0 X-0.500 Y163.500 Z5.000
G1 Z-9.000 F400
G1 X37.500 Y163.500 F800
G0 Z5.000
G0 X282.500 Y163.500 Z5.000
G1 Z-9.000 F400
G1 X320.500 Y163.500 F800
G0 Z5.000
G0 X320.500 Y165.500 Z5.000
G1 Z-9.000 F400
G1 X282.500 Y165.500 F800
G0 Z5.000
G0 X37.500 Y165.500 Z5.000
G1 Z-9.000 F400
G1 X-0.500 Y165.500 F800
G0 Z5.000
G0 X-0.500 Y167.500 Z5.000
G1 Z-9.000 F400
G1 X37.500 Y167.500 F800
G0 Z5.000
G0 X282.500 Y167.500 Z5.000
G1 Z-9.000 F400
G1 X320.500 Y167.500 F800
G0 Z5.000
G0 X320.500 Y169.500 Z5.000
G1 Z-9.000 F400
G1 X282.500 Y169.500 F800
G0 Z5.000
G0 X37.500 Y169.500 Z5.000
G1 Z-9.000 F400
G1 X-0.500 Y169.500 F800
G0 Z5.000
G0 X-0.500 Y171.500 Z5.000
G1 Z-9.000 F400
G1 X37.500 Y171.500 F800
G0 Z5.000
G0 X282.500 Y171.500 Z5.000
G1 Z-9.000 F400
G1 X320.500 Y171.500 F800
G0 Z5.000
G0 X320.500 Y173.500 Z5.000
G1 Z-9.000 F400
G1 X282.500 Y173.500 F800
G0 Z5.000
G0 X37.500 Y173.500 Z5.000
G1 Z-9.000 F400
G1 X-0.500 Y173.500 F800
G0 Z5.000
G0 X-0.500 Y175.500 Z5.000
G1 Z-9.000 F400
G1 X37.500 Y175.500 F800
G0 Z5.000
G0 X282.500 Y175.500 Z5.000
G1 Z-9.000 F400
G1 X320.500 Y175.500 F800
G0 Z5.000
G0 X320.500 Y177.500 Z5.000
G1 Z-9.000 F400
G1 X282.500 Y177.500 F800
G0 Z5.000
G0 X37.500 Y177.500 Z5.000
G1 Z-9.000 F400
G1 X-0.500 Y177.500 F800
G0 Z5.000
G0 X-0.500 Y179.500 Z5.000
G1 Z-9.000 F400
G1 X37.500 Y179.500 F800
G0 Z5.000
G0 X282.500 Y179.500 Z5.000
G1 Z-9.000 F400
G1 X320.500 Y179.500 F800
G0 Z5.000
G0 X320.500 Y181.500 Z5.000
G1 Z-9.000 F400
G1 X282.500 Y181.500 F800
G0 Z5.000
G0 X37.500 Y181.500 Z5.000
G1 Z-9.000 F400
G1 X-0.500 Y181.500 F800
G0 Z5.000
G0 X-0.500 Y183.500 Z5.000
G1 Z-9.000 F400
G1 X37.500 Y183.500 F800
G0 Z5.000
G0 X282.500 Y183.500 Z5.000
G1 Z-9.000 F400
G1 X320.500 Y183.500 F800
G0 Z5.000
G0 X320.500 Y185.500 Z5.000
G1 Z-9.000 F400
G1 X282.500 Y185.500 F800
G0 Z5.000
G0 X37.500 Y185.500 Z5.000
G1 Z-9.000 F400
G1 X-0.500 Y185.500 F800
G0 Z5.000
G0 X-0.500 Y187.500 Z5.000
G1 Z-9.000 F400
G1 X37.500 Y187.500 F800
G0 Z5.000
G0 X282.500 Y187.500 Z5.000
G1 Z-9.000 F400
G1 X320.500 Y187.500 F800
G0 Z5.000
G0 X320.500 Y189.500 Z5.000
G1 Z-9.000 F400
G1 X282.500 Y189.500 F800
G0 Z5.000
G0 X37.500 Y189.500 Z5.000
G1 Z-9.000 F400
G1 X-0.500 Y189.500 F800
G0 Z5.000
G0 X-0.500 Y191.500 Z5.000
G1 Z-9.000 F400
G1 X37.500 Y191.500 F800
G0 Z5.000
G0 X282.500 Y191.500 Z5.000
G1 Z-9.000 F400
G1 X320.500 Y191.500 F800
G0 Z5.000
G0 X320.500 Y193.500 Z5.000
G1 Z-9.000 F400
G1 X282.500 Y193.500 F800
G0 Z5.000
G0 X37.500 Y193.500 Z5.000
G1 Z-9.000 F400
G1 X-0.500 Y193.500 F800
G0 Z5.000
G0 X-0.500 Y195.500 Z5.000
G1 Z-9.000 F400
G1 X37.500 Y195.500 F800
G0 Z5.000
G0 X282.500 Y195.500 Z5.000
G1 Z-9.000 F400
G1 X320.500 Y195.500 F800
G0 Z5.000
G0 X320.500 Y197.500 Z5.000
G1 Z-9.000 F400
G1 X282.500 Y197.500 F800
G0 Z5.000
G0 X37.500 Y197.500 Z5.000
G1 Z-9.000 F400
G1 X-0.500 Y197.500 F800
G0 Z5.000
G0 X-0.500 Y199.500 Z5.000
G1 Z-9.000 F400
G1 X37.500 Y199.500 F800
G0 Z5.000
G0 X282.500 Y199.500 Z5.000
G1 Z-9.000 F400
G1 X320.500 Y199.500 F800
G0 Z5.000
G0 X320.500 Y201.500 Z5.000
G1 Z-9.000 F400
G1 X282.500 Y201.500 F800
G0 Z5.000
G0 X37.500 Y201.500 Z5.000
G1 Z-9.000 F400
G1 X-0.500 Y201.500 F800
G0 Z5.000
G0 X-0.500 Y203.500 Z5.000
G1 Z-9.000 F400
G1 X37.500 Y203.500 F800
G0 Z5.000
G0 X282.500 Y203.500 Z5.000
G1 Z-9.000 F400
G1 X320.500 Y203.500 F800
G0 Z5.000
G0 X320.500 Y205.500 Z5.000
G1 Z-9.000 F400
G1 X282.500 Y205.500 F800
G0 Z5.000
G0 X37.500 Y205.500 Z5.000
G1 Z-9.000 F400
G1 X-0.500 Y205.500 F800
G0 Z5.000
G0 X-0.500 Y207.500 Z5.000
G1 Z-9.000 F400
G1 X37.500 Y207.500 F800
G0 Z5.000
G0 X282.500 Y207.500 Z5.000
G1 Z-9.000 F400
G1 X320.500 Y207.500 F800
G0 Z5.000
G0 X320.500 Y209.500 Z5.000
G1 Z-9.000 F400
G1 X282.500 Y209.500 F800
G0 Z5.000
G0 X37.500 Y209.500 Z5.000
G1 Z-9.000 F400
G1 X-0.500 Y209.500 F800
G0 Z5.000
G0 X-0.500 Y211.500 Z5.000
G1 Z-9.000 F400
G1 X37.500 Y211.500 F800
G0 Z5.000
G0 X282.500 Y211.500 Z5.000
G1 Z-9.000 F400
G1 X320.500 Y211.500 F800
G0 Z5.000
G0 X320.500 Y213.500 Z5.000
G1 Z-9.000 F400
G1 X282.500 Y213.500 F800
G0 Z5.000
G0 X37.500 Y213.500 Z5.000
G1 Z-9.000 F400
G1 X-0.500 Y213.500 F800
G0 Z5.000
G0 X-0.500 Y215.500 Z5.000
G1 Z-9.000 F400
G1 X37.500 Y215.500 F800
G0 Z5.000
G0 X282.500 Y215.500 Z5.000
G1 Z-9.000 F400
G1 X320.500 Y215.500 F800
G0 Z5.000
G0 X320.500 Y217.500 Z5.000
G1 Z-9.000 F400
G1 X282.500 Y217.500 F800
G0 Z5.000
G0 X37.500 Y217.500 Z5.000
G1 Z-9.000 F400
G1 X-0.500 Y217.500 F800
G0 Z5.000
G0 X-0.500 Y219.500 Z5.000
G1 Z-9.000 F400
G1 X37.500 Y219.500 F800
G0 Z5.000
G0 X282.500 Y219.500 Z5.000
G1 Z-9.000 F400
G1 X320.500 Y219.500 F800
G0 Z5.000
G0 X320.500 Y221.500 Z5.000
G1 Z-9.000 F400
G1 X282.500 Y221.500 F800
G0 Z5.000
G0 X37.500 Y221.500 Z5.000
G1 Z-9.000 F400
G1 X-0.500 Y221.500 F800
G0 Z5.000
G0 X-0.500 Y223.500 Z5.000
G1 Z-9.000 F400
G1 X37.500 Y223.500 F800
G0 Z5.000
G0 X282.500 Y223.500 Z5.000
G1 Z-9.000 F400
G1 X320.500 Y223.500 F800
G0 Z5.000
G0 X320.500 Y225.500 Z5.000
G1 Z-9.000 F400
G1 X282.500 Y225.500 F800
G0 Z5.000
G0 X37.500 Y225.500 Z5.000
G1 Z-9.000 F400
G1 X-0.500 Y225.500 F800
G0 Z5.000
G0 X-0.500 Y227.500 Z5.000
G1 Z-9.000 F400
G1 X37.500 Y227.500 F800
G0 Z5.000
G0 X282.500 Y227.500 Z5.000
G1 Z-9.000 F400
G1 X320.500 Y227.500 F800
G0 Z5.000
G0 X320.500 Y229.500 Z5.000
G1 Z-9.000 F400
G1 X282.500 Y229.500 F800
G0 Z5.000
G0 X37.500 Y229.500 Z5.000
G1 Z-9.000 F400
G1 X-0.500 Y229.500 F800
G0 Z5.000
G0 X-0.500 Y231.500 Z5.000
G1 Z-9.000 F400
G1 X37.500 Y231.500 F800
G0 Z5.000
G0 X282.500 Y231.500 Z5.000
G1 Z-9.000 F400
G1 X320.500 Y231.500 F800
G0 Z5.000
G0 X320.500 Y233.500 Z5.000
G1 Z-9.000 F400
G1 X282.500 Y233.500 F800
G0 Z5.000
G0 X37.500 Y233.500 Z5.000
G1 Z-9.000 F400
G1 X-0.500 Y233.500 F800
G0 Z5.000
G0 X-0.500 Y235.500 Z5.000
G1 Z-9.000 F400
G1 X37.500 Y235.500 F800
G0 Z5.000
G0 X282.500 Y235.500 Z5.000
G1 Z-9.000 F400
G1 X320.500 Y235.500 F800
G0 Z5.000
G0 X320.500 Y237.500 Z5.000
G1 Z-9.000 F400
G1 X282.500 Y237.500 F800
G0 Z5.000
G0 X244.969 Y237.500 Z5.000
G1 Z-9.000 F400
G1 X65.031 Y237.500 F800
G0 Z5.000
G0 X37.500 Y237.500 Z5.000
G1 Z-9.000 F400
G1 X-0.500 Y237.500 F800
G0 Z5.000
G0 X-0.500 Y239.500 Z5.000
G1 Z-9.000 F400
G1 X37.500 Y239.500 F800
G0 Z5.000
G0 X62.552 Y239.500 Z5.000
G1 Z-9.000 F400
G1 X247.448 Y239.500 F800
G0 Z5.000
G0 X282.500 Y239.500 Z5.000
G1 Z-9.000 F400
G1 X320.500 Y239.500 F800
G0 Z5.000
G0 X320.500 Y241.500 Z5.000
G1 Z-9.000 F400
G1 X282.500 Y241.500 F800
G0 Z5.000
G0 X246.999 Y241.500 Z5.000
G1 Z-9.000 F400
G1 X63.001 Y241.500 F800
G0 Z5.000
G0 X37.500 Y241.500 Z5.000
G1 Z-9.000 F400
G1 X-0.500 Y241.500 F800
G0 Z5.000
G0 X-0.500 Y243.500 Z5.000
G1 Z-9.000 F400
G1 X37.500 Y243.500 F800
G0 Z5.000
G0 X282.500 Y243.500 Z5.000
G1 Z-9.000 F400
G1 X320.500 Y243.500 F800
G0 Z5.000
G0 X320.500 Y245.500 Z5.000
G1 Z-9.000 F400
G1 X282.500 Y245.500 F800
G0 Z5.000
G0 X37.500 Y245.500 Z5.000
G1 Z-9.000 F400
G1 X-0.500 Y245.500 F800
G0 Z5.000
G0 X-0.500 Y247.500 Z5.000
G1 Z-9.000 F400
G1 X37.500 Y247.500 F800
G0 Z5.000
G0 X282.500 Y247.500 Z5.000
G1 Z-9.000 F400
G1 X320.500 Y247.500 F800
G0 Z5.000
G0 X320.500 Y249.500 Z5.000
G1 Z-9.000 F400
G1 X282.500 Y249.500 F800
G0 Z5.000
G0 X37.500 Y249.500 Z5.000
G1 Z-9.000 F400
G1 X-0.500 Y249.500 F800
G0 Z5.000
G0 X-0.500 Y251.500 Z5.000
G1 Z-9.000 F400
G1 X37.500 Y251.500 F800
G0 Z5.000
G0 X282.500 Y251.500 Z5.000
G1 Z-9.000 F400
G1 X320.500 Y251.500 F800
G0 Z5.000
G0 X320.500 Y253.500 Z5.000
G1 Z-9.000 F400
G1 X282.500 Y253.500 F800
G0 Z5.000
G0 X37.500 Y253.500 Z5.000
G1 Z-9.000 F400
G1 X-0.500 Y253.500 F800
G0 Z5.000
G0 X-0.500 Y255.500 Z5.000
G1 Z-9.000 F400
G1 X37.500 Y255.500 F800
G0 Z5.000
G0 X282.500 Y255.500 Z5.000
G1 Z-9.000 F400
G1 X320.500 Y255.500 F800
G0 Z5.000
G0 X320.500 Y257.500 Z5.000
G1 Z-9.000 F400
G1 X282.500 Y257.500 F800
G0 Z5.000
G0 X37.500 Y257.500 Z5.000
G1 Z-9.000 F400
G1 X-0.500 Y257.500 F800
G0 Z5.000
G0 X-0.500 Y259.500 Z5.000
G1 Z-9.000 F400
G1 X37.500 Y259.500 F800
G0 Z5.000
G0 X282.500 Y259.500 Z5.000
G1 Z-9.000 F400
G1 X320.500 Y259.500 F800
G0 Z5.000
G0 X320.500 Y261.500 Z5.000
G1 Z-9.000 F400
G1 X282.500 Y261.500 F800
G0 Z5.000
G0 X37.500 Y261.500 Z5.000
G1 Z-9.000 F400
G1 X-0.500 Y261.500 F800
G0 Z5.000
G0 X-0.500 Y263.500 Z5.000
G1 Z-9.000 F400
G1 X37.500 Y263.500 F800
G0 Z5.000
G0 X282.500 Y263.500 Z5.000
G1 Z-9.000 F400
G1 X320.500 Y263.500 F800
G0 Z5.000
G0 X320.500 Y265.500 Z5.000
G1 Z-9.000 F400
G1 X282.500 Y265.500 F800
G0 Z5.000
G0 X37.500 Y265.500 Z5.000
G1 Z-9.000 F400
G1 X-0.500 Y265.500 F800
G0 Z5.000
G0 X-0.500 Y267.500 Z5.000
G1 Z-9.000 F400
G1 X37.500 Y267.500 F800
G0 Z5.000
G0 X282.500 Y267.500 Z5.000
G1 Z-9.000 F400
G1 X320.500 Y267.500 F800
G0 Z5.000
G0 X320.500 Y269.500 Z5.000
G1 Z-9.000 F400
G1 X282.500 Y269.500 F800
G0 Z5.000
G0 X37.500 Y269.500 Z5.000
G1 Z-9.000 F400
G1 X-0.500 Y269.500 F800
G0 Z5.000
G0 X-0.500 Y271.500 Z5.000
G1 Z-9.000 F400
G1 X37.500 Y271.500 F800
G0 Z5.000
G0 X282.500 Y271.500 Z5.000
G1 Z-9.000 F400
G1 X320.500 Y271.500 F800
G0 Z5.000
G0 X320.500 Y273.500 Z5.000
G1 Z-9.000 F400
G1 X282.500 Y273.500 F800
G0 Z5.000
G0 X37.500 Y273.500 Z5.000
G1 Z-9.000 F400
G1 X-0.500 Y273.500 F800
G0 Z5.000
G0 X-0.500 Y275.500 Z5.000
G1 Z-9.000 F400
G1 X37.500 Y275.500 F800
G0 Z5.000
G0 X282.500 Y275.500 Z5.000
G1 Z-9.000 F400
G1 X320.500 Y275.500 F800
G0 Z5.000
G0 X320.500 Y277.500 Z5.000
G1 Z-9.000 F400
G1 X282.500 Y277.500 F800
G0 Z5.000
G0 X37.500 Y277.500 Z5.000
G1 Z-9.000 F400
G1 X-0.500 Y277.500 F800
G0 Z5.000
G0 X-0.500 Y279.500 Z5.000
G1 Z-9.000 F400
G1 X37.500 Y279.500 F800
G0 Z5.000
G0 X282.500 Y279.500 Z5.000
G1 Z-9.000 F400
G1 X320.500 Y279.500 F800
G0 Z5.000
G0 X320.500 Y281.500 Z5.000
G1 Z-9.000 F400
G1 X282.500 Y281.500 F800
G0 Z5.000
G0 X37.500 Y281.500 Z5.000
G1 Z-9.000 F400
G1 X-0.500 Y281.500 F800
G0 Z5.000
G0 X-0.500 Y283.500 Z5.000
G1 Z-9.000 F400
G1 X37.500 Y283.500 F800
G0 Z5.000
G0 X282.500 Y283.500 Z5.000
G1 Z-9.000 F400
G1 X320.500 Y283.500 F800
G0 Z5.000
G0 X320.500 Y285.500 Z5.000
G1 Z-9.000 F400
G1 X282.500 Y285.500 F800
G0 Z5.000
G0 X201.413 Y285.500 Z5.000
G1 Z-9.000 F400
G1 X198.587 Y285.500 F800
G0 Z5.000
G0 X151.413 Y285.500 Z5.000
G1 Z-9.000 F400
G1 X148.587 Y285.500 F800
G0 Z5.000
G0 X37.500 Y285.500 Z5.000
G1 Z-9.000 F400
G1 X-0.500 Y285.500 F800
G0 Z5.000
G0 X-0.500 Y287.500 Z5.000
G1 Z-9.000 F400
G1 X37.500 Y287.500 F800
G0 Z5.000
G0 X282.500 Y287.500 Z5.000
G1 Z-9.000 F400
G1 X320.500 Y287.500 F800
G0 Z5.000
G0 X320.500 Y289.500 Z5.000
G1 Z-9.000 F400
G1 X282.500 Y289.500 F800
G0 Z5.000
G0 X37.500 Y289.500 Z5.000
G1 Z-9.000 F400
G1 X-0.500 Y289.500 F800
G0 Z5.000
G0 X-0.500 Y291.500 Z5.000
G1 Z-9.000 F400
G1 X37.500 Y291.500 F800
G0 Z5.000
G0 X282.500 Y291.500 Z5.000
G1 Z-9.000 F400
G1 X320.500 Y291.500 F800
G0 Z5.000
G0 X320.500 Y293.500 Z5.000
G1 Z-9.000 F400
G1 X282.500 Y293.500 F800
G0 Z5.000
G0 X37.500 Y293.500 Z5.000
G1 Z-9.000 F400
G1 X-0.500 Y293.500 F800
G0 Z5.000
G0 X-0.500 Y295.500 Z5.000
G1 Z-9.000 F400
G1 X37.500 Y295.500 F800
G0 Z5.000
G0 X282.500 Y295.500 Z5.000
G1 Z-9.000 F400
G1 X320.500 Y295.500 F800
G0 Z5.000
G0 X320.500 Y297.500 Z5.000
G1 Z-9.000 F400
G1 X282.500 Y297.500 F800
G0 Z5.000
G0 X37.500 Y297.500 Z5.000
G1 Z-9.000 F400
G1 X-0.500 Y297.500 F800
G0 Z5.000
G0 X-0.500 Y299.500 Z5.000
G1 Z-9.000 F400
G1 X37.500 Y299.500 F800
G0 Z5.000
G0 X128.200 Y299.500 Z5.000
G1 Z-9.000 F400
G1 X131.800 Y299.500 F800
G0 Z5.000
G0 X213.200 Y299.500 Z5.000
G1 Z-9.000 F400
G1 X216.800 Y299.500 F800
G0 Z5.000
G0 X282.500 Y299.500 Z5.000
G1 Z-9.000 F400
G1 X320.500 Y299.500 F800
G0 Z5.000
G0 X320.500 Y301.500 Z5.000
G1 Z-9.000 F400
G1 X282.500 Y301.500 F800
G0 Z5.000
G0 X218.352 Y301.500 Z5.000
G1 Z-9.000 F400
G1 X211.648 Y301.500 F800
G0 Z5.000
G0 X133.352 Y301.500 Z5.000
G1 Z-9.000 F400
G1 X126.648 Y301.500 F800
G0 Z5.000
G0 X37.500 Y301.500 Z5.000
G1 Z-9.000 F400
G1 X-0.500 Y301.500 F800
G0 Z5.000
G0 X-0.500 Y303.500 Z5.000
G1 Z-9.000 F400
G1 X37.500 Y303.500 F800
G0 Z5.000
G0 X126.648 Y303.500 Z5.000
G1 Z-9.000 F400
G1 X133.352 Y303.500 F800
G0 Z5.000
G0 X211.648 Y303.500 Z5.000
G1 Z-9.000 F400
G1 X218.352 Y303.500 F800
G0 Z5.000
G0 X282.500 Y303.500 Z5.000
G1 Z-9.000 F400
G1 X320.500 Y303.500 F800
G0 Z5.000
G0 X320.500 Y305.500 Z5.000
G1 Z-9.000 F400
G1 X282.500 Y305.500 F800
G0 Z5.000
G0 X216.800 Y305.500 Z5.000
G1 Z-9.000 F400
G1 X213.200 Y305.500 F800
G0 Z5.000
G0 X131.800 Y305.500 Z5.000
G1 Z-9.000 F400
G1 X128.200 Y305.500 F800
G0 Z5.000
G0 X37.500 Y305.500 Z5.000
G1 Z-9.000 F400
G1 X-0.500 Y305.500 F800
G0 Z5.000
G0 X-0.500 Y307.500 Z5.000
G1 Z-9.000 F400
G1 X37.500 Y307.500 F800
G0 Z5.000
G0 X282.500 Y307.500 Z5.000
G1 Z-9.000 F400
G1 X320.500 Y307.500 F800
G0 Z5.000
G0 X320.500 Y309.500 Z5.000
G1 Z-9.000 F400
G1 X282.500 Y309.500 F800
G0 Z5.000
G0 X37.500 Y309.500 Z5.000
G1 Z-9.000 F400
G1 X-0.500 Y309.500 F800
G0 Z5.000
G0 X-0.500 Y311.500 Z5.000
G1 Z-9.000 F400
G1 X37.500 Y311.500 F800
G0 Z5.000
G0 X282.500 Y311.500 Z5.000
G1 Z-9.000 F400
G1 X320.500 Y311.500 F800
G0 Z5.000
G0 X320.500 Y313.500 Z5.000
G1 Z-9.000 F400
G1 X282.500 Y313.500 F800
G0 Z5.000
G0 X37.500 Y313.500 Z5.000
G1 Z-9.000 F400
G1 X-0.500 Y313.500 F800
G0 Z5.000
G0 X-0.500 Y315.500 Z5.000
G1 Z-9.000 F400
G1 X37.500 Y315.500 F800
G0 Z5.000
G0 X282.500 Y315.500 Z5.000
G1 Z-9.000 F400
G1 X320.500 Y315.500 F800
G0 Z5.000
G0 X320.500 Y317.500 Z5.000
G1 Z-9.000 F400
G1 X282.500 Y317.500 F800
G0 Z5.000
G0 X37.500 Y317.500 Z5.000
G1 Z-9.000 F400
G1 X-0.500 Y317.500 F800
G0 Z5.000
G0 X-0.500 Y319.500 Z5.000
G1 Z-9.000 F400
G1 X37.500 Y319.500 F800
G0 Z5.000
G0 X282.500 Y319.500 Z5.000
G1 Z-9.000 F400
G1 X320.500 Y319.500 F800
G0 Z5.000
G0 X320.500 Y321.500 Z5.000
G1 Z-9.000 F400
G1 X282.500 Y321.500 F800
G0 Z5.000
G0 X37.500 Y321.500 Z5.000
G1 Z-9.000 F400
G1 X-0.500 Y321.500 F800
G0 Z5.000
G0 X-0.500 Y323.500 Z5.000
G1 Z-9.000 F400
G1 X37.500 Y323.500 F800
G0 Z5.000
G0 X282.500 Y323.500 Z5.000
G1 Z-9.000 F400
G1 X320.500 Y323.500 F800
G0 Z5.000
G0 X320.500 Y325.500 Z5.000
G1 Z-9.000 F400
G1 X282.500 Y325.500 F800
G0 Z5.000
G0 X37.500 Y325.500 Z5.000
G1 Z-9.000 F400
G1 X-0.500 Y325.500 F800
G0 Z5.000
G0 X-0.500 Y327.500 Z5.000
G1 Z-9.000 F400
G1 X37.500 Y327.500 F800
G0 Z5.000
G0 X282.500 Y327.500 Z5.000
G1 Z-9.000 F400
G1 X320.500 Y327.500 F800
G0 Z5.000
G0 X320.500 Y329.500 Z5.000
G1 Z-9.000 F400
G1 X282.500 Y329.500 F800
G0 Z5.000
G0 X37.500 Y329.500 Z5.000
G1 Z-9.000 F400
G1 X-0.500 Y329.500 F800
G0 Z5.000
G0 X-0.500 Y331.500 Z5.000
G1 Z-9.000 F400
G1 X37.500 Y331.500 F800
G0 Z5.000
G0 X282.500 Y331.500 Z5.000
G1 Z-9.000 F400
G1 X320.500 Y331.500 F800
G0 Z5.000
G0 X320.500 Y333.500 Z5.000
G1 Z-9.000 F400
G1 X282.500 Y333.500 F800
G0 Z5.000
G0 X37.500 Y333.500 Z5.000
G1 Z-9.000 F400
G1 X-0.500 Y333.500 F800
G0 Z5.000
G0 X-0.500 Y335.500 Z5.000
G1 Z-9.000 F400
G1 X37.500 Y335.500 F800
G0 Z5.000
G0 X282.500 Y335.500 Z5.000
G1 Z-9.000 F400
G1 X320.500 Y335.500 F800
G0 Z5.000
G0 X320.500 Y337.500 Z5.000
G1 Z-9.000 F400
G1 X282.500 Y337.500 F800
G0 Z5.000
G0 X37.500 Y337.500 Z5.000
G1 Z-9.000 F400
G1 X-0.500 Y337.500 F800
G0 Z5.000
G0 X-0.500 Y339.500 Z5.000
G1 Z-9.000 F400
G1 X37.500 Y339.500 F800
G0 Z5.000
G0 X282.500 Y339.500 Z5.000
G1 Z-9.000 F400
G1 X320.500 Y339.500 F800
G0 Z5.000
G0 X320.500 Y341.500 Z5.000
G1 Z-9.000 F400
G1 X282.500 Y341.500 F800
G0 Z5.000
G0 X37.500 Y341.500 Z5.000
G1 Z-9.000 F400
G1 X-0.500 Y341.500 F800
G0 Z5.000
G0 X-0.500 Y343.500 Z5.000
G1 Z-9.000 F400
G1 X37.500 Y343.500 F800
G0 Z5.000
G0 X282.500 Y343.500 Z5.000
G1 Z-9.000 F400
G1 X320.500 Y343.500 F800
G0 Z5.000
G0 X320.500 Y345.500 Z5.000
G1 Z-9.000 F400
G1 X282.500 Y345.500 F800
G0 Z5.000
G0 X37.500 Y345.500 Z5.000
G1 Z-9.000 F400
G1 X-0.500 Y345.500 F800
G0 Z5.000
G0 X-0.500 Y347.500 Z5.000
G1 Z-9.000 F400
G1 X37.500 Y347.500 F800
G0 Z5.000
G0 X282.500 Y347.500 Z5.000
G1 Z-9.000 F400
G1 X320.500 Y347.500 F800
G0 Z5.000
G0 X320.500 Y349.500 Z5.000
G1 Z-9.000 F400
G1 X282.500 Y349.500 F800
G0 Z5.000
G0 X37.500 Y349.500 Z5.000
G1 Z-9.000 F400
G1 X-0.500 Y349.500 F800
G0 Z5.000
G0 X-0.500 Y351.500 Z5.000
G1 Z-9.000 F400
G1 X37.500 Y351.500 F800
G0 Z5.000
G0 X282.500 Y351.500 Z5.000
G1 Z-9.000 F400
G1 X320.500 Y351.500 F800
G0 Z5.000
G0 X320.500 Y353.500 Z5.000
G1 Z-9.000 F400
G1 X282.500 Y353.500 F800
G0 Z5.000
G0 X37.500 Y353.500 Z5.000
G1 Z-9.000 F400
G1 X-0.500 Y353.500 F800
G0 Z5.000
G0 X-0.500 Y355.500 Z5.000
G1 Z-9.000 F400
G1 X37.500 Y355.500 F800
G0 Z5.000
G0 X282.500 Y355.500 Z5.000
G1 Z-9.000 F400
G1 X320.500 Y355.500 F800
G0 Z5.000
G0 X320.500 Y357.500 Z5.000
G1 Z-9.000 F400
G1 X282.500 Y357.500 F800
G0 Z5.000
G0 X37.500 Y357.500 Z5.000
G1 Z-9.000 F400
G1 X-0.500 Y357.500 F800
G0 Z5.000
G0 X-0.500 Y359.500 Z5.000
G1 Z-9.000 F400
G1 X37.500 Y359.500 F800
G0 Z5.000
G0 X282.500 Y359.500 Z5.000
G1 Z-9.000 F400
G1 X320.500 Y359.500 F800
G0 Z5.000
G0 X320.500 Y361.500 Z5.000
G1 Z-9.000 F400
G1 X282.500 Y361.500 F800
G0 Z5.000
G0 X37.500 Y361.500 Z5.000
G1 Z-9.000 F400
G1 X-0.500 Y361.500 F800
G0 Z5.000
G0 X-0.500 Y363.500 Z5.000
G1 Z-9.000 F400
G1 X37.500 Y363.500 F800
G0 Z5.000
G0 X282.500 Y363.500 Z5.000
G1 Z-9.000 F400
G1 X320.500 Y363.500 F800
G0 Z5.000
G0 X320.500 Y365.500 Z5.000
G1 Z-9.000 F400
G1 X282.500 Y365.500 F800
G0 Z5.000
G0 X37.500 Y365.500 Z5.000
G1 Z-9.000 F400
G1 X-0.500 Y365.500 F800
G0 Z5.000
G0 X-0.500 Y367.500 Z5.000
G1 Z-9.000 F400
G1 X37.500 Y367.500 F800
G0 Z5.000
G0 X282.500 Y367.500 Z5.000
G1 Z-9.000 F400
G1 X320.500 Y367.500 F800
G0 Z5.000
G0 X320.500 Y369.500 Z5.000
G1 Z-9.000 F400
G1 X282.500 Y369.500 F800
G0 Z5.000
G0 X37.500 Y369.500 Z5.000
G1 Z-9.000 F400
G1 X-0.500 Y369.500 F800
G0 Z5.000
G0 X-0.500 Y371.500 Z5.000
G1 Z-9.000 F400
G1 X37.500 Y371.500 F800
G0 Z5.000
G0 X282.500 Y371.500 Z5.000
G1 Z-9.000 F400
G1 X320.500 Y371.500 F800
G0 Z5.000
G0 X320.500 Y373.500 Z5.000
G1 Z-9.000 F400
G1 X282.500 Y373.500 F800
G0 Z5.000
G0 X37.500 Y373.500 Z5.000
G1 Z-9.000 F400
G1 X-0.500 Y373.500 F800
G0 Z5.000
G0 X-0.500 Y375.500 Z5.000
G1 Z-9.000 F400
G1 X37.500 Y375.500 F800
G0 Z5.000
G0 X127.130 Y375.500 Z5.000
G1 Z-9.000 F400
G1 X132.870 Y375.500 F800
G0 Z5.000
G0 X212.130 Y375.500 Z5.000
G1 Z-9.000 F400
G1 X217.870 Y375.500 F800
G0 Z5.000
G0 X282.500 Y375.500 Z5.000
G1 Z-9.000 F400
G1 X320.500 Y375.500 F800
G0 Z5.000
G0 X320.500 Y377.500 Z5.000
G1 Z-9.000 F400
G1 X282.500 Y377.500 F800
G0 Z5.000
G0 X218.498 Y377.500 Z5.000
G1 Z-9.000 F400
G1 X211.502 Y377.500 F800
G0 Z5.000
G0 X133.498 Y377.500 Z5.000
G1 Z-9.000 F400
G1 X126.502 Y377.500 F800
G0 Z5.000
G0 X37.500 Y377.500 Z5.000
G1 Z-9.000 F400
G1 X-0.500 Y377.500 F800
G0 Z5.000
G0 X-0.500 Y379.500 Z5.000
G1 Z-9.000 F400
G1 X37.500 Y379.500 F800
G0 Z5.000
G0 X127.130 Y379.500 Z5.000
G1 Z-9.000 F400
G1 X132.870 Y379.500 F800
G0 Z5.000
G0 X212.130 Y379.500 Z5.000
G1 Z-9.000 F400
G1 X217.870 Y379.500 F800
G0 Z5.000
G0 X282.500 Y379.500 Z5.000
G1 Z-9.000 F400
G1 X320.500 Y379.500 F800
G0 Z5.000
G0 X320.500 Y381.500 Z5.000
G1 Z-9.000 F400
G1 X282.500 Y381.500 F800
G0 Z5.000
G0 X37.500 Y381.500 Z5.000
G1 Z-9.000 F400
G1 X-0.500 Y381.500 F800
G0 Z5.000
G0 X-0.500 Y383.500 Z5.000
G1 Z-9.000 F400
G1 X37.500 Y383.500 F800
G0 Z5.000
G0 X282.500 Y383.500 Z5.000
G1 Z-9.000 F400
G1 X320.500 Y383.500 F800
G0 Z5.000
G0 X320.500 Y385.500 Z5.000
G1 Z-9.000 F400
G1 X282.449 Y385.500 F800
G0 Z5.000
G0 X37.551 Y385.500 Z5.000
G1 Z-9.000 F400
G1 X-0.500 Y385.500 F800
G0 Z5.000
G0 X-0.500 Y-0.500 Z5.000
G1 Z-10.000 F400
G1 X320.500 Y-0.500 F800
G0 Z5.000
G0 X320.500 Y1.500 Z5.000
G1 Z-10.000 F400
G1 X-0.500 Y1.500 F800
G0 Z5.000
G0 X-0.500 Y3.500 Z5.000
G1 Z-10.000 F400
G1 X320.500 Y3.500 F800
G0 Z5.000
G0 X320.500 Y5.500 Z5.000
G1 Z-10.000 F400
G1 X-0.500 Y5.500 F800
G0 Z5.000
G0 X-0.500 Y7.500 Z5.000
G1 Z-10.000 F400
G1 X320.500 Y7.500 F800
G0 Z5.000
G0 X320.500 Y9.500 Z5.000
G1 Z-10.000 F400
G1 X-0.500 Y9.500 F800
G0 Z5.000
G0 X-0.500 Y11.500 Z5.000
G1 Z-10.000 F400
G1 X320.500 Y11.500 F800
G0 Z5.000
G0 X320.500 Y13.500 Z5.000
G1 Z-10.000 F400
G1 X-0.500 Y13.500 F800
G0 Z5.000
G0 X-0.500 Y15.500 Z5.000
G1 Z-10.000 F400
G1 X320.500 Y15.500 F800
G0 Z5.000
G0 X320.500 Y17.500 Z5.000
G1 Z-10.000 F400
G1 X-0.500 Y17.500 F800
G0 Z5.000
G0 X-0.500 Y19.500 Z5.000
G1 Z-10.000 F400
G1 X320.500 Y19.500 F800
G0 Z5.000
G0 X320.500 Y21.500 Z5.000
G1 Z-10.000 F400
G1 X-0.500 Y21.500 F800
G0 Z5.000
G0 X-0.500 Y23.500 Z5.000
G1 Z-10.000 F400
G1 X320.500 Y23.500 F800
G0 Z5.000
G0 X320.500 Y25.500 Z5.000
G1 Z-10.000 F400
G1 X-0.500 Y25.500 F800
G0 Z5.000
G0 X-0.500 Y27.500 Z5.000
G1 Z-10.000 F400
G1 X320.500 Y27.500 F800
G0 Z5.000
G0 X320.500 Y29.500 Z5.000
G1 Z-10.000 F400
G1 X-0.500 Y29.500 F800
G0 Z5.000
G0 X-0.500 Y31.500 Z5.000
G1 Z-10.000 F400
G1 X320.500 Y31.500 F800
G0 Z5.000
G0 X320.500 Y33.500 Z5.000
G1 Z-10.000 F400
G1 X-0.500 Y33.500 F800
G0 Z5.000
G0 X-0.500 Y35.500 Z5.000
G1 Z-10.000 F400
G1 X320.500 Y35.500 F800
G0 Z5.000
G0 X320.500 Y37.500 Z5.000
G1 Z-10.000 F400
G1 X-0.500 Y37.500 F800
G0 Z5.000
G0 X-0.500 Y39.500 Z5.000
G1 Z-10.000 F400
G1 X320.500 Y39.500 F800
G0 Z5.000
G0 X320.500 Y41.500 Z5.000
G1 Z-10.000 F400
G1 X-0.500 Y41.500 F800
G0 Z5.000
G0 X-0.500 Y43.500 Z5.000
G1 Z-10.000 F400
G1 X320.500 Y43.500 F800
G0 Z5.000
G0 X320.500 Y45.500 Z5.000
G1 Z-10.000 F400
G1 X-0.500 Y45.500 F800
G0 Z5.000
G0 X-0.500 Y47.500 Z5.000
G1 Z-10.000 F400
G1 X320.500 Y47.500 F800
G0 Z5.000
G0 X320.500 Y49.500 Z5.000
G1 Z-10.000 F400
G1 X-0.500 Y49.500 F800
G0 Z5.000
G0 X-0.500 Y51.500 Z5.000
G1 Z-10.000 F400
G1 X320.500 Y51.500 F800
G0 Z5.000
G0 X320.500 Y53.500 Z5.000
G1 Z-10.000 F400
G1 X-0.500 Y53.500 F800
G0 Z5.000
G0 X-0.500 Y55.500 Z5.000
G1 Z-10.000 F400
G1 X320.500 Y55.500 F800
G0 Z5.000
G0 X320.500 Y57.500 Z5.000
G1 Z-10.000 F400
G1 X-0.500 Y57.500 F800
G0 Z5.000
G0 X-0.500 Y59.500 Z5.000
G1 Z-10.000 F400
G1 X320.500 Y59.500 F800
G0 Z5.000
G0 X320.500 Y61.500 Z5.000
G1 Z-10.000 F400
G1 X-0.500 Y61.500 F800
G0 Z5.000
G0 X-0.500 Y63.500 Z5.000
G1 Z-10.000 F400
G1 X320.500 Y63.500 F800
G0 Z5.000
G0 X320.500 Y65.500 Z5.000
G1 Z-10.000 F400
G1 X-0.500 Y65.500 F800
G0 Z5.000
G0 X-0.500 Y67.500 Z5.000
G1 Z-10.000 F400
G1 X320.500 Y67.500 F800
G0 Z5.000
G0 X320.500 Y69.500 Z5.000
G1 Z-10.000 F400
G1 X-0.500 Y69.500 F800
G0 Z5.000
G0 X-0.500 Y71.500 Z5.000
G1 Z-10.000 F400
G1 X320.500 Y71.500 F800
G0 Z5.000
G0 X320.500 Y73.500 Z5.000
G1 Z-10.000 F400
G1 X-0.500 Y73.500 F800
G0 Z5.000
G0 X-0.500 Y75.500 Z5.000
G1 Z-10.000 F400
G1 X320.500 Y75.500 F800
G0 Z5.000
G0 X320.500 Y77.500 Z5.000
G1 Z-10.000 F400
G1 X-0.500 Y77.500 F800
G0 Z5.000
G0 X-0.500 Y79.500 Z5.000
G1 Z-10.000 F400
G1 X320.500 Y79.500 F800
G0 Z5.000
G0 X320.500 Y81.500 Z5.000
G1 Z-10.000 F400
G1 X-0.500 Y81.500 F800
G0 Z5.000
G0 X-0.500 Y83.500 Z5.000
G1 Z-10.000 F400
G1 X320.500 Y83.500 F800
G0 Z5.000
G0 X320.500 Y85.500 Z5.000
G1 Z-10.000 F400
G1 X-0.500 Y85.500 F800
G0 Z5.000
G0 X-0.500 Y87.500 Z5.000
G1 Z-10.000 F400
G1 X320.500 Y87.500 F800
G0 Z5.000
G0 X320.500 Y89.500 Z5.000
G1 Z-10.000 F400
G1 X-0.500 Y89.500 F800
G0 Z5.000
G0 X-0.500 Y91.500 Z5.000
G1 Z-10.000 F400
G1 X320.500 Y91.500 F800
G0 Z5.000
G0 X320.500 Y93.500 Z5.000
G1 Z-10.000 F400
G1 X-0.500 Y93.500 F800
G0 Z5.000
G0 X-0.500 Y95.500 Z5.000
G1 Z-10.000 F400
G1 X320.500 Y95.500 F800
G0 Z5.000
G0 X320.500 Y97.500 Z5.000
G1 Z-10.000 F400
G1 X-0.500 Y97.500 F800
G0 Z5.000
G0 X-0.500 Y99.500 Z5.000
G1 Z-10.000 F400
G1 X320.500 Y99.500 F800
G0 Z5.000
G0 X320.500 Y101.500 Z5.000
G1 Z-10.000 F400
G1 X-0.500 Y101.500 F800
G0 Z5.000
G0 X-0.500 Y103.500 Z5.000
G1 Z-10.000 F400
G1 X320.500 Y103.500 F800
G0 Z5.000
G0 X320.500 Y105.500 Z5.000
G1 Z-10.000 F400
G1 X-0.500 Y105.500 F800
G0 Z5.000
G0 X-0.500 Y107.500 Z5.000
G1 Z-10.000 F400
G1 X320.500 Y107.500 F800
G0 Z5.000
G0 X320.500 Y109.500 Z5.000
G1 Z-10.000 F400
G1 X-0.500 Y109.500 F800
G0 Z5.000
G0 X-0.500 Y111.500 Z5.000
G1 Z-10.000 F400
G1 X320.500 Y111.500 F800
G0 Z5.000
G0 X320.500 Y113.500 Z5.000
G1 Z-10.000 F400
G1 X-0.500 Y113.500 F800
G0 Z5.000
G0 X-0.500 Y115.500 Z5.000
G1 Z-10.000 F400
G1 X320.500 Y115.500 F800
G0 Z5.000
G0 X320.500 Y117.500 Z5.000
G1 Z-10.000 F400
G1 X-0.500 Y117.500 F800
G0 Z5.000
G0 X-0.500 Y119.500 Z5.000
G1 Z-10.000 F400
G1 X320.500 Y119.500 F800
G0 Z5.000
G0 X320.500 Y121.500 Z5.000
G1 Z-10.000 F400
G1 X-0.500 Y121.500 F800
G0 Z5.000
G0 X-0.500 Y123.500 Z5.000
G1 Z-10.000 F400
G1 X320.500 Y123.500 F800
G0 Z5.000
G0 X320.500 Y125.500 Z5.000
G1 Z-10.000 F400
G1 X-0.500 Y125.500 F800
G0 Z5.000
G0 X-0.500 Y127.500 Z5.000
G1 Z-10.000 F400
G1 X320.500 Y127.500 F800
G0 Z5.000
G0 X320.500 Y129.500 Z5.000
G1 Z-10.000 F400
G1 X-0.500 Y129.500 F800
G0 Z5.000
G0 X-0.500 Y131.500 Z5.000
G1 Z-10.000 F400
G1 X320.500 Y131.500 F800
G0 Z5.000
G0 X320.500 Y133.500 Z5.000
G1 Z-10.000 F400
G1 X-0.500 Y133.500 F800
G0 Z5.000
G0 X-0.500 Y135.500 Z5.000
G1 Z-10.000 F400
G1 X320.500 Y135.500 F800
G0 Z5.000
G0 X320.500 Y137.500 Z5.000
G1 Z-10.000 F400
G1 X-0.500 Y137.500 F800
G0 Z5.000
G0 X-0.500 Y139.500 Z5.000
G1 Z-10.000 F400
G1 X320.500 Y139.500 F800
G0 Z5.000
G0 X320.500 Y141.500 Z5.000
G1 Z-10.000 F400
G1 X-0.500 Y141.500 F800
G0 Z5.000
G0 X-0.500 Y143.500 Z5.000
G1 Z-10.000 F400
G1 X320.500 Y143.500 F800
G0 Z5.000
G0 X320.500 Y145.500 Z5.000
G1 Z-10.000 F400
G1 X-0.500 Y145.500 F800
G0 Z5.000
G0 X-0.500 Y147.500 Z5.000
G1 Z-10.000 F400
G1 X320.500 Y147.500 F800
G0 Z5.000
G0 X320.500 Y149.500 Z5.000
G1 Z-10.000 F400
G1 X-0.500 Y149.500 F800
G0 Z5.000
G0 X-0.500 Y151.500 Z5.000
G1 Z-10.000 F400
G1 X320.500 Y151.500 F800
G0 Z5.000
G0 X320.500 Y153.500 Z5.000
G1 Z-10.000 F400
G1 X-0.500 Y153.500 F800
G0 Z5.000
G0 X-0.500 Y155.500 Z5.000
G1 Z-10.000 F400
G1 X320.500 Y155.500 F800
G0 Z5.000
G0 X320.500 Y157.500 Z5.000
G1 Z-10.000 F400
G1 X-0.500 Y157.500 F800
G0 Z5.000
G0 X-0.500 Y159.500 Z5.000
G1 Z-10.000 F400
G1 X320.500 Y159.500 F800
G0 Z5.000
G0 X320.500 Y161.500 Z5.000
G1 Z-10.000 F400
G1 X-0.500 Y161.500 F800
G0 Z5.000
G0 X-0.500 Y163.500 Z5.000
G1 Z-10.000 F400
G1 X320.500 Y163.500 F800
G0 Z5.000
G0 X320.500 Y165.500 Z5.000
G1 Z-10.000 F400
G1 X-0.500 Y165.500 F800
G0 Z5.000
G0 X-0.500 Y167.500 Z5.000
G1 Z-10.000 F400
G1 X320.500 Y167.500 F800
G0 Z5.000
G0 X320.500 Y169.500 Z5.000
G1 Z-10.000 F400
G1 X-0.500 Y169.500 F800
G0 Z5.000
G0 X-0.500 Y171.500 Z5.000
G1 Z-10.000 F400
G1 X320.500 Y171.500 F800
G0 Z5.000
G0 X320.500 Y173.500 Z5.000
G1 Z-10.000 F400
G1 X-0.500 Y173.500 F800
G0 Z5.000
G0 X-0.500 Y175.500 Z5.000
G1 Z-10.000 F400
G1 X320.500 Y175.500 F800
G0 Z5.000
G0 X320.500 Y177.500 Z5.000
G1 Z-10.000 F400
G1 X-0.500 Y177.500 F800
G0 Z5.000
G0 X-0.500 Y179.500 Z5.000
G1 Z-10.000 F400
G1 X320.500 Y179.500 F800
G0 Z5.000
G0 X320.500 Y181.500 Z5.000
G1 Z-10.000 F400
G1 X-0.500 Y181.500 F800
G0 Z5.000
G0 X-0.500 Y183.500 Z5.000
G1 Z-10.000 F400
G1 X320.500 Y183.500 F800
G0 Z5.000
G0 X320.500 Y185.500 Z5.000
G1 Z-10.000 F400
G1 X-0.500 Y185.500 F800
G0 Z5.000
G0 X-0.500 Y187.500 Z5.000
G1 Z-10.000 F400
G1 X320.500 Y187.500 F800
G0 Z5.000
G0 X320.500 Y189.500 Z5.000
G1 Z-10.000 F400
G1 X-0.500 Y189.500 F800
G0 Z5.000
G0 X-0.500 Y191.500 Z5.000
G1 Z-10.000 F400
G1 X320.500 Y191.500 F800
G0 Z5.000
G0 X320.500 Y193.500 Z5.000
G1 Z-10.000 F400
G1 X-0.500 Y193.500 F800
G0 Z5.000
G0 X-0.500 Y195.500 Z5.000
G1 Z-10.000 F400
G1 X320.500 Y195.500 F800
G0 Z5.000
G0 X320.500 Y197.500 Z5.000
G1 Z-10.000 F400
G1 X-0.500 Y197.500 F800
G0 Z5.000
G0 X-0.500 Y199.500 Z5.000
G1 Z-10.000 F400
G1 X320.500 Y199.500 F800
G0 Z5.000
G0 X320.500 Y201.500 Z5.000
G1 Z-10.000 F400
G1 X-0.500 Y201.500 F800
G0 Z5.000
G0 X-0.500 Y203.500 Z5.000
G1 Z-10.000 F400
G1 X320.500 Y203.500 F800
G0 Z5.000
G0 X320.500 Y205.500 Z5.000
G1 Z-10.000 F400
G1 X-0.500 Y205.500 F800
G0 Z5.000
G0 X-0.500 Y207.500 Z5.000
G1 Z-10.000 F400
G1 X320.500 Y207.500 F800
G0 Z5.000
G0 X320.500 Y209.500 Z5.000
G1 Z-10.000 F400
G1 X-0.500 Y209.500 F800
G0 Z5.000
G0 X-0.500 Y211.500 Z5.000
G1 Z-10.000 F400
G1 X320.500 Y211.500 F800
G0 Z5.000
G0 X320.500 Y213.500 Z5.000
G1 Z-10.000 F400
G1 X-0.500 Y213.500 F800
G0 Z5.000
G0 X-0.500 Y215.500 Z5.000
G1 Z-10.000 F400
G1 X320.500 Y215.500 F800
G0 Z5.000
G0 X320.500 Y217.500 Z5.000
G1 Z-10.000 F400
G1 X-0.500 Y217.500 F800
G0 Z5.000
G0 X-0.500 Y219.500 Z5.000
G1 Z-10.000 F400
G1 X320.500 Y219.500 F800
G0 Z5.000
G0 X320.500 Y221.500 Z5.000
G1 Z-10.000 F400
G1 X-0.500 Y221.500 F800
G0 Z5.000
G0 X-0.500 Y223.500 Z5.000
G1 Z-10.000 F400
G1 X320.500 Y223.500 F800
G0 Z5.000
G0 X320.500 Y225.500 Z5.000
G1 Z-10.000 F400
G1 X-0.500 Y225.500 F800
G0 Z5.000
G0 X-0.500 Y227.500 Z5.000
G1 Z-10.000 F400
G1 X320.500 Y227.500 F800
G0 Z5.000
G0 X320.500 Y229.500 Z5.000
G1 Z-10.000 F400
G1 X-0.500 Y229.500 F800
G0 Z5.000
G0 X-0.500 Y231.500 Z5.000
G1 Z-10.000 F400
G1 X320.500 Y231.500 F800
G0 Z5.000
G0 X320.500 Y233.500 Z5.000
G1 Z-10.000 F400
G1 X-0.500 Y233.500 F800
G0 Z5.000
G0 X-0.500 Y235.500 Z5.000
G1 Z-10.000 F400
G1 X320.500 Y235.500 F800
G0 Z5.000
G0 X320.500 Y237.500 Z5.000
G1 Z-10.000 F400
G1 X-0.500 Y237.500 F800
G0 Z5.000
G0 X-0.500 Y239.500 Z5.000
G1 Z-10.000 F400
G1 X320.500 Y239.500 F800
G0 Z5.000
G0 X320.500 Y241.500 Z5.000
G1 Z-10.000 F400
G1 X-0.500 Y241.500 F800
G0 Z5.000
G0 X-0.500 Y243.500 Z5.000
G1 Z-10.000 F400
G1 X320.500 Y243.500 F800
G0 Z5.000
G0 X320.500 Y245.500 Z5.000
G1 Z-10.000 F400
G1 X-0.500 Y245.500 F800
G0 Z5.000
G0 X-0.500 Y247.500 Z5.000
G1 Z-10.000 F400
G1 X320.500 Y247.500 F800
G0 Z5.000
G0 X320.500 Y249.500 Z5.000
G1 Z-10.000 F400
G1 X-0.500 Y249.500 F800
G0 Z5.000
G0 X-0.500 Y251.500 Z5.000
G1 Z-10.000 F400
G1 X320.500 Y251.500 F800
G0 Z5.000
G0 X320.500 Y253.500 Z5.000
G1 Z-10.000 F400
G1 X-0.500 Y253.500 F800
G0 Z5.000
G0 X-0.500 Y255.500 Z5.000
G1 Z-10.000 F400
G1 X320.500 Y255.500 F800
G0 Z5.000
G0 X320.500 Y257.500 Z5.000
G1 Z-10.000 F400
G1 X-0.500 Y257.500 F800
G0 Z5.000
G0 X-0.500 Y259.500 Z5.000
G1 Z-10.000 F400
G1 X320.500 Y259.500 F800
G0 Z5.000
G0 X320.500 Y261.500 Z5.000
G1 Z-10.000 F400
G1 X-0.500 Y261.500 F800
G0 Z5.000
G0 X-0.500 Y263.500 Z5.000
G1 Z-10.000 F400
G1 X320.500 Y263.500 F800
G0 Z5.000
G0 X320.500 Y265.500 Z5.000
G1 Z-10.000 F400
G1 X-0.500 Y265.500 F800
G0 Z5.000
G0 X-0.500 Y267.500 Z5.000
G1 Z-10.000 F400
G1 X320.500 Y267.500 F800
G0 Z5.000
G0 X320.500 Y269.500 Z5.000
G1 Z-10.000 F400
G1 X-0.500 Y269.500 F800
G0 Z5.000
G0 X-0.500 Y271.500 Z5.000
G1 Z-10.000 F400
G1 X320.500 Y271.500 F800
G0 Z5.000
G0 X320.500 Y273.500 Z5.000
G1 Z-10.000 F400
G1 X-0.500 Y273.500 F800
G0 Z5.000
G0 X-0.500 Y275.500 Z5.000
G1 Z-10.000 F400
G1 X320.500 Y275.500 F800
G0 Z5.000
G0 X320.500 Y277.500 Z5.000
G1 Z-10.000 F400
G1 X-0.500 Y277.500 F800
G0 Z5.000
G0 X-0.500 Y279.500 Z5.000
G1 Z-10.000 F400
G1 X320.500 Y279.500 F800
G0 Z5.000
G0 X320.500 Y281.500 Z5.000
G1 Z-10.000 F400
G1 X-0.500 Y281.500 F800
G0 Z5.000
G0 X-0.500 Y283.500 Z5.000
G1 Z-10.000 F400
G1 X320.500 Y283.500 F800
G0 Z5.000
G0 X320.500 Y285.500 Z5.000
G1 Z-10.000 F400
G1 X-0.500 Y285.500 F800
G0 Z5.000
G0 X-0.500 Y287.500 Z5.000
G1 Z-10.000 F400
G1 X320.500 Y287.500 F800
G0 Z5.000
G0 X320.500 Y289.500 Z5.000
G1 Z-10.000 F400
G1 X-0.500 Y289.500 F800
G0 Z5.000
G0 X-0.500 Y291.500 Z5.000
G1 Z-10.000 F400
G1 X320.500 Y291.500 F800
G0 Z5.000
G0 X320.500 Y293.500 Z5.000
G1 Z-10.000 F400
G1 X-0.500 Y293.500 F800
G0 Z5.000
G0 X-0.500 Y295.500 Z5.000
G1 Z-10.000 F400
G1 X320.500 Y295.500 F800
G0 Z5.000
G0 X320.500 Y297.500 Z5.000
G1 Z-10.000 F400
G1 X-0.500 Y297.500 F800
G0 Z5.000
G0 X-0.500 Y299.500 Z5.000
G1 Z-10.000 F400
G1 X320.500 Y299.500 F800
G0 Z5.000
G0 X320.500 Y301.500 Z5.000
G1 Z-10.000 F400
G1 X-0.500 Y301.500 F800
G0 Z5.000
G0 X-0.500 Y303.500 Z5.000
G1 Z-10.000 F400
G1 X320.500 Y303.500 F800
G0 Z5.000
G0 X320.500 Y305.500 Z5.000
G1 Z-10.000 F400
G1 X-0.500 Y305.500 F800
G0 Z5.000
G0 X-0.500 Y307.500 Z5.000
G1 Z-10.000 F400
G1 X320.500 Y307.500 F800
G0 Z5.000
G0 X320.500 Y309.500 Z5.000
G1 Z-10.000 F400
G1 X-0.500 Y309.500 F800
G0 Z5.000
G0 X-0.500 Y311.500 Z5.000
G1 Z-10.000 F400
G1 X320.500 Y311.500 F800
G0 Z5.000
G0 X320.500 Y313.500 Z5.000
G1 Z-10.000 F400
G1 X-0.500 Y313.500 F800
G0 Z5.000
G0 X-0.500 Y315.500 Z5.000
G1 Z-10.000 F400
G1 X320.500 Y315.500 F800
G0 Z5.000
G0 X320.500 Y317.500 Z5.000
G1 Z-10.000 F400
G1 X-0.500 Y317.500 F800
G0 Z5.000
G0 X-0.500 Y319.500 Z5.000
G1 Z-10.000 F400
G1 X320.500 Y319.500 F800
G0 Z5.000
G0 X320.500 Y321.500 Z5.000
G1 Z-10.000 F400
G1 X-0.500 Y321.500 F800
G0 Z5.000
G0 X-0.500 Y323.500 Z5.000
G1 Z-10.000 F400
G1 X320.500 Y323.500 F800
G0 Z5.000
G0 X320.500 Y325.500 Z5.000
G1 Z-10.000 F400
G1 X-0.500 Y325.500 F800
G0 Z5.000
G0 X-0.500 Y327.500 Z5.000
G1 Z-10.000 F400
G1 X320.500 Y327.500 F800
G0 Z5.000
G0 X320.500 Y329.500 Z5.000
G1 Z-10.000 F400
G1 X-0.500 Y329.500 F800
G0 Z5.000
G0 X-0.500 Y331.500 Z5.000
G1 Z-10.000 F400
G1 X320.500 Y331.500 F800
G0 Z5.000
G0 X320.500 Y333.500 Z5.000
G1 Z-10.000 F400
G1 X-0.500 Y333.500 F800
G0 Z5.000
G0 X-0.500 Y335.500 Z5.000
G1 Z-10.000 F400
G1 X320.500 Y335.500 F800
G0 Z5.000
G0 X320.500 Y337.500 Z5.000
G1 Z-10.000 F400
G1 X-0.500 Y337.500 F800
G0 Z5.000
G0 X-0.500 Y339.500 Z5.000
G1 Z-10.000 F400
G1 X320.500 Y339.500 F800
G0 Z5.000
G0 X320.500 Y341.500 Z5.000
G1 Z-10.000 F400
G1 X-0.500 Y341.500 F800
G0 Z5.000
G0 X-0.500 Y343.500 Z5.000
G1 Z-10.000 F400
G1 X320.500 Y343.500 F800
G0 Z5.000
G0 X320.500 Y345.500 Z5.000
G1 Z-10.000 F400
G1 X-0.500 Y345.500 F800
G0 Z5.000
G0 X-0.500 Y347.500 Z5.000
G1 Z-10.000 F400
G1 X320.500 Y347.500 F800
G0 Z5.000
G0 X320.500 Y349.500 Z5.000
G1 Z-10.000 F400
G1 X-0.500 Y349.500 F800
G0 Z5.000
G0 X-0.500 Y351.500 Z5.000
G1 Z-10.000 F400
G1 X320.500 Y351.500 F800
G0 Z5.000
G0 X320.500 Y353.500 Z5.000
G1 Z-10.000 F400
G1 X-0.500 Y353.500 F800
G0 Z5.000
G0 X-0.500 Y355.500 Z5.000
G1 Z-10.000 F400
G1 X320.500 Y355.500 F800
G0 Z5.000
G0 X320.500 Y357.500 Z5.000
G1 Z-10.000 F400
G1 X-0.500 Y357.500 F800
G0 Z5.000
G0 X-0.500 Y359.500 Z5.000
G1 Z-10.000 F400
G1 X320.500 Y359.500 F800
G0 Z5.000
G0 X320.500 Y361.500 Z5.000
G1 Z-10.000 F400
G1 X-0.500 Y361.500 F800
G0 Z5.000
G0 X-0.500 Y363.500 Z5.000
G1 Z-10.000 F400
G1 X320.500 Y363.500 F800
G0 Z5.000
G0 X320.500 Y365.500 Z5.000
G1 Z-10.000 F400
G1 X-0.500 Y365.500 F800
G0 Z5.000
G0 X-0.500 Y367.500 Z5.000
G1 Z-10.000 F400
G1 X320.500 Y367.500 F800
G0 Z5.000
G0 X320.500 Y369.500 Z5.000
G1 Z-10.000 F400
G1 X-0.500 Y369.500 F800
G0 Z5.000
G0 X-0.500 Y371.500 Z5.000
G1 Z-10.000 F400
G1 X320.500 Y371.500 F800
G0 Z5.000
G0 X320.500 Y373.500 Z5.000
G1 Z-10.000 F400
G1 X-0.500 Y373.500 F800
G0 Z5.000
G0 X-0.500 Y375.500 Z5.000
G1 Z-10.000 F400
G1 X320.500 Y375.500 F800
G0 Z5.000
G0 X320.500 Y377.500 Z5.000
G1 Z-10.000 F400
G1 X-0.500 Y377.500 F800
G0 Z5.000
G0 X-0.500 Y379.500 Z5.000
G1 Z-10.000 F400
G1 X320.500 Y379.500 F800
G0 Z5.000
G0 X320.500 Y381.500 Z5.000
G1 Z-10.000 F400
G1 X-0.500 Y381.500 F800
G0 Z5.000
G0 X-0.500 Y383.500 Z5.000
G1 Z-10.000 F400
G1 X320.500 Y383.500 F800
G0 Z5.000
G0 X320.500 Y385.500 Z5.000
G1 Z-10.000 F400
G1 X-0.500 Y385.500 F800
G0 Z5.000
G0 X0 Y0
M5
M30
