(Cloud CAM Generated for Job 1942ba56-5ce3-41e6-a1e7-f028e7d23be3)
(Model: 70.0 x 70.0 x 10.0 mm)
(Params: step_down=2.0 spindle=4000 feed=800.0)
(Strategy: stock_aware_fallback)
G21 (metric)
G90 (absolute)
S4000 M3
G0 Z5.0
G0 X37.999 Y1.000 Z5.000
G1 Z-2.000 F400
G1 X69.000 Y1.000 F800
G0 Z5.000
G0 X69.000 Y3.400 Z5.000
G1 Z-2.000 F400
G1 X37.999 Y3.400 F800
G0 Z5.000
G0 X37.999 Y5.800 Z5.000
G1 Z-2.000 F400
G1 X69.000 Y5.800 F800
G0 Z5.000
G0 X69.000 Y8.200 Z5.000
G1 Z-2.000 F400
G1 X37.999 Y8.200 F800
G0 Z5.000
G0 X37.999 Y10.600 Z5.000
G1 Z-2.000 F400
G1 X69.000 Y10.600 F800
G0 Z5.000
G0 X69.000 Y13.000 Z5.000
G1 Z-2.000 F400
G1 X37.999 Y13.000 F800
G0 Z5.000
G0 X37.999 Y15.400 Z5.000
G1 Z-2.000 F400
G1 X69.000 Y15.400 F800
G0 Z5.000
G0 X69.000 Y17.800 Z5.000
G1 Z-2.000 F400
G1 X37.999 Y17.800 F800
G0 Z5.000
G0 X37.999 Y20.200 Z5.000
G1 Z-2.000 F400
G1 X69.000 Y20.200 F800
G0 Z5.000
G0 X69.000 Y22.600 Z5.000
G1 Z-2.000 F400
G1 X37.999 Y22.600 F800
G0 Z5.000
G0 X37.999 Y25.000 Z5.000
G1 Z-2.000 F400
G1 X69.000 Y25.000 F800
G0 Z5.000
G0 X69.000 Y27.400 Z5.000
G1 Z-2.000 F400
G1 X37.999 Y27.400 F800
G0 Z5.000
G0 X37.999 Y29.800 Z5.000
G1 Z-2.000 F400
G1 X69.000 Y29.800 F800
G0 Z5.000
G0 X69.000 Y32.200 Z5.000
G1 Z-2.000 F400
G1 X37.999 Y32.200 F800
G0 Z5.000
G0 X37.999 Y34.600 Z5.000
G1 Z-2.000 F400
G1 X69.000 Y34.600 F800
G0 Z5.000
G0 X69.000 Y37.000 Z5.000
G1 Z-2.000 F400
G1 X37.231 Y37.000 F800
G0 Z5.000
G0 X1.000 Y39.400 Z5.000
G1 Z-2.000 F400
G1 X69.000 Y39.400 F800
G0 Z5.000
G0 X69.000 Y41.800 Z5.000
G1 Z-2.000 F400
G1 X1.000 Y41.800 F800
G0 Z5.000
G0 X1.000 Y44.200 Z5.000
G1 Z-2.000 F400
G1 X69.000 Y44.200 F800
G0 Z5.000
G0 X69.000 Y46.600 Z5.000
G1 Z-2.000 F400
G1 X1.000 Y46.600 F800
G0 Z5.000
G0 X1.000 Y49.000 Z5.000
G1 Z-2.000 F400
G1 X69.000 Y49.000 F800
G0 Z5.000
G0 X69.000 Y51.400 Z5.000
G1 Z-2.000 F400
G1 X1.000 Y51.400 F800
G0 Z5.000
G0 X1.000 Y53.800 Z5.000
G1 Z-2.000 F400
G1 X69.000 Y53.800 F800
G0 Z5.000
G0 X69.000 Y56.200 Z5.000
G1 Z-2.000 F400
G1 X1.000 Y56.200 F800
G0 Z5.000
G0 X1.000 Y58.600 Z5.000
G1 Z-2.000 F400
G1 X69.000 Y58.600 F800
G0 Z5.000
G0 X69.000 Y61.000 Z5.000
G1 Z-2.000 F400
G1 X1.000 Y61.000 F800
G0 Z5.000
G0 X1.000 Y63.400 Z5.000
G1 Z-2.000 F400
G1 X69.000 Y63.400 F800
G0 Z5.000
G0 X69.000 Y65.800 Z5.000
G1 Z-2.000 F400
G1 X1.000 Y65.800 F800
G0 Z5.000
G0 X1.000 Y68.200 Z5.000
G1 Z-2.000 F400
G1 X69.000 Y68.200 F800
G0 Z5.000
G0 X17.173 Y1.000 Z5.000
G1 Z-4.000 F400
G1 X22.827 Y1.000 F800
G0 Z5.000
G0 X38.000 Y1.000 Z5.000
G1 Z-4.000 F400
G1 X69.000 Y1.000 F800
G0 Z5.000
G0 X69.000 Y3.400 Z5.000
G1 Z-4.000 F400
G1 X38.000 Y3.400 F800
G0 Z5.000
G0 X38.000 Y5.800 Z5.000
G1 Z-4.000 F400
G1 X69.000 Y5.800 F800
G0 Z5.000
G0 X69.000 Y8.200 Z5.000
G1 Z-4.000 F400
G1 X38.000 Y8.200 F800
G0 Z5.000
G0 X38.000 Y10.600 Z5.000
G1 Z-4.000 F400
G1 X69.000 Y10.600 F800
G0 Z5.000
G0 X69.000 Y13.000 Z5.000
G1 Z-4.000 F400
G1 X38.000 Y13.000 F800
G0 Z5.000
G0 X38.000 Y15.400 Z5.000
G1 Z-4.000 F400
G1 X69.000 Y15.400 F800
G0 Z5.000
G0 X69.000 Y17.800 Z5.000
G1 Z-4.000 F400
G1 X38.000 Y17.800 F800
G0 Z5.000
G0 X38.000 Y20.200 Z5.000
G1 Z-4.000 F400
G1 X69.000 Y20.200 F800
G0 Z5.000
G0 X69.000 Y22.600 Z5.000
G1 Z-4.000 F400
G1 X38.000 Y22.600 F800
G0 Z5.000
G0 X38.000 Y25.000 Z5.000
G1 Z-4.000 F400
G1 X69.000 Y25.000 F800
G0 Z5.000
G0 X69.000 Y27.400 Z5.000
G1 Z-4.000 F400
G1 X38.000 Y27.400 F800
G0 Z5.000
G0 X38.000 Y29.800 Z5.000
G1 Z-4.000 F400
G1 X69.000 Y29.800 F800
G0 Z5.000
G0 X69.000 Y32.200 Z5.000
G1 Z-4.000 F400
G1 X38.000 Y32.200 F800
G0 Z5.000
G0 X38.000 Y34.600 Z5.000
G1 Z-4.000 F400
G1 X69.000 Y34.600 F800
G0 Z5.000
G0 X69.000 Y37.000 Z5.000
G1 Z-4.000 F400
G1 X37.232 Y37.000 F800
G0 Z5.000
G0 X1.000 Y39.400 Z5.000
G1 Z-4.000 F400
G1 X69.000 Y39.400 F800
G0 Z5.000
G0 X69.000 Y41.800 Z5.000
G1 Z-4.000 F400
G1 X1.000 Y41.800 F800
G0 Z5.000
G0 X1.000 Y44.200 Z5.000
G1 Z-4.000 F400
G1 X69.000 Y44.200 F800
G0 Z5.000
G0 X69.000 Y46.600 Z5.000
G1 Z-4.000 F400
G1 X1.000 Y46.600 F800
G0 Z5.000
G0 X1.000 Y49.000 Z5.000
G1 Z-4.000 F400
G1 X69.000 Y49.000 F800
G0 Z5.000
G0 X69.000 Y51.400 Z5.000
G1 Z-4.000 F400
G1 X1.000 Y51.400 F800
G0 Z5.000
G0 X1.000 Y53.800 Z5.000
G1 Z-4.000 F400
G1 X69.000 Y53.800 F800
G0 Z5.000
G0 X69.000 Y56.200 Z5.000
G1 Z-4.000 F400
G1 X1.000 Y56.200 F800
G0 Z5.000
G0 X1.000 Y58.600 Z5.000
G1 Z-4.000 F400
G1 X69.000 Y58.600 F800
G0 Z5.000
G0 X69.000 Y61.000 Z5.000
G1 Z-4.000 F400
G1 X1.000 Y61.000 F800
G0 Z5.000
G0 X1.000 Y63.400 Z5.000
G1 Z-4.000 F400
G1 X69.000 Y63.400 F800
G0 Z5.000
G0 X69.000 Y65.800 Z5.000
G1 Z-4.000 F400
G1 X1.000 Y65.800 F800
G0 Z5.000
G0 X1.000 Y68.200 Z5.000
G1 Z-4.000 F400
G1 X69.000 Y68.200 F800
G0 Z5.000
G0 X17.173 Y1.000 Z5.000
G1 Z-6.000 F400
G1 X22.827 Y1.000 F800
G0 Z5.000
G0 X38.000 Y1.000 Z5.000
G1 Z-6.000 F400
G1 X69.000 Y1.000 F800
G0 Z5.000
G0 X69.000 Y3.400 Z5.000
G1 Z-6.000 F400
G1 X38.000 Y3.400 F800
G0 Z5.000
G0 X38.000 Y5.800 Z5.000
G1 Z-6.000 F400
G1 X69.000 Y5.800 F800
G0 Z5.000
G0 X69.000 Y8.200 Z5.000
G1 Z-6.000 F400
G1 X38.000 Y8.200 F800
G0 Z5.000
G0 X38.000 Y10.600 Z5.000
G1 Z-6.000 F400
G1 X69.000 Y10.600 F800
G0 Z5.000
G0 X69.000 Y13.000 Z5.000
G1 Z-6.000 F400
G1 X38.000 Y13.000 F800
G0 Z5.000
G0 X38.000 Y15.400 Z5.000
G1 Z-6.000 F400
G1 X69.000 Y15.400 F800
G0 Z5.000
G0 X69.000 Y17.800 Z5.000
G1 Z-6.000 F400
G1 X38.000 Y17.800 F800
G0 Z5.000
G0 X38.000 Y20.200 Z5.000
G1 Z-6.000 F400
G1 X69.000 Y20.200 F800
G0 Z5.000
G0 X69.000 Y22.600 Z5.000
G1 Z-6.000 F400
G1 X38.000 Y22.600 F800
G0 Z5.000
G0 X38.000 Y25.000 Z5.000
G1 Z-6.000 F400
G1 X69.000 Y25.000 F800
G0 Z5.000
G0 X69.000 Y27.400 Z5.000
G1 Z-6.000 F400
G1 X38.000 Y27.400 F800
G0 Z5.000
G0 X38.000 Y29.800 Z5.000
G1 Z-6.000 F400
G1 X69.000 Y29.800 F800
G0 Z5.000
G0 X69.000 Y32.200 Z5.000
G1 Z-6.000 F400
G1 X38.000 Y32.200 F800
G0 Z5.000
G0 X38.000 Y34.600 Z5.000
G1 Z-6.000 F400
G1 X69.000 Y34.600 F800
G0 Z5.000
G0 X69.000 Y37.000 Z5.000
G1 Z-6.000 F400
G1 X37.232 Y37.000 F800
G0 Z5.000
G0 X1.000 Y39.400 Z5.000
G1 Z-6.000 F400
G1 X69.000 Y39.400 F800
G0 Z5.000
G0 X69.000 Y41.800 Z5.000
G1 Z-6.000 F400
G1 X1.000 Y41.800 F800
G0 Z5.000
G0 X1.000 Y44.200 Z5.000
G1 Z-6.000 F400
G1 X69.000 Y44.200 F800
G0 Z5.000
G0 X69.000 Y46.600 Z5.000
G1 Z-6.000 F400
G1 X1.000 Y46.600 F800
G0 Z5.000
G0 X1.000 Y49.000 Z5.000
G1 Z-6.000 F400
G1 X69.000 Y49.000 F800
G0 Z5.000
G0 X69.000 Y51.400 Z5.000
G1 Z-6.000 F400
G1 X1.000 Y51.400 F800
G0 Z5.000
G0 X1.000 Y53.800 Z5.000
G1 Z-6.000 F400
G1 X69.000 Y53.800 F800
G0 Z5.000
G0 X69.000 Y56.200 Z5.000
G1 Z-6.000 F400
G1 X1.000 Y56.200 F800
G0 Z5.000
G0 X1.000 Y58.600 Z5.000
G1 Z-6.000 F400
G1 X69.000 Y58.600 F800
G0 Z5.000
G0 X69.000 Y61.000 Z5.000
G1 Z-6.000 F400
G1 X1.000 Y61.000 F800
G0 Z5.000
G0 X1.000 Y63.400 Z5.000
G1 Z-6.000 F400
G1 X69.000 Y63.400 F800
G0 Z5.000
G0 X69.000 Y65.800 Z5.000
G1 Z-6.000 F400
G1 X1.000 Y65.800 F800
G0 Z5.000
G0 X1.000 Y68.200 Z5.000
G1 Z-6.000 F400
G1 X69.000 Y68.200 F800
G0 Z5.000
G0 X17.173 Y1.000 Z5.000
G1 Z-8.000 F400
G1 X22.827 Y1.000 F800
G0 Z5.000
G0 X38.000 Y1.000 Z5.000
G1 Z-8.000 F400
G1 X69.000 Y1.000 F800
G0 Z5.000
G0 X69.000 Y3.400 Z5.000
G1 Z-8.000 F400
G1 X38.000 Y3.400 F800
G0 Z5.000
G0 X38.000 Y5.800 Z5.000
G1 Z-8.000 F400
G1 X69.000 Y5.800 F800
G0 Z5.000
G0 X69.000 Y8.200 Z5.000
G1 Z-8.000 F400
G1 X38.000 Y8.200 F800
G0 Z5.000
G0 X38.000 Y10.600 Z5.000
G1 Z-8.000 F400
G1 X69.000 Y10.600 F800
G0 Z5.000
G0 X69.000 Y13.000 Z5.000
G1 Z-8.000 F400
G1 X38.000 Y13.000 F800
G0 Z5.000
G0 X38.000 Y15.400 Z5.000
G1 Z-8.000 F400
G1 X69.000 Y15.400 F800
G0 Z5.000
G0 X69.000 Y17.800 Z5.000
G1 Z-8.000 F400
G1 X38.000 Y17.800 F800
G0 Z5.000
G0 X38.000 Y20.200 Z5.000
G1 Z-8.000 F400
G1 X69.000 Y20.200 F800
G0 Z5.000
G0 X69.000 Y22.600 Z5.000
G1 Z-8.000 F400
G1 X38.000 Y22.600 F800
G0 Z5.000
G0 X38.000 Y25.000 Z5.000
G1 Z-8.000 F400
G1 X69.000 Y25.000 F800
G0 Z5.000
G0 X69.000 Y27.400 Z5.000
G1 Z-8.000 F400
G1 X38.000 Y27.400 F800
G0 Z5.000
G0 X38.000 Y29.800 Z5.000
G1 Z-8.000 F400
G1 X69.000 Y29.800 F800
G0 Z5.000
G0 X69.000 Y32.200 Z5.000
G1 Z-8.000 F400
G1 X38.000 Y32.200 F800
G0 Z5.000
G0 X38.000 Y34.600 Z5.000
G1 Z-8.000 F400
G1 X69.000 Y34.600 F800
G0 Z5.000
G0 X69.000 Y37.000 Z5.000
G1 Z-8.000 F400
G1 X37.231 Y37.000 F800
G0 Z5.000
G0 X1.000 Y39.400 Z5.000
G1 Z-8.000 F400
G1 X69.000 Y39.400 F800
G0 Z5.000
G0 X69.000 Y41.800 Z5.000
G1 Z-8.000 F400
G1 X1.000 Y41.800 F800
G0 Z5.000
G0 X1.000 Y44.200 Z5.000
G1 Z-8.000 F400
G1 X69.000 Y44.200 F800
G0 Z5.000
G0 X69.000 Y46.600 Z5.000
G1 Z-8.000 F400
G1 X1.000 Y46.600 F800
G0 Z5.000
G0 X1.000 Y49.000 Z5.000
G1 Z-8.000 F400
G1 X69.000 Y49.000 F800
G0 Z5.000
G0 X69.000 Y51.400 Z5.000
G1 Z-8.000 F400
G1 X1.000 Y51.400 F800
G0 Z5.000
G0 X1.000 Y53.800 Z5.000
G1 Z-8.000 F400
G1 X69.000 Y53.800 F800
G0 Z5.000
G0 X69.000 Y56.200 Z5.000
G1 Z-8.000 F400
G1 X1.000 Y56.200 F800
G0 Z5.000
G0 X1.000 Y58.600 Z5.000
G1 Z-8.000 F400
G1 X69.000 Y58.600 F800
G0 Z5.000
G0 X69.000 Y61.000 Z5.000
G1 Z-8.000 F400
G1 X1.000 Y61.000 F800
G0 Z5.000
G0 X1.000 Y63.400 Z5.000
G1 Z-8.000 F400
G1 X69.000 Y63.400 F800
G0 Z5.000
G0 X69.000 Y65.800 Z5.000
G1 Z-8.000 F400
G1 X1.000 Y65.800 F800
G0 Z5.000
G0 X1.000 Y68.200 Z5.000
G1 Z-8.000 F400
G1 X69.000 Y68.200 F800
G0 Z5.000
G0 X17.209 Y1.000 Z5.000
G1 Z-10.000 F400
G1 X22.869 Y1.000 F800
G0 Z5.000
G0 X38.039 Y1.000 Z5.000
G1 Z-10.000 F400
G1 X69.000 Y1.000 F800
G0 Z5.000
G0 X69.000 Y3.400 Z5.000
G1 Z-10.000 F400
G1 X38.039 Y3.400 F800
G0 Z5.000
G0 X38.039 Y5.800 Z5.000
G1 Z-10.000 F400
G1 X69.000 Y5.800 F800
G0 Z5.000
G0 X69.000 Y8.200 Z5.000
G1 Z-10.000 F400
G1 X38.039 Y8.200 F800
G0 Z5.000
G0 X38.039 Y10.600 Z5.000
G1 Z-10.000 F400
G1 X69.000 Y10.600 F800
G0 Z5.000
G0 X69.000 Y13.000 Z5.000
G1 Z-10.000 F400
G1 X38.039 Y13.000 F800
G0 Z5.000
G0 X38.039 Y15.400 Z5.000
G1 Z-10.000 F400
G1 X69.000 Y15.400 F800
G0 Z5.000
G0 X69.000 Y17.800 Z5.000
G1 Z-10.000 F400
G1 X38.039 Y17.800 F800
G0 Z5.000
G0 X38.039 Y20.200 Z5.000
G1 Z-10.000 F400
G1 X69.000 Y20.200 F800
G0 Z5.000
G0 X69.000 Y22.600 Z5.000
G1 Z-10.000 F400
G1 X38.039 Y22.600 F800
G0 Z5.000
G0 X38.039 Y25.000 Z5.000
G1 Z-10.000 F400
G1 X69.000 Y25.000 F800
G0 Z5.000
G0 X69.000 Y27.400 Z5.000
G1 Z-10.000 F400
G1 X38.039 Y27.400 F800
G0 Z5.000
G0 X38.039 Y29.800 Z5.000
G1 Z-10.000 F400
G1 X69.000 Y29.800 F800
G0 Z5.000
G0 X69.000 Y32.200 Z5.000
G1 Z-10.000 F400
G1 X38.039 Y32.200 F800
G0 Z5.000
G0 X38.039 Y34.600 Z5.000
G1 Z-10.000 F400
G1 X69.000 Y34.600 F800
G0 Z5.000
G0 X69.000 Y37.000 Z5.000
G1 Z-10.000 F400
G1 X37.279 Y37.000 F800
G0 Z5.000
G0 X1.000 Y39.400 Z5.000
G1 Z-10.000 F400
G1 X69.000 Y39.400 F800
G0 Z5.000
G0 X69.000 Y41.800 Z5.000
G1 Z-10.000 F400
G1 X1.000 Y41.800 F800
G0 Z5.000
G0 X1.000 Y44.200 Z5.000
G1 Z-10.000 F400
G1 X69.000 Y44.200 F800
G0 Z5.000
G0 X69.000 Y46.600 Z5.000
G1 Z-10.000 F400
G1 X1.000 Y46.600 F800
G0 Z5.000
G0 X1.000 Y49.000 Z5.000
G1 Z-10.000 F400
G1 X69.000 Y49.000 F800
G0 Z5.000
G0 X69.000 Y51.400 Z5.000
G1 Z-10.000 F400
G1 X1.000 Y51.400 F800
G0 Z5.000
G0 X1.000 Y53.800 Z5.000
G1 Z-10.000 F400
G1 X69.000 Y53.800 F800
G0 Z5.000
G0 X69.000 Y56.200 Z5.000
G1 Z-10.000 F400
G1 X1.000 Y56.200 F800
G0 Z5.000
G0 X1.000 Y58.600 Z5.000
G1 Z-10.000 F400
G1 X69.000 Y58.600 F800
G0 Z5.000
G0 X69.000 Y61.000 Z5.000
G1 Z-10.000 F400
G1 X1.000 Y61.000 F800
G0 Z5.000
G0 X1.000 Y63.400 Z5.000
G1 Z-10.000 F400
G1 X69.000 Y63.400 F800
G0 Z5.000
G0 X69.000 Y65.800 Z5.000
G1 Z-10.000 F400
G1 X1.000 Y65.800 F800
G0 Z5.000
G0 X1.000 Y68.200 Z5.000
G1 Z-10.000 F400
G1 X69.000 Y68.200 F800
G0 Z5.000
G0 X0 Y0
M5
M30
