(Cloud CAM Generated for Job 4039f0dd-2236-45e2-9dcd-3b77178ad707)
(Model: 320.0 x 10.0 x 385.0 mm)
(Params: step_down=2.0 spindle=4000 feed=800.0)
(Strategy: stock_aware_fallback)
G21 (metric)
G90 (absolute)
S4000 M3
G0 Z5.0
G0 X-0.500 Y-0.500 Z5.000
G1 Z1.000 F400
G1 X320.500 Y-0.500 F800
G0 Z5.000
G0 X320.500 Y1.500 Z5.000
G1 Z1.000 F400
G1 X-0.500 Y1.500 F800
G0 Z5.000
G0 X-0.500 Y3.500 Z5.000
G1 Z1.000 F400
G1 X320.500 Y3.500 F800
G0 Z5.000
G0 X320.500 Y5.500 Z5.000
G1 Z1.000 F400
G1 X-0.500 Y5.500 F800
G0 Z5.000
G0 X-0.500 Y7.500 Z5.000
G1 Z1.000 F400
G1 X320.500 Y7.500 F800
G0 Z5.000
G0 X320.500 Y9.500 Z5.000
G1 Z1.000 F400
G1 X-0.500 Y9.500 F800
G0 Z5.000
G0 X-0.500 Y-0.500 Z5.000
G1 Z-1.000 F400
G1 X3.196 Y-0.500 F800
G0 Z5.000
G0 X316.804 Y-0.500 Z5.000
G1 Z-1.000 F400
G1 X320.500 Y-0.500 F800
G0 Z5.000
G0 X320.500 Y1.500 Z5.000
G1 Z-1.000 F400
G1 X316.855 Y1.500 F800
G0 Z5.000
G0 X3.145 Y1.500 Z5.000
G1 Z-1.000 F400
G1 X-0.500 Y1.500 F800
G0 Z5.000
G0 X-0.500 Y3.500 Z5.000
G1 Z-1.000 F400
G1 X3.145 Y3.500 F800
G0 Z5.000
G0 X316.855 Y3.500 Z5.000
G1 Z-1.000 F400
G1 X320.500 Y3.500 F800
G0 Z5.000
G0 X320.500 Y5.500 Z5.000
G1 Z-1.000 F400
G1 X316.855 Y5.500 F800
G0 Z5.000
G0 X3.145 Y5.500 Z5.000
G1 Z-1.000 F400
G1 X-0.500 Y5.500 F800
G0 Z5.000
G0 X-0.500 Y7.500 Z5.000
G1 Z-1.000 F400
G1 X3.196 Y7.500 F800
G0 Z5.000
G0 X316.804 Y7.500 Z5.000
G1 Z-1.000 F400
G1 X320.500 Y7.500 F800
G0 Z5.000
G0 X320.500 Y9.500 Z5.000
G1 Z-1.000 F400
G1 X314.355 Y9.500 F800
G0 Z5.000
G0 X314.355 Y9.500 Z5.000
G1 Z-1.000 F400
G1 X282.500 Y9.500 F800
G0 Z5.000
G0 X37.500 Y9.500 Z5.000
G1 Z-1.000 F400
G1 X5.645 Y9.500 F800
G0 Z5.000
G0 X5.645 Y9.500 Z5.000
G1 Z-1.000 F400
G1 X-0.500 Y9.500 F800
G0 Z5.000
G0 X-0.500 Y-0.500 Z5.000
G1 Z-3.000 F400
G1 X0.412 Y-0.500 F800
G0 Z5.000
G0 X319.588 Y-0.500 Z5.000
G1 Z-3.000 F400
G1 X320.500 Y-0.500 F800
G0 Z5.000
G0 X320.500 Y1.500 Z5.000
G1 Z-3.000 F400
G1 X319.639 Y1.500 F800
G0 Z5.000
G0 X0.361 Y1.500 Z5.000
G1 Z-3.000 F400
G1 X-0.500 Y1.500 F800
G0 Z5.000
G0 X-0.500 Y3.500 Z5.000
G1 Z-3.000 F400
G1 X0.361 Y3.500 F800
G0 Z5.000
G0 X319.639 Y3.500 Z5.000
G1 Z-3.000 F400
G1 X320.500 Y3.500 F800
G0 Z5.000
G0 X320.500 Y5.500 Z5.000
G1 Z-3.000 F400
G1 X319.639 Y5.500 F800
G0 Z5.000
G0 X0.361 Y5.500 Z5.000
G1 Z-3.000 F400
G1 X-0.500 Y5.500 F800
G0 Z5.000
G0 X-0.500 Y7.500 Z5.000
G1 Z-3.000 F400
G1 X0.412 Y7.500 F800
G0 Z5.000
G0 X128.534 Y7.500 Z5.000
G1 Z-3.000 F400
G1 X131.466 Y7.500 F800
G0 Z5.000
G0 X213.534 Y7.500 Z5.000
G1 Z-3.000 F400
G1 X216.466 Y7.500 F800
G0 Z5.000
G0 X319.588 Y7.500 Z5.000
G1 Z-3.000 F400
G1 X320.500 Y7.500 F800
G0 Z5.000
G0 X320.500 Y9.500 Z5.000
G1 Z-3.000 F400
G1 X317.139 Y9.500 F800
G0 Z5.000
G0 X317.139 Y9.500 Z5.000
G1 Z-3.000 F400
G1 X282.500 Y9.500 F800
G0 Z5.000
G0 X216.466 Y9.500 Z5.000
G1 Z-3.000 F400
G1 X213.534 Y9.500 F800
G0 Z5.000
G0 X131.466 Y9.500 Z5.000
G1 Z-3.000 F400
G1 X128.534 Y9.500 F800
G0 Z5.000
G0 X37.500 Y9.500 Z5.000
G1 Z-3.000 F400
G1 X2.861 Y9.500 F800
G0 Z5.000
G0 X2.861 Y9.500 Z5.000
G1 Z-3.000 F400
G1 X-0.500 Y9.500 F800
G0 Z5.000
G0 X127.047 Y7.500 Z5.000
G1 Z-5.000 F400
G1 X132.953 Y7.500 F800
G0 Z5.000
G0 X212.047 Y7.500 Z5.000
G1 Z-5.000 F400
G1 X217.953 Y7.500 F800
G0 Z5.000
G0 X320.500 Y9.500 Z5.000
G1 Z-5.000 F400
G1 X318.657 Y9.500 F800
G0 Z5.000
G0 X318.657 Y9.500 Z5.000
G1 Z-5.000 F400
G1 X282.500 Y9.500 F800
G0 Z5.000
G0 X217.953 Y9.500 Z5.000
G1 Z-5.000 F400
G1 X212.047 Y9.500 F800
G0 Z5.000
G0 X132.953 Y9.500 Z5.000
G1 Z-5.000 F400
G1 X127.047 Y9.500 F800
G0 Z5.000
G0 X37.500 Y9.500 Z5.000
G1 Z-5.000 F400
G1 X1.343 Y9.500 F800
G0 Z5.000
G0 X1.343 Y9.500 Z5.000
G1 Z-5.000 F400
G1 X-0.500 Y9.500 F800
G0 Z5.000
G0 X126.522 Y7.501 Z5.000
G1 Z-7.000 F400
G1 X133.478 Y7.501 F800
G0 Z5.000
G0 X211.522 Y7.501 Z5.000
G1 Z-7.000 F400
G1 X218.478 Y7.501 F800
G0 Z5.000
G0 X320.500 Y9.501 Z5.000
G1 Z-7.000 F400
G1 X282.500 Y9.501 F800
G0 Z5.000
G0 X218.478 Y9.501 Z5.000
G1 Z-7.000 F400
G1 X211.522 Y9.501 F800
G0 Z5.000
G0 X133.478 Y9.501 Z5.000
G1 Z-7.000 F400
G1 X126.522 Y9.501 F800
G0 Z5.000
G0 X37.500 Y9.501 Z5.000
G1 Z-7.000 F400
G1 X-0.500 Y9.501 F800
G0 Z5.000
G0 X126.692 Y8.496 Z5.000
G1 Z-9.000 F400
G1 X133.308 Y8.496 F800
G0 Z5.000
G0 X211.692 Y8.496 Z5.000
G1 Z-9.000 F400
G1 X218.308 Y8.496 F800
G0 Z5.000
G0 X320.500 Y10.496 Z5.000
G1 Z-9.000 F400
G1 X282.450 Y10.496 F800
G0 Z5.000
G0 X218.358 Y10.496 Z5.000
G1 Z-9.000 F400
G1 X211.642 Y10.496 F800
G0 Z5.000
G0 X133.358 Y10.496 Z5.000
G1 Z-9.000 F400
G1 X126.642 Y10.496 F800
G0 Z5.000
G0 X37.550 Y10.496 Z5.000
G1 Z-9.000 F400
G1 X-0.500 Y10.496 F800
G0 Z5.000
G0 X127.627 Y7.500 Z5.000
G1 Z-11.000 F400
G1 X132.371 Y7.500 F800
G0 Z5.000
G0 X212.627 Y7.500 Z5.000
G1 Z-11.000 F400
G1 X217.371 Y7.500 F800
G0 Z5.000
G0 X320.500 Y9.500 Z5.000
G1 Z-11.000 F400
G1 X320.000 Y9.500 F800
G0 Z5.000
G0 X320.000 Y9.500 Z5.000
G1 Z-11.000 F400
G1 X282.500 Y9.500 F800
G0 Z5.000
G0 X217.373 Y9.500 Z5.000
G1 Z-11.000 F400
G1 X212.627 Y9.500 F800
G0 Z5.000
G0 X132.373 Y9.500 Z5.000
G1 Z-11.000 F400
G1 X127.627 Y9.500 F800
G0 Z5.000
G0 X37.500 Y9.500 Z5.000
G1 Z-11.000 F400
G1 X0.000 Y9.500 F800
G0 Z5.000
G0 X0.000 Y9.500 Z5.000
G1 Z-11.000 F400
G1 X-0.500 Y9.500 F800
G0 Z5.000
G0 X127.627 Y7.500 Z5.000
G1 Z-79.000 F400
G1 X132.371 Y7.500 F800
G0 Z5.000
G0 X212.627 Y7.500 Z5.000
G1 Z-79.000 F400
G1 X217.373 Y7.500 F800
G0 Z5.000
G0 X320.500 Y9.500 Z5.000
G1 Z-79.000 F400
G1 X320.000 Y9.500 F800
G0 Z5.000
G0 X320.000 Y9.500 Z5.000
G1 Z-79.000 F400
G1 X282.500 Y9.500 F800
G0 Z5.000
G0 X217.373 Y9.500 Z5.000
G1 Z-79.000 F400
G1 X212.627 Y9.500 F800
G0 Z5.000
G0 X132.373 Y9.500 Z5.000
G1 Z-79.000 F400
G1 X127.627 Y9.500 F800
G0 Z5.000
G0 X37.500 Y9.500 Z5.000
G1 Z-79.000 F400
G1 X0.000 Y9.500 F800
G0 Z5.000
G0 X0.000 Y9.500 Z5.000
G1 Z-79.000 F400
G1 X-0.500 Y9.500 F800
G0 Z5.000
G0 X126.692 Y8.496 Z5.000
G1 Z-81.000 F400
G1 X133.308 Y8.496 F800
G0 Z5.000
G0 X211.692 Y8.496 Z5.000
G1 Z-81.000 F400
G1 X218.308 Y8.496 F800
G0 Z5.000
G0 X320.500 Y10.496 Z5.000
G1 Z-81.000 F400
G1 X282.450 Y10.496 F800
G0 Z5.000
G0 X218.358 Y10.496 Z5.000
G1 Z-81.000 F400
G1 X211.642 Y10.496 F800
G0 Z5.000
G0 X133.358 Y10.496 Z5.000
G1 Z-81.000 F400
G1 X126.642 Y10.496 F800
G0 Z5.000
G0 X37.550 Y10.496 Z5.000
G1 Z-81.000 F400
G1 X-0.500 Y10.496 F800
G0 Z5.000
G0 X126.522 Y7.501 Z5.000
G1 Z-83.000 F400
G1 X133.478 Y7.501 F800
G0 Z5.000
G0 X211.522 Y7.501 Z5.000
G1 Z-83.000 F400
G1 X218.478 Y7.501 F800
G0 Z5.000
G0 X320.500 Y9.501 Z5.000
G1 Z-83.000 F400
G1 X282.500 Y9.501 F800
G0 Z5.000
G0 X218.478 Y9.501 Z5.000
G1 Z-83.000 F400
G1 X211.522 Y9.501 F800
G0 Z5.000
G0 X133.478 Y9.501 Z5.000
G1 Z-83.000 F400
G1 X126.522 Y9.501 F800
G0 Z5.000
G0 X37.500 Y9.501 Z5.000
G1 Z-83.000 F400
G1 X-0.500 Y9.501 F800
G0 Z5.000
G0 X127.047 Y7.500 Z5.000
G1 Z-85.000 F400
G1 X132.953 Y7.500 F800
G0 Z5.000
G0 X212.047 Y7.500 Z5.000
G1 Z-85.000 F400
G1 X217.953 Y7.500 F800
G0 Z5.000
G0 X320.500 Y9.500 Z5.000
G1 Z-85.000 F400
G1 X320.000 Y9.500 F800
G0 Z5.000
G0 X320.000 Y9.500 Z5.000
G1 Z-85.000 F400
G1 X282.500 Y9.500 F800
G0 Z5.000
G0 X217.953 Y9.500 Z5.000
G1 Z-85.000 F400
G1 X212.047 Y9.500 F800
G0 Z5.000
G0 X132.953 Y9.500 Z5.000
G1 Z-85.000 F400
G1 X127.047 Y9.500 F800
G0 Z5.000
G0 X37.500 Y9.500 Z5.000
G1 Z-85.000 F400
G1 X0.000 Y9.500 F800
G0 Z5.000
G0 X0.000 Y9.500 Z5.000
G1 Z-85.000 F400
G1 X-0.500 Y9.500 F800
G0 Z5.000
G0 X128.534 Y7.500 Z5.000
G1 Z-87.000 F400
G1 X131.466 Y7.500 F800
G0 Z5.000
G0 X213.534 Y7.500 Z5.000
G1 Z-87.000 F400
G1 X216.466 Y7.500 F800
G0 Z5.000
G0 X320.500 Y9.500 Z5.000
G1 Z-87.000 F400
G1 X320.000 Y9.500 F800
G0 Z5.000
G0 X320.000 Y9.500 Z5.000
G1 Z-87.000 F400
G1 X282.500 Y9.500 F800
G0 Z5.000
G0 X216.466 Y9.500 Z5.000
G1 Z-87.000 F400
G1 X213.534 Y9.500 F800
G0 Z5.000
G0 X131.466 Y9.500 Z5.000
G1 Z-87.000 F400
G1 X128.534 Y9.500 F800
G0 Z5.000
G0 X37.500 Y9.500 Z5.000
G1 Z-87.000 F400
G1 X0.000 Y9.500 F800
G0 Z5.000
G0 X0.000 Y9.500 Z5.000
G1 Z-87.000 F400
G1 X-0.500 Y9.500 F800
G0 Z5.000
G0 X7.449 Y-0.500 Z5.000
G1 Z-91.000 F400
G1 X320.500 Y-0.500 F800
G0 Z5.000
G0 X320.500 Y9.500 Z5.000
G1 Z-91.000 F400
G1 X320.000 Y9.500 F800
G0 Z5.000
G0 X320.000 Y9.500 Z5.000
G1 Z-91.000 F400
G1 X282.500 Y9.500 F800
G0 Z5.000
G0 X37.500 Y9.500 Z5.000
G1 Z-91.000 F400
G1 X0.000 Y9.500 F800
G0 Z5.000
G0 X0.000 Y9.500 Z5.000
G1 Z-91.000 F400
G1 X-0.500 Y9.500 F800
G0 Z5.000
G0 X7.449 Y-0.500 Z5.000
G1 Z-93.000 F400
G1 X320.500 Y-0.500 F800
G0 Z5.000
G0 X320.500 Y9.500 Z5.000
G1 Z-93.000 F400
G1 X320.000 Y9.500 F800
G0 Z5.000
G0 X320.000 Y9.500 Z5.000
G1 Z-93.000 F400
G1 X282.500 Y9.500 F800
G0 Z5.000
G0 X37.500 Y9.500 Z5.000
G1 Z-93.000 F400
G1 X0.000 Y9.500 F800
G0 Z5.000
G0 X0.000 Y9.500 Z5.000
G1 Z-93.000 F400
G1 X-0.500 Y9.500 F800
G0 Z5.000
G0 X7.449 Y-0.500 Z5.000
G1 Z-95.000 F400
G1 X320.500 Y-0.500 F800
G0 Z5.000
G0 X320.500 Y9.500 Z5.000
G1 Z-95.000 F400
G1 X320.000 Y9.500 F800
G0 Z5.000
G0 X320.000 Y9.500 Z5.000
G1 Z-95.000 F400
G1 X282.500 Y9.500 F800
G0 Z5.000
G0 X37.500 Y9.500 Z5.000
G1 Z-95.000 F400
G1 X0.000 Y9.500 F800
G0 Z5.000
G0 X0.000 Y9.500 Z5.000
G1 Z-95.000 F400
G1 X-0.500 Y9.500 F800
G0 Z5.000
G0 X7.449 Y-0.500 Z5.000
G1 Z-97.000 F400
G1 X320.500 Y-0.500 F800
G0 Z5.000
G0 X200.648 Y1.500 Z5.000
G1 Z-97.000 F400
G1 X199.352 Y1.500 F800
G0 Z5.000
G0 X150.648 Y1.500 Z5.000
G1 Z-97.000 F400
G1 X149.352 Y1.500 F800
G0 Z5.000
G0 X149.856 Y3.500 Z5.000
G1 Z-97.000 F400
G1 X150.144 Y3.500 F800
G0 Z5.000
G0 X199.856 Y3.500 Z5.000
G1 Z-97.000 F400
G1 X200.144 Y3.500 F800
G0 Z5.000
G0 X200.144 Y5.500 Z5.000
G1 Z-97.000 F400
G1 X199.856 Y5.500 F800
G0 Z5.000
G0 X150.144 Y5.500 Z5.000
G1 Z-97.000 F400
G1 X149.856 Y5.500 F800
G0 Z5.000
G0 X149.856 Y7.500 Z5.000
G1 Z-97.000 F400
G1 X150.144 Y7.500 F800
G0 Z5.000
G0 X199.856 Y7.500 Z5.000
G1 Z-97.000 F400
G1 X200.144 Y7.500 F800
G0 Z5.000
G0 X320.500 Y9.500 Z5.000
G1 Z-97.000 F400
G1 X320.000 Y9.500 F800
G0 Z5.000
G0 X320.000 Y9.500 Z5.000
G1 Z-97.000 F400
G1 X282.500 Y9.500 F800
G0 Z5.000
G0 X200.144 Y9.500 Z5.000
G1 Z-97.000 F400
G1 X199.856 Y9.500 F800
G0 Z5.000
G0 X150.144 Y9.500 Z5.000
G1 Z-97.000 F400
G1 X149.856 Y9.500 F800
G0 Z5.000
G0 X37.500 Y9.500 Z5.000
G1 Z-97.000 F400
G1 X0.000 Y9.500 F800
G0 Z5.000
G0 X0.000 Y9.500 Z5.000
G1 Z-97.000 F400
G1 X-0.500 Y9.500 F800
G0 Z5.000
G0 X7.449 Y-0.500 Z5.000
G1 Z-99.000 F400
G1 X320.500 Y-0.500 F800
G0 Z5.000
G0 X201.875 Y1.500 Z5.000
G1 Z-99.000 F400
G1 X198.125 Y1.500 F800
G0 Z5.000
G0 X151.875 Y1.500 Z5.000
G1 Z-99.000 F400
G1 X148.125 Y1.500 F800
G0 Z5.000
G0 X148.628 Y3.500 Z5.000
G1 Z-99.000 F400
G1 X151.372 Y3.500 F800
G0 Z5.000
G0 X198.628 Y3.500 Z5.000
G1 Z-99.000 F400
G1 X201.372 Y3.500 F800
G0 Z5.000
G0 X201.372 Y5.500 Z5.000
G1 Z-99.000 F400
G1 X198.628 Y5.500 F800
G0 Z5.000
G0 X151.372 Y5.500 Z5.000
G1 Z-99.000 F400
G1 X148.628 Y5.500 F800
G0 Z5.000
G0 X148.628 Y7.500 Z5.000
G1 Z-99.000 F400
G1 X151.372 Y7.500 F800
G0 Z5.000
G0 X198.628 Y7.500 Z5.000
G1 Z-99.000 F400
G1 X201.372 Y7.500 F800
G0 Z5.000
G0 X320.500 Y9.500 Z5.000
G1 Z-99.000 F400
G1 X320.000 Y9.500 F800
G0 Z5.000
G0 X320.000 Y9.500 Z5.000
G1 Z-99.000 F400
G1 X282.500 Y9.500 F800
G0 Z5.000
G0 X201.372 Y9.500 Z5.000
G1 Z-99.000 F400
G1 X198.628 Y9.500 F800
G0 Z5.000
G0 X151.372 Y9.500 Z5.000
G1 Z-99.000 F400
G1 X148.628 Y9.500 F800
G0 Z5.000
G0 X37.500 Y9.500 Z5.000
G1 Z-99.000 F400
G1 X0.000 Y9.500 F800
G0 Z5.000
G0 X0.000 Y9.500 Z5.000
G1 Z-99.000 F400
G1 X-0.500 Y9.500 F800
G0 Z5.000
G0 X7.449 Y-0.500 Z5.000
G1 Z-101.000 F400
G1 X320.500 Y-0.500 F800
G0 Z5.000
G0 X201.875 Y1.500 Z5.000
G1 Z-101.000 F400
G1 X198.125 Y1.500 F800
G0 Z5.000
G0 X151.875 Y1.500 Z5.000
G1 Z-101.000 F400
G1 X148.125 Y1.500 F800
G0 Z5.000
G0 X148.628 Y3.500 Z5.000
G1 Z-101.000 F400
G1 X151.372 Y3.500 F800
G0 Z5.000
G0 X198.628 Y3.500 Z5.000
G1 Z-101.000 F400
G1 X201.372 Y3.500 F800
G0 Z5.000
G0 X201.372 Y5.500 Z5.000
G1 Z-101.000 F400
G1 X198.628 Y5.500 F800
G0 Z5.000
G0 X151.372 Y5.500 Z5.000
G1 Z-101.000 F400
G1 X148.628 Y5.500 F800
G0 Z5.000
G0 X148.628 Y7.500 Z5.000
G1 Z-101.000 F400
G1 X151.372 Y7.500 F800
G0 Z5.000
G0 X198.628 Y7.500 Z5.000
G1 Z-101.000 F400
G1 X201.372 Y7.500 F800
G0 Z5.000
G0 X320.500 Y9.500 Z5.000
G1 Z-101.000 F400
G1 X320.000 Y9.500 F800
G0 Z5.000
G0 X320.000 Y9.500 Z5.000
G1 Z-101.000 F400
G1 X282.500 Y9.500 F800
G0 Z5.000
G0 X201.372 Y9.500 Z5.000
G1 Z-101.000 F400
G1 X198.628 Y9.500 F800
G0 Z5.000
G0 X151.372 Y9.500 Z5.000
G1 Z-101.000 F400
G1 X148.628 Y9.500 F800
G0 Z5.000
G0 X37.500 Y9.500 Z5.000
G1 Z-101.000 F400
G1 X0.000 Y9.500 F800
G0 Z5.000
G0 X0.000 Y9.500 Z5.000
G1 Z-101.000 F400
G1 X-0.500 Y9.500 F800
G0 Z5.000
G0 X7.449 Y-0.500 Z5.000
G1 Z-103.000 F400
G1 X320.500 Y-0.500 F800
G0 Z5.000
G0 X200.648 Y1.500 Z5.000
G1 Z-103.000 F400
G1 X199.352 Y1.500 F800
G0 Z5.000
G0 X150.648 Y1.500 Z5.000
G1 Z-103.000 F400
G1 X149.352 Y1.500 F800
G0 Z5.000
G0 X149.856 Y3.500 Z5.000
G1 Z-103.000 F400
G1 X150.144 Y3.500 F800
G0 Z5.000
G0 X199.856 Y3.500 Z5.000
G1 Z-103.000 F400
G1 X200.144 Y3.500 F800
G0 Z5.000
G0 X200.144 Y5.500 Z5.000
G1 Z-103.000 F400
G1 X199.856 Y5.500 F800
G0 Z5.000
G0 X150.144 Y5.500 Z5.000
G1 Z-103.000 F400
G1 X149.856 Y5.500 F800
G0 Z5.000
G0 X149.856 Y7.500 Z5.000
G1 Z-103.000 F400
G1 X150.144 Y7.500 F800
G0 Z5.000
G0 X199.856 Y7.500 Z5.000
G1 Z-103.000 F400
G1 X200.144 Y7.500 F800
G0 Z5.000
G0 X320.500 Y9.500 Z5.000
G1 Z-103.000 F400
G1 X320.000 Y9.500 F800
G0 Z5.000
G0 X320.000 Y9.500 Z5.000
G1 Z-103.000 F400
G1 X282.500 Y9.500 F800
G0 Z5.000
G0 X200.144 Y9.500 Z5.000
G1 Z-103.000 F400
G1 X199.856 Y9.500 F800
G0 Z5.000
G0 X150.144 Y9.500 Z5.000
G1 Z-103.000 F400
G1 X149.856 Y9.500 F800
G0 Z5.000
G0 X37.500 Y9.500 Z5.000
G1 Z-103.000 F400
G1 X0.000 Y9.500 F800
G0 Z5.000
G0 X0.000 Y9.500 Z5.000
G1 Z-103.000 F400
G1 X-0.500 Y9.500 F800
G0 Z5.000
G0 X7.449 Y-0.500 Z5.000
G1 Z-105.000 F400
G1 X320.500 Y-0.500 F800
G0 Z5.000
G0 X320.500 Y9.500 Z5.000
G1 Z-105.000 F400
G1 X320.000 Y9.500 F800
G0 Z5.000
G0 X320.000 Y9.500 Z5.000
G1 Z-105.000 F400
G1 X282.500 Y9.500 F800
G0 Z5.000
G0 X37.500 Y9.500 Z5.000
G1 Z-105.000 F400
G1 X0.000 Y9.500 F800
G0 Z5.000
G0 X0.000 Y9.500 Z5.000
G1 Z-105.000 F400
G1 X-0.500 Y9.500 F800
G0 Z5.000
G0 X7.449 Y-0.500 Z5.000
G1 Z-107.000 F400
G1 X320.500 Y-0.500 F800
G0 Z5.000
G0 X320.500 Y9.500 Z5.000
G1 Z-107.000 F400
G1 X320.000 Y9.500 F800
G0 Z5.000
G0 X320.000 Y9.500 Z5.000
G1 Z-107.000 F400
G1 X282.500 Y9.500 F800
G0 Z5.000
G0 X37.500 Y9.500 Z5.000
G1 Z-107.000 F400
G1 X0.000 Y9.500 F800
G0 Z5.000
G0 X0.000 Y9.500 Z5.000
G1 Z-107.000 F400
G1 X-0.500 Y9.500 F800
G0 Z5.000
G0 X7.449 Y-0.500 Z5.000
G1 Z-109.000 F400
G1 X320.500 Y-0.500 F800
G0 Z5.000
G0 X320.500 Y9.500 Z5.000
G1 Z-109.000 F400
G1 X320.000 Y9.500 F800
G0 Z5.000
G0 X320.000 Y9.500 Z5.000
G1 Z-109.000 F400
G1 X282.500 Y9.500 F800
G0 Z5.000
G0 X37.500 Y9.500 Z5.000
G1 Z-109.000 F400
G1 X0.000 Y9.500 F800
G0 Z5.000
G0 X0.000 Y9.500 Z5.000
G1 Z-109.000 F400
G1 X-0.500 Y9.500 F800
G0 Z5.000
G0 X7.449 Y-0.500 Z5.000
G1 Z-111.000 F400
G1 X320.500 Y-0.500 F800
G0 Z5.000
G0 X320.500 Y9.500 Z5.000
G1 Z-111.000 F400
G1 X320.000 Y9.500 F800
G0 Z5.000
G0 X320.000 Y9.500 Z5.000
G1 Z-111.000 F400
G1 X282.500 Y9.500 F800
G0 Z5.000
G0 X37.500 Y9.500 Z5.000
G1 Z-111.000 F400
G1 X0.000 Y9.500 F800
G0 Z5.000
G0 X0.000 Y9.500 Z5.000
G1 Z-111.000 F400
G1 X-0.500 Y9.500 F800
G0 Z5.000
G0 X7.449 Y-0.500 Z5.000
G1 Z-113.000 F400
G1 X320.500 Y-0.500 F800
G0 Z5.000
G0 X320.500 Y9.500 Z5.000
G1 Z-113.000 F400
G1 X320.000 Y9.500 F800
G0 Z5.000
G0 X320.000 Y9.500 Z5.000
G1 Z-113.000 F400
G1 X282.500 Y9.500 F800
G0 Z5.000
G0 X37.500 Y9.500 Z5.000
G1 Z-113.000 F400
G1 X0.000 Y9.500 F800
G0 Z5.000
G0 X0.000 Y9.500 Z5.000
G1 Z-113.000 F400
G1 X-0.500 Y9.500 F800
G0 Z5.000
G0 X7.449 Y-0.500 Z5.000
G1 Z-115.000 F400
G1 X320.500 Y-0.500 F800
G0 Z5.000
G0 X320.500 Y9.500 Z5.000
G1 Z-115.000 F400
G1 X320.000 Y9.500 F800
G0 Z5.000
G0 X320.000 Y9.500 Z5.000
G1 Z-115.000 F400
G1 X282.500 Y9.500 F800
G0 Z5.000
G0 X37.500 Y9.500 Z5.000
G1 Z-115.000 F400
G1 X0.000 Y9.500 F800
G0 Z5.000
G0 X0.000 Y9.500 Z5.000
G1 Z-115.000 F400
G1 X-0.500 Y9.500 F800
G0 Z5.000
G0 X7.449 Y-0.500 Z5.000
G1 Z-117.000 F400
G1 X320.500 Y-0.500 F800
G0 Z5.000
G0 X320.500 Y9.500 Z5.000
G1 Z-117.000 F400
G1 X320.000 Y9.500 F800
G0 Z5.000
G0 X320.000 Y9.500 Z5.000
G1 Z-117.000 F400
G1 X282.500 Y9.500 F800
G0 Z5.000
G0 X37.500 Y9.500 Z5.000
G1 Z-117.000 F400
G1 X0.000 Y9.500 F800
G0 Z5.000
G0 X0.000 Y9.500 Z5.000
G1 Z-117.000 F400
G1 X-0.500 Y9.500 F800
G0 Z5.000
G0 X7.449 Y-0.500 Z5.000
G1 Z-119.000 F400
G1 X320.500 Y-0.500 F800
G0 Z5.000
G0 X320.500 Y9.500 Z5.000
G1 Z-119.000 F400
G1 X320.000 Y9.500 F800
G0 Z5.000
G0 X320.000 Y9.500 Z5.000
G1 Z-119.000 F400
G1 X282.500 Y9.500 F800
G0 Z5.000
G0 X37.500 Y9.500 Z5.000
G1 Z-119.000 F400
G1 X0.000 Y9.500 F800
G0 Z5.000
G0 X0.000 Y9.500 Z5.000
G1 Z-119.000 F400
G1 X-0.500 Y9.500 F800
G0 Z5.000
G0 X7.449 Y-0.500 Z5.000
G1 Z-121.000 F400
G1 X320.500 Y-0.500 F800
G0 Z5.000
G0 X320.500 Y9.500 Z5.000
G1 Z-121.000 F400
G1 X320.000 Y9.500 F800
G0 Z5.000
G0 X320.000 Y9.500 Z5.000
G1 Z-121.000 F400
G1 X282.500 Y9.500 F800
G0 Z5.000
G0 X37.500 Y9.500 Z5.000
G1 Z-121.000 F400
G1 X0.000 Y9.500 F800
G0 Z5.000
G0 X0.000 Y9.500 Z5.000
G1 Z-121.000 F400
G1 X-0.500 Y9.500 F800
G0 Z5.000
G0 X7.449 Y-0.500 Z5.000
G1 Z-123.000 F400
G1 X320.500 Y-0.500 F800
G0 Z5.000
G0 X320.500 Y9.500 Z5.000
G1 Z-123.000 F400
G1 X320.000 Y9.500 F800
G0 Z5.000
G0 X320.000 Y9.500 Z5.000
G1 Z-123.000 F400
G1 X282.500 Y9.500 F800
G0 Z5.000
G0 X37.500 Y9.500 Z5.000
G1 Z-123.000 F400
G1 X0.000 Y9.500 F800
G0 Z5.000
G0 X0.000 Y9.500 Z5.000
G1 Z-123.000 F400
G1 X-0.500 Y9.500 F800
G0 Z5.000
G0 X7.449 Y-0.500 Z5.000
G1 Z-125.000 F400
G1 X320.500 Y-0.500 F800
G0 Z5.000
G0 X320.500 Y9.500 Z5.000
G1 Z-125.000 F400
G1 X320.000 Y9.500 F800
G0 Z5.000
G0 X320.000 Y9.500 Z5.000
G1 Z-125.000 F400
G1 X282.500 Y9.500 F800
G0 Z5.000
G0 X37.500 Y9.500 Z5.000
G1 Z-125.000 F400
G1 X0.000 Y9.500 F800
G0 Z5.000
G0 X0.000 Y9.500 Z5.000
G1 Z-125.000 F400
G1 X-0.500 Y9.500 F800
G0 Z5.000
G0 X7.449 Y-0.500 Z5.000
G1 Z-127.000 F400
G1 X320.500 Y-0.500 F800
G0 Z5.000
G0 X320.500 Y9.500 Z5.000
G1 Z-127.000 F400
G1 X320.000 Y9.500 F800
G0 Z5.000
G0 X320.000 Y9.500 Z5.000
G1 Z-127.000 F400
G1 X282.500 Y9.500 F800
G0 Z5.000
G0 X37.500 Y9.500 Z5.000
G1 Z-127.000 F400
G1 X0.000 Y9.500 F800
G0 Z5.000
G0 X0.000 Y9.500 Z5.000
G1 Z-127.000 F400
G1 X-0.500 Y9.500 F800
G0 Z5.000
G0 X7.449 Y-0.500 Z5.000
G1 Z-129.000 F400
G1 X320.500 Y-0.500 F800
G0 Z5.000
G0 X320.500 Y9.500 Z5.000
G1 Z-129.000 F400
G1 X320.000 Y9.500 F800
G0 Z5.000
G0 X320.000 Y9.500 Z5.000
G1 Z-129.000 F400
G1 X282.500 Y9.500 F800
G0 Z5.000
G0 X37.500 Y9.500 Z5.000
G1 Z-129.000 F400
G1 X0.000 Y9.500 F800
G0 Z5.000
G0 X0.000 Y9.500 Z5.000
G1 Z-129.000 F400
G1 X-0.500 Y9.500 F800
G0 Z5.000
G0 X7.449 Y-0.500 Z5.000
G1 Z-131.000 F400
G1 X320.500 Y-0.500 F800
G0 Z5.000
G0 X320.500 Y9.500 Z5.000
G1 Z-131.000 F400
G1 X320.000 Y9.500 F800
G0 Z5.000
G0 X320.000 Y9.500 Z5.000
G1 Z-131.000 F400
G1 X282.500 Y9.500 F800
G0 Z5.000
G0 X37.500 Y9.500 Z5.000
G1 Z-131.000 F400
G1 X0.000 Y9.500 F800
G0 Z5.000
G0 X0.000 Y9.500 Z5.000
G1 Z-131.000 F400
G1 X-0.500 Y9.500 F800
G0 Z5.000
G0 X7.449 Y-0.500 Z5.000
G1 Z-133.000 F400
G1 X320.500 Y-0.500 F800
G0 Z5.000
G0 X320.500 Y9.500 Z5.000
G1 Z-133.000 F400
G1 X320.000 Y9.500 F800
G0 Z5.000
G0 X320.000 Y9.500 Z5.000
G1 Z-133.000 F400
G1 X282.500 Y9.500 F800
G0 Z5.000
G0 X37.500 Y9.500 Z5.000
G1 Z-133.000 F400
G1 X0.000 Y9.500 F800
G0 Z5.000
G0 X0.000 Y9.500 Z5.000
G1 Z-133.000 F400
G1 X-0.500 Y9.500 F800
G0 Z5.000
G0 X7.449 Y-0.500 Z5.000
G1 Z-135.000 F400
G1 X320.500 Y-0.500 F800
G0 Z5.000
G0 X320.500 Y9.500 Z5.000
G1 Z-135.000 F400
G1 X320.000 Y9.500 F800
G0 Z5.000
G0 X320.000 Y9.500 Z5.000
G1 Z-135.000 F400
G1 X282.500 Y9.500 F800
G0 Z5.000
G0 X37.500 Y9.500 Z5.000
G1 Z-135.000 F400
G1 X0.000 Y9.500 F800
G0 Z5.000
G0 X0.000 Y9.500 Z5.000
G1 Z-135.000 F400
G1 X-0.500 Y9.500 F800
G0 Z5.000
G0 X7.449 Y-0.500 Z5.000
G1 Z-137.000 F400
G1 X320.500 Y-0.500 F800
G0 Z5.000
G0 X320.500 Y9.500 Z5.000
G1 Z-137.000 F400
G1 X320.000 Y9.500 F800
G0 Z5.000
G0 X320.000 Y9.500 Z5.000
G1 Z-137.000 F400
G1 X282.500 Y9.500 F800
G0 Z5.000
G0 X37.500 Y9.500 Z5.000
G1 Z-137.000 F400
G1 X0.000 Y9.500 F800
G0 Z5.000
G0 X0.000 Y9.500 Z5.000
G1 Z-137.000 F400
G1 X-0.500 Y9.500 F800
G0 Z5.000
G0 X7.449 Y-0.500 Z5.000
G1 Z-139.000 F400
G1 X320.500 Y-0.500 F800
G0 Z5.000
G0 X320.500 Y9.500 Z5.000
G1 Z-139.000 F400
G1 X320.000 Y9.500 F800
G0 Z5.000
G0 X320.000 Y9.500 Z5.000
G1 Z-139.000 F400
G1 X282.500 Y9.500 F800
G0 Z5.000
G0 X37.500 Y9.500 Z5.000
G1 Z-139.000 F400
G1 X0.000 Y9.500 F800
G0 Z5.000
G0 X0.000 Y9.500 Z5.000
G1 Z-139.000 F400
G1 X-0.500 Y9.500 F800
G0 Z5.000
G0 X7.449 Y-0.500 Z5.000
G1 Z-141.000 F400
G1 X320.500 Y-0.500 F800
G0 Z5.000
G0 X246.003 Y1.500 Z5.000
G1 Z-141.000 F400
G1 X63.997 Y1.500 F800
G0 Z5.000
G0 X64.501 Y3.500 Z5.000
G1 Z-141.000 F400
G1 X245.499 Y3.500 F800
G0 Z5.000
G0 X245.499 Y5.500 Z5.000
G1 Z-141.000 F400
G1 X64.501 Y5.500 F800
G0 Z5.000
G0 X64.501 Y7.500 Z5.000
G1 Z-141.000 F400
G1 X245.499 Y7.500 F800
G0 Z5.000
G0 X320.500 Y9.500 Z5.000
G1 Z-141.000 F400
G1 X320.000 Y9.500 F800
G0 Z5.000
G0 X320.000 Y9.500 Z5.000
G1 Z-141.000 F400
G1 X282.500 Y9.500 F800
G0 Z5.000
G0 X245.499 Y9.500 Z5.000
G1 Z-141.000 F400
G1 X64.501 Y9.500 F800
G0 Z5.000
G0 X37.500 Y9.500 Z5.000
G1 Z-141.000 F400
G1 X0.000 Y9.500 F800
G0 Z5.000
G0 X0.000 Y9.500 Z5.000
G1 Z-141.000 F400
G1 X-0.500 Y9.500 F800
G0 Z5.000
G0 X7.449 Y-0.500 Z5.000
G1 Z-143.000 F400
G1 X320.500 Y-0.500 F800
G0 Z5.000
G0 X247.585 Y1.500 Z5.000
G1 Z-143.000 F400
G1 X62.415 Y1.500 F800
G0 Z5.000
G0 X62.919 Y3.500 Z5.000
G1 Z-143.000 F400
G1 X247.081 Y3.500 F800
G0 Z5.000
G0 X247.081 Y5.500 Z5.000
G1 Z-143.000 F400
G1 X62.919 Y5.500 F800
G0 Z5.000
G0 X62.919 Y7.500 Z5.000
G1 Z-143.000 F400
G1 X247.081 Y7.500 F800
G0 Z5.000
G0 X320.500 Y9.500 Z5.000
G1 Z-143.000 F400
G1 X320.000 Y9.500 F800
G0 Z5.000
G0 X320.000 Y9.500 Z5.000
G1 Z-143.000 F400
G1 X282.500 Y9.500 F800
G0 Z5.000
G0 X247.081 Y9.500 Z5.000
G1 Z-143.000 F400
G1 X62.919 Y9.500 F800
G0 Z5.000
G0 X37.500 Y9.500 Z5.000
G1 Z-143.000 F400
G1 X0.000 Y9.500 F800
G0 Z5.000
G0 X0.000 Y9.500 Z5.000
G1 Z-143.000 F400
G1 X-0.500 Y9.500 F800
G0 Z5.000
G0 X7.449 Y-0.500 Z5.000
G1 Z-145.000 F400
G1 X320.500 Y-0.500 F800
G0 Z5.000
G0 X248.004 Y1.500 Z5.000
G1 Z-145.000 F400
G1 X61.996 Y1.500 F800
G0 Z5.000
G0 X62.500 Y3.500 Z5.000
G1 Z-145.000 F400
G1 X247.500 Y3.500 F800
G0 Z5.000
G0 X247.500 Y5.500 Z5.000
G1 Z-145.000 F400
G1 X62.500 Y5.500 F800
G0 Z5.000
G0 X62.500 Y7.500 Z5.000
G1 Z-145.000 F400
G1 X247.500 Y7.500 F800
G0 Z5.000
G0 X320.500 Y9.500 Z5.000
G1 Z-145.000 F400
G1 X320.000 Y9.500 F800
G0 Z5.000
G0 X320.000 Y9.500 Z5.000
G1 Z-145.000 F400
G1 X282.500 Y9.500 F800
G0 Z5.000
G0 X247.500 Y9.500 Z5.000
G1 Z-145.000 F400
G1 X62.500 Y9.500 F800
G0 Z5.000
G0 X37.500 Y9.500 Z5.000
G1 Z-145.000 F400
G1 X0.000 Y9.500 F800
G0 Z5.000
G0 X0.000 Y9.500 Z5.000
G1 Z-145.000 F400
G1 X-0.500 Y9.500 F800
G0 Z5.000
G0 X7.449 Y-0.500 Z5.000
G1 Z-147.000 F400
G1 X320.500 Y-0.500 F800
G0 Z5.000
G0 X247.585 Y1.500 Z5.000
G1 Z-147.000 F400
G1 X62.415 Y1.500 F800
G0 Z5.000
G0 X62.919 Y3.500 Z5.000
G1 Z-147.000 F400
G1 X247.081 Y3.500 F800
G0 Z5.000
G0 X247.081 Y5.500 Z5.000
G1 Z-147.000 F400
G1 X62.919 Y5.500 F800
G0 Z5.000
G0 X62.919 Y7.500 Z5.000
G1 Z-147.000 F400
G1 X247.081 Y7.500 F800
G0 Z5.000
G0 X320.500 Y9.500 Z5.000
G1 Z-147.000 F400
G1 X320.000 Y9.500 F800
G0 Z5.000
G0 X320.000 Y9.500 Z5.000
G1 Z-147.000 F400
G1 X282.500 Y9.500 F800
G0 Z5.000
G0 X247.081 Y9.500 Z5.000
G1 Z-147.000 F400
G1 X62.919 Y9.500 F800
G0 Z5.000
G0 X37.500 Y9.500 Z5.000
G1 Z-147.000 F400
G1 X0.000 Y9.500 F800
G0 Z5.000
G0 X0.000 Y9.500 Z5.000
G1 Z-147.000 F400
G1 X-0.500 Y9.500 F800
G0 Z5.000
G0 X7.449 Y-0.500 Z5.000
G1 Z-149.000 F400
G1 X320.500 Y-0.500 F800
G0 Z5.000
G0 X246.003 Y1.500 Z5.000
G1 Z-149.000 F400
G1 X63.997 Y1.500 F800
G0 Z5.000
G0 X64.501 Y3.500 Z5.000
G1 Z-149.000 F400
G1 X245.499 Y3.500 F800
G0 Z5.000
G0 X245.499 Y5.500 Z5.000
G1 Z-149.000 F400
G1 X64.501 Y5.500 F800
G0 Z5.000
G0 X64.501 Y7.500 Z5.000
G1 Z-149.000 F400
G1 X245.499 Y7.500 F800
G0 Z5.000
G0 X320.500 Y9.500 Z5.000
G1 Z-149.000 F400
G1 X320.000 Y9.500 F800
G0 Z5.000
G0 X320.000 Y9.500 Z5.000
G1 Z-149.000 F400
G1 X282.500 Y9.500 F800
G0 Z5.000
G0 X245.499 Y9.500 Z5.000
G1 Z-149.000 F400
G1 X64.501 Y9.500 F800
G0 Z5.000
G0 X37.500 Y9.500 Z5.000
G1 Z-149.000 F400
G1 X0.000 Y9.500 F800
G0 Z5.000
G0 X0.000 Y9.500 Z5.000
G1 Z-149.000 F400
G1 X-0.500 Y9.500 F800
G0 Z5.000
G0 X7.449 Y-0.500 Z5.000
G1 Z-151.000 F400
G1 X320.500 Y-0.500 F800
G0 Z5.000
G0 X320.500 Y9.500 Z5.000
G1 Z-151.000 F400
G1 X320.000 Y9.500 F800
G0 Z5.000
G0 X320.000 Y9.500 Z5.000
G1 Z-151.000 F400
G1 X282.500 Y9.500 F800
G0 Z5.000
G0 X37.500 Y9.500 Z5.000
G1 Z-151.000 F400
G1 X0.000 Y9.500 F800
G0 Z5.000
G0 X0.000 Y9.500 Z5.000
G1 Z-151.000 F400
G1 X-0.500 Y9.500 F800
G0 Z5.000
G0 X7.449 Y-0.500 Z5.000
G1 Z-153.000 F400
G1 X320.500 Y-0.500 F800
G0 Z5.000
G0 X320.500 Y9.500 Z5.000
G1 Z-153.000 F400
G1 X320.000 Y9.500 F800
G0 Z5.000
G0 X320.000 Y9.500 Z5.000
G1 Z-153.000 F400
G1 X282.500 Y9.500 F800
G0 Z5.000
G0 X37.500 Y9.500 Z5.000
G1 Z-153.000 F400
G1 X0.000 Y9.500 F800
G0 Z5.000
G0 X0.000 Y9.500 Z5.000
G1 Z-153.000 F400
G1 X-0.500 Y9.500 F800
G0 Z5.000
G0 X7.449 Y-0.500 Z5.000
G1 Z-155.000 F400
G1 X320.500 Y-0.500 F800
G0 Z5.000
G0 X320.500 Y9.500 Z5.000
G1 Z-155.000 F400
G1 X320.000 Y9.500 F800
G0 Z5.000
G0 X320.000 Y9.500 Z5.000
G1 Z-155.000 F400
G1 X282.500 Y9.500 F800
G0 Z5.000
G0 X37.500 Y9.500 Z5.000
G1 Z-155.000 F400
G1 X0.000 Y9.500 F800
G0 Z5.000
G0 X0.000 Y9.500 Z5.000
G1 Z-155.000 F400
G1 X-0.500 Y9.500 F800
G0 Z5.000
G0 X7.449 Y-0.500 Z5.000
G1 Z-157.000 F400
G1 X320.500 Y-0.500 F800
G0 Z5.000
G0 X320.500 Y9.500 Z5.000
G1 Z-157.000 F400
G1 X320.000 Y9.500 F800
G0 Z5.000
G0 X320.000 Y9.500 Z5.000
G1 Z-157.000 F400
G1 X282.500 Y9.500 F800
G0 Z5.000
G0 X37.500 Y9.500 Z5.000
G1 Z-157.000 F400
G1 X0.000 Y9.500 F800
G0 Z5.000
G0 X0.000 Y9.500 Z5.000
G1 Z-157.000 F400
G1 X-0.500 Y9.500 F800
G0 Z5.000
G0 X7.449 Y-0.500 Z5.000
G1 Z-159.000 F400
G1 X320.500 Y-0.500 F800
G0 Z5.000
G0 X320.500 Y9.500 Z5.000
G1 Z-159.000 F400
G1 X320.000 Y9.500 F800
G0 Z5.000
G0 X320.000 Y9.500 Z5.000
G1 Z-159.000 F400
G1 X282.500 Y9.500 F800
G0 Z5.000
G0 X37.500 Y9.500 Z5.000
G1 Z-159.000 F400
G1 X0.000 Y9.500 F800
G0 Z5.000
G0 X0.000 Y9.500 Z5.000
G1 Z-159.000 F400
G1 X-0.500 Y9.500 F800
G0 Z5.000
G0 X7.449 Y-0.500 Z5.000
G1 Z-161.000 F400
G1 X320.500 Y-0.500 F800
G0 Z5.000
G0 X320.500 Y9.500 Z5.000
G1 Z-161.000 F400
G1 X320.000 Y9.500 F800
G0 Z5.000
G0 X320.000 Y9.500 Z5.000
G1 Z-161.000 F400
G1 X282.500 Y9.500 F800
G0 Z5.000
G0 X37.500 Y9.500 Z5.000
G1 Z-161.000 F400
G1 X0.000 Y9.500 F800
G0 Z5.000
G0 X0.000 Y9.500 Z5.000
G1 Z-161.000 F400
G1 X-0.500 Y9.500 F800
G0 Z5.000
G0 X7.449 Y-0.500 Z5.000
G1 Z-163.000 F400
G1 X320.500 Y-0.500 F800
G0 Z5.000
G0 X320.500 Y9.500 Z5.000
G1 Z-163.000 F400
G1 X320.000 Y9.500 F800
G0 Z5.000
G0 X320.000 Y9.500 Z5.000
G1 Z-163.000 F400
G1 X282.500 Y9.500 F800
G0 Z5.000
G0 X37.500 Y9.500 Z5.000
G1 Z-163.000 F400
G1 X0.000 Y9.500 F800
G0 Z5.000
G0 X0.000 Y9.500 Z5.000
G1 Z-163.000 F400
G1 X-0.500 Y9.500 F800
G0 Z5.000
G0 X7.449 Y-0.500 Z5.000
G1 Z-165.000 F400
G1 X320.500 Y-0.500 F800
G0 Z5.000
G0 X320.500 Y9.500 Z5.000
G1 Z-165.000 F400
G1 X320.000 Y9.500 F800
G0 Z5.000
G0 X320.000 Y9.500 Z5.000
G1 Z-165.000 F400
G1 X282.500 Y9.500 F800
G0 Z5.000
G0 X37.500 Y9.500 Z5.000
G1 Z-165.000 F400
G1 X0.000 Y9.500 F800
G0 Z5.000
G0 X0.000 Y9.500 Z5.000
G1 Z-165.000 F400
G1 X-0.500 Y9.500 F800
G0 Z5.000
G0 X7.449 Y-0.500 Z5.000
G1 Z-167.000 F400
G1 X320.500 Y-0.500 F800
G0 Z5.000
G0 X320.500 Y9.500 Z5.000
G1 Z-167.000 F400
G1 X320.000 Y9.500 F800
G0 Z5.000
G0 X320.000 Y9.500 Z5.000
G1 Z-167.000 F400
G1 X282.500 Y9.500 F800
G0 Z5.000
G0 X37.500 Y9.500 Z5.000
G1 Z-167.000 F400
G1 X0.000 Y9.500 F800
G0 Z5.000
G0 X0.000 Y9.500 Z5.000
G1 Z-167.000 F400
G1 X-0.500 Y9.500 F800
G0 Z5.000
G0 X7.449 Y-0.500 Z5.000
G1 Z-169.000 F400
G1 X320.500 Y-0.500 F800
G0 Z5.000
G0 X320.500 Y9.500 Z5.000
G1 Z-169.000 F400
G1 X320.000 Y9.500 F800
G0 Z5.000
G0 X320.000 Y9.500 Z5.000
G1 Z-169.000 F400
G1 X282.500 Y9.500 F800
G0 Z5.000
G0 X37.500 Y9.500 Z5.000
G1 Z-169.000 F400
G1 X0.000 Y9.500 F800
G0 Z5.000
G0 X0.000 Y9.500 Z5.000
G1 Z-169.000 F400
G1 X-0.500 Y9.500 F800
G0 Z5.000
G0 X7.449 Y-0.500 Z5.000
G1 Z-171.000 F400
G1 X320.500 Y-0.500 F800
G0 Z5.000
G0 X320.500 Y9.500 Z5.000
G1 Z-171.000 F400
G1 X320.000 Y9.500 F800
G0 Z5.000
G0 X320.000 Y9.500 Z5.000
G1 Z-171.000 F400
G1 X282.500 Y9.500 F800
G0 Z5.000
G0 X37.500 Y9.500 Z5.000
G1 Z-171.000 F400
G1 X0.000 Y9.500 F800
G0 Z5.000
G0 X0.000 Y9.500 Z5.000
G1 Z-171.000 F400
G1 X-0.500 Y9.500 F800
G0 Z5.000
G0 X7.449 Y-0.500 Z5.000
G1 Z-173.000 F400
G1 X320.500 Y-0.500 F800
G0 Z5.000
G0 X320.500 Y9.500 Z5.000
G1 Z-173.000 F400
G1 X320.000 Y9.500 F800
G0 Z5.000
G0 X320.000 Y9.500 Z5.000
G1 Z-173.000 F400
G1 X282.500 Y9.500 F800
G0 Z5.000
G0 X37.500 Y9.500 Z5.000
G1 Z-173.000 F400
G1 X0.000 Y9.500 F800
G0 Z5.000
G0 X0.000 Y9.500 Z5.000
G1 Z-173.000 F400
G1 X-0.500 Y9.500 F800
G0 Z5.000
G0 X7.449 Y-0.500 Z5.000
G1 Z-175.000 F400
G1 X320.500 Y-0.500 F800
G0 Z5.000
G0 X320.500 Y9.500 Z5.000
G1 Z-175.000 F400
G1 X320.000 Y9.500 F800
G0 Z5.000
G0 X320.000 Y9.500 Z5.000
G1 Z-175.000 F400
G1 X282.500 Y9.500 F800
G0 Z5.000
G0 X37.500 Y9.500 Z5.000
G1 Z-175.000 F400
G1 X0.000 Y9.500 F800
G0 Z5.000
G0 X0.000 Y9.500 Z5.000
G1 Z-175.000 F400
G1 X-0.500 Y9.500 F800
G0 Z5.000
G0 X7.449 Y-0.500 Z5.000
G1 Z-177.000 F400
G1 X320.500 Y-0.500 F800
G0 Z5.000
G0 X320.500 Y9.500 Z5.000
G1 Z-177.000 F400
G1 X320.000 Y9.500 F800
G0 Z5.000
G0 X320.000 Y9.500 Z5.000
G1 Z-177.000 F400
G1 X282.500 Y9.500 F800
G0 Z5.000
G0 X37.500 Y9.500 Z5.000
G1 Z-177.000 F400
G1 X0.000 Y9.500 F800
G0 Z5.000
G0 X0.000 Y9.500 Z5.000
G1 Z-177.000 F400
G1 X-0.500 Y9.500 F800
G0 Z5.000
G0 X7.449 Y-0.500 Z5.000
G1 Z-179.000 F400
G1 X320.500 Y-0.500 F800
G0 Z5.000
G0 X320.500 Y9.500 Z5.000
G1 Z-179.000 F400
G1 X320.000 Y9.500 F800
G0 Z5.000
G0 X320.000 Y9.500 Z5.000
G1 Z-179.000 F400
G1 X282.500 Y9.500 F800
G0 Z5.000
G0 X37.500 Y9.500 Z5.000
G1 Z-179.000 F400
G1 X0.000 Y9.500 F800
G0 Z5.000
G0 X0.000 Y9.500 Z5.000
G1 Z-179.000 F400
G1 X-0.500 Y9.500 F800
G0 Z5.000
G0 X7.449 Y-0.500 Z5.000
G1 Z-181.000 F400
G1 X320.500 Y-0.500 F800
G0 Z5.000
G0 X320.500 Y9.500 Z5.000
G1 Z-181.000 F400
G1 X320.000 Y9.500 F800
G0 Z5.000
G0 X320.000 Y9.500 Z5.000
G1 Z-181.000 F400
G1 X282.500 Y9.500 F800
G0 Z5.000
G0 X37.500 Y9.500 Z5.000
G1 Z-181.000 F400
G1 X0.000 Y9.500 F800
G0 Z5.000
G0 X0.000 Y9.500 Z5.000
G1 Z-181.000 F400
G1 X-0.500 Y9.500 F800
G0 Z5.000
G0 X7.449 Y-0.500 Z5.000
G1 Z-183.000 F400
G1 X320.500 Y-0.500 F800
G0 Z5.000
G0 X320.500 Y9.500 Z5.000
G1 Z-183.000 F400
G1 X320.000 Y9.500 F800
G0 Z5.000
G0 X320.000 Y9.500 Z5.000
G1 Z-183.000 F400
G1 X282.500 Y9.500 F800
G0 Z5.000
G0 X37.500 Y9.500 Z5.000
G1 Z-183.000 F400
G1 X0.000 Y9.500 F800
G0 Z5.000
G0 X0.000 Y9.500 Z5.000
G1 Z-183.000 F400
G1 X-0.500 Y9.500 F800
G0 Z5.000
G0 X7.449 Y-0.500 Z5.000
G1 Z-185.000 F400
G1 X320.500 Y-0.500 F800
G0 Z5.000
G0 X320.500 Y9.500 Z5.000
G1 Z-185.000 F400
G1 X320.000 Y9.500 F800
G0 Z5.000
G0 X320.000 Y9.500 Z5.000
G1 Z-185.000 F400
G1 X282.500 Y9.500 F800
G0 Z5.000
G0 X37.500 Y9.500 Z5.000
G1 Z-185.000 F400
G1 X0.000 Y9.500 F800
G0 Z5.000
G0 X0.000 Y9.500 Z5.000
G1 Z-185.000 F400
G1 X-0.500 Y9.500 F800
G0 Z5.000
G0 X7.449 Y-0.500 Z5.000
G1 Z-187.000 F400
G1 X320.500 Y-0.500 F800
G0 Z5.000
G0 X320.500 Y9.500 Z5.000
G1 Z-187.000 F400
G1 X320.000 Y9.500 F800
G0 Z5.000
G0 X320.000 Y9.500 Z5.000
G1 Z-187.000 F400
G1 X282.500 Y9.500 F800
G0 Z5.000
G0 X37.500 Y9.500 Z5.000
G1 Z-187.000 F400
G1 X0.000 Y9.500 F800
G0 Z5.000
G0 X0.000 Y9.500 Z5.000
G1 Z-187.000 F400
G1 X-0.500 Y9.500 F800
G0 Z5.000
G0 X7.449 Y-0.500 Z5.000
G1 Z-189.000 F400
G1 X320.500 Y-0.500 F800
G0 Z5.000
G0 X320.500 Y9.500 Z5.000
G1 Z-189.000 F400
G1 X320.000 Y9.500 F800
G0 Z5.000
G0 X320.000 Y9.500 Z5.000
G1 Z-189.000 F400
G1 X282.500 Y9.500 F800
G0 Z5.000
G0 X37.500 Y9.500 Z5.000
G1 Z-189.000 F400
G1 X0.000 Y9.500 F800
G0 Z5.000
G0 X0.000 Y9.500 Z5.000
G1 Z-189.000 F400
G1 X-0.500 Y9.500 F800
G0 Z5.000
G0 X7.449 Y-0.500 Z5.000
G1 Z-191.000 F400
G1 X320.500 Y-0.500 F800
G0 Z5.000
G0 X320.500 Y9.500 Z5.000
G1 Z-191.000 F400
G1 X320.000 Y9.500 F800
G0 Z5.000
G0 X320.000 Y9.500 Z5.000
G1 Z-191.000 F400
G1 X282.500 Y9.500 F800
G0 Z5.000
G0 X37.500 Y9.500 Z5.000
G1 Z-191.000 F400
G1 X0.000 Y9.500 F800
G0 Z5.000
G0 X0.000 Y9.500 Z5.000
G1 Z-191.000 F400
G1 X-0.500 Y9.500 F800
G0 Z5.000
G0 X7.449 Y-0.500 Z5.000
G1 Z-193.000 F400
G1 X320.500 Y-0.500 F800
G0 Z5.000
G0 X320.500 Y9.500 Z5.000
G1 Z-193.000 F400
G1 X320.000 Y9.500 F800
G0 Z5.000
G0 X320.000 Y9.500 Z5.000
G1 Z-193.000 F400
G1 X282.500 Y9.500 F800
G0 Z5.000
G0 X37.500 Y9.500 Z5.000
G1 Z-193.000 F400
G1 X0.000 Y9.500 F800
G0 Z5.000
G0 X0.000 Y9.500 Z5.000
G1 Z-193.000 F400
G1 X-0.500 Y9.500 F800
G0 Z5.000
G0 X7.449 Y-0.500 Z5.000
G1 Z-195.000 F400
G1 X320.500 Y-0.500 F800
G0 Z5.000
G0 X320.500 Y9.500 Z5.000
G1 Z-195.000 F400
G1 X320.000 Y9.500 F800
G0 Z5.000
G0 X320.000 Y9.500 Z5.000
G1 Z-195.000 F400
G1 X282.500 Y9.500 F800
G0 Z5.000
G0 X37.500 Y9.500 Z5.000
G1 Z-195.000 F400
G1 X0.000 Y9.500 F800
G0 Z5.000
G0 X0.000 Y9.500 Z5.000
G1 Z-195.000 F400
G1 X-0.500 Y9.500 F800
G0 Z5.000
G0 X7.449 Y-0.500 Z5.000
G1 Z-197.000 F400
G1 X320.500 Y-0.500 F800
G0 Z5.000
G0 X320.500 Y9.500 Z5.000
G1 Z-197.000 F400
G1 X320.000 Y9.500 F800
G0 Z5.000
G0 X320.000 Y9.500 Z5.000
G1 Z-197.000 F400
G1 X282.500 Y9.500 F800
G0 Z5.000
G0 X37.500 Y9.500 Z5.000
G1 Z-197.000 F400
G1 X0.000 Y9.500 F800
G0 Z5.000
G0 X0.000 Y9.500 Z5.000
G1 Z-197.000 F400
G1 X-0.500 Y9.500 F800
G0 Z5.000
G0 X7.449 Y-0.500 Z5.000
G1 Z-199.000 F400
G1 X320.500 Y-0.500 F800
G0 Z5.000
G0 X320.500 Y9.500 Z5.000
G1 Z-199.000 F400
G1 X320.000 Y9.500 F800
G0 Z5.000
G0 X320.000 Y9.500 Z5.000
G1 Z-199.000 F400
G1 X282.500 Y9.500 F800
G0 Z5.000
G0 X37.500 Y9.500 Z5.000
G1 Z-199.000 F400
G1 X0.000 Y9.500 F800
G0 Z5.000
G0 X0.000 Y9.500 Z5.000
G1 Z-199.000 F400
G1 X-0.500 Y9.500 F800
G0 Z5.000
G0 X7.449 Y-0.500 Z5.000
G1 Z-201.000 F400
G1 X320.500 Y-0.500 F800
G0 Z5.000
G0 X320.500 Y9.500 Z5.000
G1 Z-201.000 F400
G1 X320.000 Y9.500 F800
G0 Z5.000
G0 X320.000 Y9.500 Z5.000
G1 Z-201.000 F400
G1 X282.500 Y9.500 F800
G0 Z5.000
G0 X37.500 Y9.500 Z5.000
G1 Z-201.000 F400
G1 X0.000 Y9.500 F800
G0 Z5.000
G0 X0.000 Y9.500 Z5.000
G1 Z-201.000 F400
G1 X-0.500 Y9.500 F800
G0 Z5.000
G0 X7.449 Y-0.500 Z5.000
G1 Z-203.000 F400
G1 X320.500 Y-0.500 F800
G0 Z5.000
G0 X320.500 Y9.500 Z5.000
G1 Z-203.000 F400
G1 X320.000 Y9.500 F800
G0 Z5.000
G0 X320.000 Y9.500 Z5.000
G1 Z-203.000 F400
G1 X282.500 Y9.500 F800
G0 Z5.000
G0 X37.500 Y9.500 Z5.000
G1 Z-203.000 F400
G1 X0.000 Y9.500 F800
G0 Z5.000
G0 X0.000 Y9.500 Z5.000
G1 Z-203.000 F400
G1 X-0.500 Y9.500 F800
G0 Z5.000
G0 X7.449 Y-0.500 Z5.000
G1 Z-205.000 F400
G1 X320.500 Y-0.500 F800
G0 Z5.000
G0 X320.500 Y9.500 Z5.000
G1 Z-205.000 F400
G1 X320.000 Y9.500 F800
G0 Z5.000
G0 X320.000 Y9.500 Z5.000
G1 Z-205.000 F400
G1 X282.500 Y9.500 F800
G0 Z5.000
G0 X37.500 Y9.500 Z5.000
G1 Z-205.000 F400
G1 X0.000 Y9.500 F800
G0 Z5.000
G0 X0.000 Y9.500 Z5.000
G1 Z-205.000 F400
G1 X-0.500 Y9.500 F800
G0 Z5.000
G0 X7.449 Y-0.500 Z5.000
G1 Z-207.000 F400
G1 X320.500 Y-0.500 F800
G0 Z5.000
G0 X320.500 Y9.500 Z5.000
G1 Z-207.000 F400
G1 X320.000 Y9.500 F800
G0 Z5.000
G0 X320.000 Y9.500 Z5.000
G1 Z-207.000 F400
G1 X282.500 Y9.500 F800
G0 Z5.000
G0 X37.500 Y9.500 Z5.000
G1 Z-207.000 F400
G1 X0.000 Y9.500 F800
G0 Z5.000
G0 X0.000 Y9.500 Z5.000
G1 Z-207.000 F400
G1 X-0.500 Y9.500 F800
G0 Z5.000
G0 X7.449 Y-0.500 Z5.000
G1 Z-209.000 F400
G1 X320.500 Y-0.500 F800
G0 Z5.000
G0 X320.500 Y9.500 Z5.000
G1 Z-209.000 F400
G1 X320.000 Y9.500 F800
G0 Z5.000
G0 X320.000 Y9.500 Z5.000
G1 Z-209.000 F400
G1 X282.500 Y9.500 F800
G0 Z5.000
G0 X37.500 Y9.500 Z5.000
G1 Z-209.000 F400
G1 X0.000 Y9.500 F800
G0 Z5.000
G0 X0.000 Y9.500 Z5.000
G1 Z-209.000 F400
G1 X-0.500 Y9.500 F800
G0 Z5.000
G0 X7.449 Y-0.500 Z5.000
G1 Z-211.000 F400
G1 X320.500 Y-0.500 F800
G0 Z5.000
G0 X320.500 Y9.500 Z5.000
G1 Z-211.000 F400
G1 X320.000 Y9.500 F800
G0 Z5.000
G0 X320.000 Y9.500 Z5.000
G1 Z-211.000 F400
G1 X282.500 Y9.500 F800
G0 Z5.000
G0 X37.500 Y9.500 Z5.000
G1 Z-211.000 F400
G1 X0.000 Y9.500 F800
G0 Z5.000
G0 X0.000 Y9.500 Z5.000
G1 Z-211.000 F400
G1 X-0.500 Y9.500 F800
G0 Z5.000
G0 X7.449 Y-0.500 Z5.000
G1 Z-213.000 F400
G1 X320.500 Y-0.500 F800
G0 Z5.000
G0 X320.500 Y9.500 Z5.000
G1 Z-213.000 F400
G1 X320.000 Y9.500 F800
G0 Z5.000
G0 X320.000 Y9.500 Z5.000
G1 Z-213.000 F400
G1 X282.500 Y9.500 F800
G0 Z5.000
G0 X37.500 Y9.500 Z5.000
G1 Z-213.000 F400
G1 X0.000 Y9.500 F800
G0 Z5.000
G0 X0.000 Y9.500 Z5.000
G1 Z-213.000 F400
G1 X-0.500 Y9.500 F800
G0 Z5.000
G0 X7.449 Y-0.500 Z5.000
G1 Z-215.000 F400
G1 X320.500 Y-0.500 F800
G0 Z5.000
G0 X320.500 Y9.500 Z5.000
G1 Z-215.000 F400
G1 X320.000 Y9.500 F800
G0 Z5.000
G0 X320.000 Y9.500 Z5.000
G1 Z-215.000 F400
G1 X282.500 Y9.500 F800
G0 Z5.000
G0 X37.500 Y9.500 Z5.000
G1 Z-215.000 F400
G1 X0.000 Y9.500 F800
G0 Z5.000
G0 X0.000 Y9.500 Z5.000
G1 Z-215.000 F400
G1 X-0.500 Y9.500 F800
G0 Z5.000
G0 X7.449 Y-0.500 Z5.000
G1 Z-217.000 F400
G1 X320.500 Y-0.500 F800
G0 Z5.000
G0 X320.500 Y9.500 Z5.000
G1 Z-217.000 F400
G1 X320.000 Y9.500 F800
G0 Z5.000
G0 X320.000 Y9.500 Z5.000
G1 Z-217.000 F400
G1 X282.500 Y9.500 F800
G0 Z5.000
G0 X37.500 Y9.500 Z5.000
G1 Z-217.000 F400
G1 X0.000 Y9.500 F800
G0 Z5.000
G0 X0.000 Y9.500 Z5.000
G1 Z-217.000 F400
G1 X-0.500 Y9.500 F800
G0 Z5.000
G0 X7.449 Y-0.500 Z5.000
G1 Z-219.000 F400
G1 X320.500 Y-0.500 F800
G0 Z5.000
G0 X320.500 Y9.500 Z5.000
G1 Z-219.000 F400
G1 X320.000 Y9.500 F800
G0 Z5.000
G0 X320.000 Y9.500 Z5.000
G1 Z-219.000 F400
G1 X282.500 Y9.500 F800
G0 Z5.000
G0 X37.500 Y9.500 Z5.000
G1 Z-219.000 F400
G1 X0.000 Y9.500 F800
G0 Z5.000
G0 X0.000 Y9.500 Z5.000
G1 Z-219.000 F400
G1 X-0.500 Y9.500 F800
G0 Z5.000
G0 X7.449 Y-0.500 Z5.000
G1 Z-221.000 F400
G1 X320.500 Y-0.500 F800
G0 Z5.000
G0 X320.500 Y9.500 Z5.000
G1 Z-221.000 F400
G1 X320.000 Y9.500 F800
G0 Z5.000
G0 X320.000 Y9.500 Z5.000
G1 Z-221.000 F400
G1 X282.500 Y9.500 F800
G0 Z5.000
G0 X37.500 Y9.500 Z5.000
G1 Z-221.000 F400
G1 X0.000 Y9.500 F800
G0 Z5.000
G0 X0.000 Y9.500 Z5.000
G1 Z-221.000 F400
G1 X-0.500 Y9.500 F800
G0 Z5.000
G0 X7.449 Y-0.500 Z5.000
G1 Z-223.000 F400
G1 X320.500 Y-0.500 F800
G0 Z5.000
G0 X320.500 Y9.500 Z5.000
G1 Z-223.000 F400
G1 X320.000 Y9.500 F800
G0 Z5.000
G0 X320.000 Y9.500 Z5.000
G1 Z-223.000 F400
G1 X282.500 Y9.500 F800
G0 Z5.000
G0 X37.500 Y9.500 Z5.000
G1 Z-223.000 F400
G1 X0.000 Y9.500 F800
G0 Z5.000
G0 X0.000 Y9.500 Z5.000
G1 Z-223.000 F400
G1 X-0.500 Y9.500 F800
G0 Z5.000
G0 X7.449 Y-0.500 Z5.000
G1 Z-225.000 F400
G1 X320.500 Y-0.500 F800
G0 Z5.000
G0 X320.500 Y9.500 Z5.000
G1 Z-225.000 F400
G1 X320.000 Y9.500 F800
G0 Z5.000
G0 X320.000 Y9.500 Z5.000
G1 Z-225.000 F400
G1 X282.500 Y9.500 F800
G0 Z5.000
G0 X37.500 Y9.500 Z5.000
G1 Z-225.000 F400
G1 X0.000 Y9.500 F800
G0 Z5.000
G0 X0.000 Y9.500 Z5.000
G1 Z-225.000 F400
G1 X-0.500 Y9.500 F800
G0 Z5.000
G0 X7.449 Y-0.500 Z5.000
G1 Z-227.000 F400
G1 X320.500 Y-0.500 F800
G0 Z5.000
G0 X320.500 Y9.500 Z5.000
G1 Z-227.000 F400
G1 X320.000 Y9.500 F800
G0 Z5.000
G0 X320.000 Y9.500 Z5.000
G1 Z-227.000 F400
G1 X282.500 Y9.500 F800
G0 Z5.000
G0 X37.500 Y9.500 Z5.000
G1 Z-227.000 F400
G1 X0.000 Y9.500 F800
G0 Z5.000
G0 X0.000 Y9.500 Z5.000
G1 Z-227.000 F400
G1 X-0.500 Y9.500 F800
G0 Z5.000
G0 X7.449 Y-0.500 Z5.000
G1 Z-229.000 F400
G1 X320.500 Y-0.500 F800
G0 Z5.000
G0 X320.500 Y9.500 Z5.000
G1 Z-229.000 F400
G1 X320.000 Y9.500 F800
G0 Z5.000
G0 X320.000 Y9.500 Z5.000
G1 Z-229.000 F400
G1 X282.500 Y9.500 F800
G0 Z5.000
G0 X37.500 Y9.500 Z5.000
G1 Z-229.000 F400
G1 X0.000 Y9.500 F800
G0 Z5.000
G0 X0.000 Y9.500 Z5.000
G1 Z-229.000 F400
G1 X-0.500 Y9.500 F800
G0 Z5.000
G0 X7.449 Y-0.500 Z5.000
G1 Z-231.000 F400
G1 X320.500 Y-0.500 F800
G0 Z5.000
G0 X320.500 Y9.500 Z5.000
G1 Z-231.000 F400
G1 X320.000 Y9.500 F800
G0 Z5.000
G0 X320.000 Y9.500 Z5.000
G1 Z-231.000 F400
G1 X282.500 Y9.500 F800
G0 Z5.000
G0 X37.500 Y9.500 Z5.000
G1 Z-231.000 F400
G1 X0.000 Y9.500 F800
G0 Z5.000
G0 X0.000 Y9.500 Z5.000
G1 Z-231.000 F400
G1 X-0.500 Y9.500 F800
G0 Z5.000
G0 X7.449 Y-0.500 Z5.000
G1 Z-233.000 F400
G1 X320.500 Y-0.500 F800
G0 Z5.000
G0 X320.500 Y9.500 Z5.000
G1 Z-233.000 F400
G1 X320.000 Y9.500 F800
G0 Z5.000
G0 X320.000 Y9.500 Z5.000
G1 Z-233.000 F400
G1 X282.500 Y9.500 F800
G0 Z5.000
G0 X37.500 Y9.500 Z5.000
G1 Z-233.000 F400
G1 X0.000 Y9.500 F800
G0 Z5.000
G0 X0.000 Y9.500 Z5.000
G1 Z-233.000 F400
G1 X-0.500 Y9.500 F800
G0 Z5.000
G0 X7.449 Y-0.500 Z5.000
G1 Z-235.000 F400
G1 X320.500 Y-0.500 F800
G0 Z5.000
G0 X320.500 Y9.500 Z5.000
G1 Z-235.000 F400
G1 X320.000 Y9.500 F800
G0 Z5.000
G0 X320.000 Y9.500 Z5.000
G1 Z-235.000 F400
G1 X282.500 Y9.500 F800
G0 Z5.000
G0 X37.500 Y9.500 Z5.000
G1 Z-235.000 F400
G1 X0.000 Y9.500 F800
G0 Z5.000
G0 X0.000 Y9.500 Z5.000
G1 Z-235.000 F400
G1 X-0.500 Y9.500 F800
G0 Z5.000
G0 X7.449 Y-0.500 Z5.000
G1 Z-237.000 F400
G1 X320.500 Y-0.500 F800
G0 Z5.000
G0 X247.003 Y1.500 Z5.000
G1 Z-237.000 F400
G1 X62.997 Y1.500 F800
G0 Z5.000
G0 X63.501 Y3.500 Z5.000
G1 Z-237.000 F400
G1 X246.499 Y3.500 F800
G0 Z5.000
G0 X246.499 Y5.500 Z5.000
G1 Z-237.000 F400
G1 X63.501 Y5.500 F800
G0 Z5.000
G0 X63.501 Y7.500 Z5.000
G1 Z-237.000 F400
G1 X246.499 Y7.500 F800
G0 Z5.000
G0 X320.500 Y9.500 Z5.000
G1 Z-237.000 F400
G1 X320.000 Y9.500 F800
G0 Z5.000
G0 X320.000 Y9.500 Z5.000
G1 Z-237.000 F400
G1 X282.500 Y9.500 F800
G0 Z5.000
G0 X246.499 Y9.500 Z5.000
G1 Z-237.000 F400
G1 X63.501 Y9.500 F800
G0 Z5.000
G0 X37.500 Y9.500 Z5.000
G1 Z-237.000 F400
G1 X0.000 Y9.500 F800
G0 Z5.000
G0 X0.000 Y9.500 Z5.000
G1 Z-237.000 F400
G1 X-0.500 Y9.500 F800
G0 Z5.000
G0 X7.449 Y-0.500 Z5.000
G1 Z-239.000 F400
G1 X320.500 Y-0.500 F800
G0 Z5.000
G0 X247.902 Y1.500 Z5.000
G1 Z-239.000 F400
G1 X62.098 Y1.500 F800
G0 Z5.000
G0 X62.602 Y3.500 Z5.000
G1 Z-239.000 F400
G1 X247.398 Y3.500 F800
G0 Z5.000
G0 X247.398 Y5.500 Z5.000
G1 Z-239.000 F400
G1 X62.602 Y5.500 F800
G0 Z5.000
G0 X62.602 Y7.500 Z5.000
G1 Z-239.000 F400
G1 X247.398 Y7.500 F800
G0 Z5.000
G0 X320.500 Y9.500 Z5.000
G1 Z-239.000 F400
G1 X320.000 Y9.500 F800
G0 Z5.000
G0 X320.000 Y9.500 Z5.000
G1 Z-239.000 F400
G1 X282.500 Y9.500 F800
G0 Z5.000
G0 X247.398 Y9.500 Z5.000
G1 Z-239.000 F400
G1 X62.602 Y9.500 F800
G0 Z5.000
G0 X37.500 Y9.500 Z5.000
G1 Z-239.000 F400
G1 X0.000 Y9.500 F800
G0 Z5.000
G0 X0.000 Y9.500 Z5.000
G1 Z-239.000 F400
G1 X-0.500 Y9.500 F800
G0 Z5.000
G0 X7.449 Y-0.500 Z5.000
G1 Z-241.000 F400
G1 X320.500 Y-0.500 F800
G0 Z5.000
G0 X247.902 Y1.500 Z5.000
G1 Z-241.000 F400
G1 X62.098 Y1.500 F800
G0 Z5.000
G0 X62.602 Y3.500 Z5.000
G1 Z-241.000 F400
G1 X247.398 Y3.500 F800
G0 Z5.000
G0 X247.398 Y5.500 Z5.000
G1 Z-241.000 F400
G1 X62.602 Y5.500 F800
G0 Z5.000
G0 X62.602 Y7.500 Z5.000
G1 Z-241.000 F400
G1 X247.398 Y7.500 F800
G0 Z5.000
G0 X320.500 Y9.500 Z5.000
G1 Z-241.000 F400
G1 X320.000 Y9.500 F800
G0 Z5.000
G0 X320.000 Y9.500 Z5.000
G1 Z-241.000 F400
G1 X282.500 Y9.500 F800
G0 Z5.000
G0 X247.398 Y9.500 Z5.000
G1 Z-241.000 F400
G1 X62.602 Y9.500 F800
G0 Z5.000
G0 X37.500 Y9.500 Z5.000
G1 Z-241.000 F400
G1 X0.000 Y9.500 F800
G0 Z5.000
G0 X0.000 Y9.500 Z5.000
G1 Z-241.000 F400
G1 X-0.500 Y9.500 F800
G0 Z5.000
G0 X7.449 Y-0.500 Z5.000
G1 Z-243.000 F400
G1 X320.500 Y-0.500 F800
G0 Z5.000
G0 X247.003 Y1.500 Z5.000
G1 Z-243.000 F400
G1 X62.997 Y1.500 F800
G0 Z5.000
G0 X63.501 Y3.500 Z5.000
G1 Z-243.000 F400
G1 X246.499 Y3.500 F800
G0 Z5.000
G0 X246.499 Y5.500 Z5.000
G1 Z-243.000 F400
G1 X63.501 Y5.500 F800
G0 Z5.000
G0 X63.501 Y7.500 Z5.000
G1 Z-243.000 F400
G1 X246.499 Y7.500 F800
G0 Z5.000
G0 X320.500 Y9.500 Z5.000
G1 Z-243.000 F400
G1 X320.000 Y9.500 F800
G0 Z5.000
G0 X320.000 Y9.500 Z5.000
G1 Z-243.000 F400
G1 X282.500 Y9.500 F800
G0 Z5.000
G0 X246.499 Y9.500 Z5.000
G1 Z-243.000 F400
G1 X63.501 Y9.500 F800
G0 Z5.000
G0 X37.500 Y9.500 Z5.000
G1 Z-243.000 F400
G1 X0.000 Y9.500 F800
G0 Z5.000
G0 X0.000 Y9.500 Z5.000
G1 Z-243.000 F400
G1 X-0.500 Y9.500 F800
G0 Z5.000
G0 X7.449 Y-0.500 Z5.000
G1 Z-245.000 F400
G1 X320.500 Y-0.500 F800
G0 Z5.000
G0 X243.004 Y1.500 Z5.000
G1 Z-245.000 F400
G1 X66.996 Y1.500 F800
G0 Z5.000
G0 X67.500 Y3.500 Z5.000
G1 Z-245.000 F400
G1 X242.500 Y3.500 F800
G0 Z5.000
G0 X242.500 Y5.500 Z5.000
G1 Z-245.000 F400
G1 X67.500 Y5.500 F800
G0 Z5.000
G0 X67.500 Y7.500 Z5.000
G1 Z-245.000 F400
G1 X242.500 Y7.500 F800
G0 Z5.000
G0 X320.500 Y9.500 Z5.000
G1 Z-245.000 F400
G1 X320.000 Y9.500 F800
G0 Z5.000
G0 X320.000 Y9.500 Z5.000
G1 Z-245.000 F400
G1 X282.500 Y9.500 F800
G0 Z5.000
G0 X242.500 Y9.500 Z5.000
G1 Z-245.000 F400
G1 X67.500 Y9.500 F800
G0 Z5.000
G0 X37.500 Y9.500 Z5.000
G1 Z-245.000 F400
G1 X0.000 Y9.500 F800
G0 Z5.000
G0 X0.000 Y9.500 Z5.000
G1 Z-245.000 F400
G1 X-0.500 Y9.500 F800
G0 Z5.000
G0 X7.449 Y-0.500 Z5.000
G1 Z-247.000 F400
G1 X320.500 Y-0.500 F800
G0 Z5.000
G0 X320.500 Y9.500 Z5.000
G1 Z-247.000 F400
G1 X320.000 Y9.500 F800
G0 Z5.000
G0 X320.000 Y9.500 Z5.000
G1 Z-247.000 F400
G1 X282.500 Y9.500 F800
G0 Z5.000
G0 X37.500 Y9.500 Z5.000
G1 Z-247.000 F400
G1 X0.000 Y9.500 F800
G0 Z5.000
G0 X0.000 Y9.500 Z5.000
G1 Z-247.000 F400
G1 X-0.500 Y9.500 F800
G0 Z5.000
G0 X7.449 Y-0.500 Z5.000
G1 Z-249.000 F400
G1 X320.500 Y-0.500 F800
G0 Z5.000
G0 X320.500 Y9.500 Z5.000
G1 Z-249.000 F400
G1 X320.000 Y9.500 F800
G0 Z5.000
G0 X320.000 Y9.500 Z5.000
G1 Z-249.000 F400
G1 X282.500 Y9.500 F800
G0 Z5.000
G0 X37.500 Y9.500 Z5.000
G1 Z-249.000 F400
G1 X0.000 Y9.500 F800
G0 Z5.000
G0 X0.000 Y9.500 Z5.000
G1 Z-249.000 F400
G1 X-0.500 Y9.500 F800
G0 Z5.000
G0 X7.449 Y-0.500 Z5.000
G1 Z-251.000 F400
G1 X320.500 Y-0.500 F800
G0 Z5.000
G0 X320.500 Y9.500 Z5.000
G1 Z-251.000 F400
G1 X320.000 Y9.500 F800
G0 Z5.000
G0 X320.000 Y9.500 Z5.000
G1 Z-251.000 F400
G1 X282.500 Y9.500 F800
G0 Z5.000
G0 X37.500 Y9.500 Z5.000
G1 Z-251.000 F400
G1 X0.000 Y9.500 F800
G0 Z5.000
G0 X0.000 Y9.500 Z5.000
G1 Z-251.000 F400
G1 X-0.500 Y9.500 F800
G0 Z5.000
G0 X7.449 Y-0.500 Z5.000
G1 Z-253.000 F400
G1 X320.500 Y-0.500 F800
G0 Z5.000
G0 X320.500 Y9.500 Z5.000
G1 Z-253.000 F400
G1 X320.000 Y9.500 F800
G0 Z5.000
G0 X320.000 Y9.500 Z5.000
G1 Z-253.000 F400
G1 X282.500 Y9.500 F800
G0 Z5.000
G0 X37.500 Y9.500 Z5.000
G1 Z-253.000 F400
G1 X0.000 Y9.500 F800
G0 Z5.000
G0 X0.000 Y9.500 Z5.000
G1 Z-253.000 F400
G1 X-0.500 Y9.500 F800
G0 Z5.000
G0 X7.449 Y-0.500 Z5.000
G1 Z-255.000 F400
G1 X320.500 Y-0.500 F800
G0 Z5.000
G0 X320.500 Y9.500 Z5.000
G1 Z-255.000 F400
G1 X320.000 Y9.500 F800
G0 Z5.000
G0 X320.000 Y9.500 Z5.000
G1 Z-255.000 F400
G1 X307.200 Y9.500 F800
G0 Z5.000
G0 X307.200 Y9.500 Z5.000
G1 Z-255.000 F400
G1 X282.500 Y9.500 F800
G0 Z5.000
G0 X37.500 Y9.500 Z5.000
G1 Z-255.000 F400
G1 X0.000 Y9.500 F800
G0 Z5.000
G0 X0.000 Y9.500 Z5.000
G1 Z-255.000 F400
G1 X-0.500 Y9.500 F800
G0 Z5.000
G0 X7.449 Y-0.500 Z5.000
G1 Z-257.000 F400
G1 X320.500 Y-0.500 F800
G0 Z5.000
G0 X320.500 Y9.500 Z5.000
G1 Z-257.000 F400
G1 X320.000 Y9.500 F800
G0 Z5.000
G0 X320.000 Y9.500 Z5.000
G1 Z-257.000 F400
G1 X282.500 Y9.500 F800
G0 Z5.000
G0 X37.500 Y9.500 Z5.000
G1 Z-257.000 F400
G1 X0.000 Y9.500 F800
G0 Z5.000
G0 X0.000 Y9.500 Z5.000
G1 Z-257.000 F400
G1 X-0.500 Y9.500 F800
G0 Z5.000
G0 X7.449 Y-0.500 Z5.000
G1 Z-259.000 F400
G1 X320.500 Y-0.500 F800
G0 Z5.000
G0 X320.500 Y9.500 Z5.000
G1 Z-259.000 F400
G1 X320.000 Y9.500 F800
G0 Z5.000
G0 X320.000 Y9.500 Z5.000
G1 Z-259.000 F400
G1 X282.500 Y9.500 F800
G0 Z5.000
G0 X37.500 Y9.500 Z5.000
G1 Z-259.000 F400
G1 X0.000 Y9.500 F800
G0 Z5.000
G0 X0.000 Y9.500 Z5.000
G1 Z-259.000 F400
G1 X-0.500 Y9.500 F800
G0 Z5.000
G0 X7.449 Y-0.500 Z5.000
G1 Z-261.000 F400
G1 X320.500 Y-0.500 F800
G0 Z5.000
G0 X320.500 Y9.500 Z5.000
G1 Z-261.000 F400
G1 X320.000 Y9.500 F800
G0 Z5.000
G0 X320.000 Y9.500 Z5.000
G1 Z-261.000 F400
G1 X282.500 Y9.500 F800
G0 Z5.000
G0 X37.500 Y9.500 Z5.000
G1 Z-261.000 F400
G1 X0.000 Y9.500 F800
G0 Z5.000
G0 X0.000 Y9.500 Z5.000
G1 Z-261.000 F400
G1 X-0.500 Y9.500 F800
G0 Z5.000
G0 X7.449 Y-0.500 Z5.000
G1 Z-263.000 F400
G1 X320.500 Y-0.500 F800
G0 Z5.000
G0 X320.500 Y9.500 Z5.000
G1 Z-263.000 F400
G1 X320.000 Y9.500 F800
G0 Z5.000
G0 X320.000 Y9.500 Z5.000
G1 Z-263.000 F400
G1 X282.500 Y9.500 F800
G0 Z5.000
G0 X37.500 Y9.500 Z5.000
G1 Z-263.000 F400
G1 X0.000 Y9.500 F800
G0 Z5.000
G0 X0.000 Y9.500 Z5.000
G1 Z-263.000 F400
G1 X-0.500 Y9.500 F800
G0 Z5.000
G0 X7.449 Y-0.500 Z5.000
G1 Z-265.000 F400
G1 X320.500 Y-0.500 F800
G0 Z5.000
G0 X320.500 Y9.500 Z5.000
G1 Z-265.000 F400
G1 X320.000 Y9.500 F800
G0 Z5.000
G0 X320.000 Y9.500 Z5.000
G1 Z-265.000 F400
G1 X308.267 Y9.500 F800
G0 Z5.000
G0 X308.267 Y9.500 Z5.000
G1 Z-265.000 F400
G1 X282.500 Y9.500 F800
G0 Z5.000
G0 X37.500 Y9.500 Z5.000
G1 Z-265.000 F400
G1 X0.000 Y9.500 F800
G0 Z5.000
G0 X0.000 Y9.500 Z5.000
G1 Z-265.000 F400
G1 X-0.500 Y9.500 F800
G0 Z5.000
G0 X7.449 Y-0.500 Z5.000
G1 Z-267.000 F400
G1 X320.500 Y-0.500 F800
G0 Z5.000
G0 X320.500 Y9.500 Z5.000
G1 Z-267.000 F400
G1 X320.000 Y9.500 F800
G0 Z5.000
G0 X320.000 Y9.500 Z5.000
G1 Z-267.000 F400
G1 X282.500 Y9.500 F800
G0 Z5.000
G0 X37.500 Y9.500 Z5.000
G1 Z-267.000 F400
G1 X0.000 Y9.500 F800
G0 Z5.000
G0 X0.000 Y9.500 Z5.000
G1 Z-267.000 F400
G1 X-0.500 Y9.500 F800
G0 Z5.000
G0 X7.449 Y-0.500 Z5.000
G1 Z-269.000 F400
G1 X320.500 Y-0.500 F800
G0 Z5.000
G0 X320.500 Y9.500 Z5.000
G1 Z-269.000 F400
G1 X320.000 Y9.500 F800
G0 Z5.000
G0 X320.000 Y9.500 Z5.000
G1 Z-269.000 F400
G1 X282.500 Y9.500 F800
G0 Z5.000
G0 X37.500 Y9.500 Z5.000
G1 Z-269.000 F400
G1 X0.000 Y9.500 F800
G0 Z5.000
G0 X0.000 Y9.500 Z5.000
G1 Z-269.000 F400
G1 X-0.500 Y9.500 F800
G0 Z5.000
G0 X7.449 Y-0.500 Z5.000
G1 Z-271.000 F400
G1 X320.500 Y-0.500 F800
G0 Z5.000
G0 X320.500 Y9.500 Z5.000
G1 Z-271.000 F400
G1 X320.000 Y9.500 F800
G0 Z5.000
G0 X320.000 Y9.500 Z5.000
G1 Z-271.000 F400
G1 X282.500 Y9.500 F800
G0 Z5.000
G0 X37.500 Y9.500 Z5.000
G1 Z-271.000 F400
G1 X0.000 Y9.500 F800
G0 Z5.000
G0 X0.000 Y9.500 Z5.000
G1 Z-271.000 F400
G1 X-0.500 Y9.500 F800
G0 Z5.000
G0 X7.449 Y-0.500 Z5.000
G1 Z-273.000 F400
G1 X320.500 Y-0.500 F800
G0 Z5.000
G0 X320.500 Y9.500 Z5.000
G1 Z-273.000 F400
G1 X320.000 Y9.500 F800
G0 Z5.000
G0 X320.000 Y9.500 Z5.000
G1 Z-273.000 F400
G1 X282.500 Y9.500 F800
G0 Z5.000
G0 X37.500 Y9.500 Z5.000
G1 Z-273.000 F400
G1 X0.000 Y9.500 F800
G0 Z5.000
G0 X0.000 Y9.500 Z5.000
G1 Z-273.000 F400
G1 X-0.500 Y9.500 F800
G0 Z5.000
G0 X7.449 Y-0.500 Z5.000
G1 Z-275.000 F400
G1 X320.500 Y-0.500 F800
G0 Z5.000
G0 X320.500 Y9.500 Z5.000
G1 Z-275.000 F400
G1 X320.000 Y9.500 F800
G0 Z5.000
G0 X320.000 Y9.500 Z5.000
G1 Z-275.000 F400
G1 X282.500 Y9.500 F800
G0 Z5.000
G0 X37.500 Y9.500 Z5.000
G1 Z-275.000 F400
G1 X0.000 Y9.500 F800
G0 Z5.000
G0 X0.000 Y9.500 Z5.000
G1 Z-275.000 F400
G1 X-0.500 Y9.500 F800
G0 Z5.000
G0 X7.449 Y-0.500 Z5.000
G1 Z-277.000 F400
G1 X320.500 Y-0.500 F800
G0 Z5.000
G0 X320.500 Y9.500 Z5.000
G1 Z-277.000 F400
G1 X320.000 Y9.500 F800
G0 Z5.000
G0 X320.000 Y9.500 Z5.000
G1 Z-277.000 F400
G1 X282.500 Y9.500 F800
G0 Z5.000
G0 X37.500 Y9.500 Z5.000
G1 Z-277.000 F400
G1 X0.000 Y9.500 F800
G0 Z5.000
G0 X0.000 Y9.500 Z5.000
G1 Z-277.000 F400
G1 X-0.500 Y9.500 F800
G0 Z5.000
G0 X7.449 Y-0.500 Z5.000
G1 Z-279.000 F400
G1 X320.500 Y-0.500 F800
G0 Z5.000
G0 X320.500 Y9.500 Z5.000
G1 Z-279.000 F400
G1 X320.000 Y9.500 F800
G0 Z5.000
G0 X320.000 Y9.500 Z5.000
G1 Z-279.000 F400
G1 X282.500 Y9.500 F800
G0 Z5.000
G0 X37.500 Y9.500 Z5.000
G1 Z-279.000 F400
G1 X0.000 Y9.500 F800
G0 Z5.000
G0 X0.000 Y9.500 Z5.000
G1 Z-279.000 F400
G1 X-0.500 Y9.500 F800
G0 Z5.000
G0 X7.449 Y-0.500 Z5.000
G1 Z-281.000 F400
G1 X320.500 Y-0.500 F800
G0 Z5.000
G0 X320.500 Y9.500 Z5.000
G1 Z-281.000 F400
G1 X320.000 Y9.500 F800
G0 Z5.000
G0 X320.000 Y9.500 Z5.000
G1 Z-281.000 F400
G1 X282.500 Y9.500 F800
G0 Z5.000
G0 X37.500 Y9.500 Z5.000
G1 Z-281.000 F400
G1 X0.000 Y9.500 F800
G0 Z5.000
G0 X0.000 Y9.500 Z5.000
G1 Z-281.000 F400
G1 X-0.500 Y9.500 F800
G0 Z5.000
G0 X7.449 Y-0.500 Z5.000
G1 Z-283.000 F400
G1 X320.500 Y-0.500 F800
G0 Z5.000
G0 X201.468 Y1.500 Z5.000
G1 Z-283.000 F400
G1 X198.532 Y1.500 F800
G0 Z5.000
G0 X151.468 Y1.500 Z5.000
G1 Z-283.000 F400
G1 X148.532 Y1.500 F800
G0 Z5.000
G0 X149.036 Y3.500 Z5.000
G1 Z-283.000 F400
G1 X150.964 Y3.500 F800
G0 Z5.000
G0 X199.036 Y3.500 Z5.000
G1 Z-283.000 F400
G1 X200.964 Y3.500 F800
G0 Z5.000
G0 X200.964 Y5.500 Z5.000
G1 Z-283.000 F400
G1 X199.036 Y5.500 F800
G0 Z5.000
G0 X150.964 Y5.500 Z5.000
G1 Z-283.000 F400
G1 X149.036 Y5.500 F800
G0 Z5.000
G0 X149.036 Y7.500 Z5.000
G1 Z-283.000 F400
G1 X150.964 Y7.500 F800
G0 Z5.000
G0 X199.036 Y7.500 Z5.000
G1 Z-283.000 F400
G1 X200.964 Y7.500 F800
G0 Z5.000
G0 X320.500 Y9.500 Z5.000
G1 Z-283.000 F400
G1 X320.000 Y9.500 F800
G0 Z5.000
G0 X320.000 Y9.500 Z5.000
G1 Z-283.000 F400
G1 X282.500 Y9.500 F800
G0 Z5.000
G0 X200.964 Y9.500 Z5.000
G1 Z-283.000 F400
G1 X199.036 Y9.500 F800
G0 Z5.000
G0 X150.964 Y9.500 Z5.000
G1 Z-283.000 F400
G1 X149.036 Y9.500 F800
G0 Z5.000
G0 X37.500 Y9.500 Z5.000
G1 Z-283.000 F400
G1 X0.000 Y9.500 F800
G0 Z5.000
G0 X0.000 Y9.500 Z5.000
G1 Z-283.000 F400
G1 X-0.500 Y9.500 F800
G0 Z5.000
G0 X7.449 Y-0.500 Z5.000
G1 Z-285.000 F400
G1 X320.500 Y-0.500 F800
G0 Z5.000
G0 X202.002 Y1.500 Z5.000
G1 Z-285.000 F400
G1 X197.998 Y1.500 F800
G0 Z5.000
G0 X152.002 Y1.500 Z5.000
G1 Z-285.000 F400
G1 X147.998 Y1.500 F800
G0 Z5.000
G0 X148.501 Y3.500 Z5.000
G1 Z-285.000 F400
G1 X151.499 Y3.500 F800
G0 Z5.000
G0 X198.501 Y3.500 Z5.000
G1 Z-285.000 F400
G1 X201.499 Y3.500 F800
G0 Z5.000
G0 X201.499 Y5.500 Z5.000
G1 Z-285.000 F400
G1 X198.501 Y5.500 F800
G0 Z5.000
G0 X151.499 Y5.500 Z5.000
G1 Z-285.000 F400
G1 X148.501 Y5.500 F800
G0 Z5.000
G0 X148.501 Y7.500 Z5.000
G1 Z-285.000 F400
G1 X151.499 Y7.500 F800
G0 Z5.000
G0 X198.501 Y7.500 Z5.000
G1 Z-285.000 F400
G1 X201.499 Y7.500 F800
G0 Z5.000
G0 X320.500 Y9.500 Z5.000
G1 Z-285.000 F400
G1 X320.000 Y9.500 F800
G0 Z5.000
G0 X320.000 Y9.500 Z5.000
G1 Z-285.000 F400
G1 X282.500 Y9.500 F800
G0 Z5.000
G0 X201.499 Y9.500 Z5.000
G1 Z-285.000 F400
G1 X198.501 Y9.500 F800
G0 Z5.000
G0 X151.499 Y9.500 Z5.000
G1 Z-285.000 F400
G1 X148.501 Y9.500 F800
G0 Z5.000
G0 X37.500 Y9.500 Z5.000
G1 Z-285.000 F400
G1 X0.000 Y9.500 F800
G0 Z5.000
G0 X0.000 Y9.500 Z5.000
G1 Z-285.000 F400
G1 X-0.500 Y9.500 F800
G0 Z5.000
G0 X7.449 Y-0.500 Z5.000
G1 Z-287.000 F400
G1 X320.500 Y-0.500 F800
G0 Z5.000
G0 X201.468 Y1.500 Z5.000
G1 Z-287.000 F400
G1 X198.532 Y1.500 F800
G0 Z5.000
G0 X151.468 Y1.500 Z5.000
G1 Z-287.000 F400
G1 X148.532 Y1.500 F800
G0 Z5.000
G0 X149.036 Y3.500 Z5.000
G1 Z-287.000 F400
G1 X150.964 Y3.500 F800
G0 Z5.000
G0 X199.036 Y3.500 Z5.000
G1 Z-287.000 F400
G1 X200.964 Y3.500 F800
G0 Z5.000
G0 X200.964 Y5.500 Z5.000
G1 Z-287.000 F400
G1 X199.036 Y5.500 F800
G0 Z5.000
G0 X150.964 Y5.500 Z5.000
G1 Z-287.000 F400
G1 X149.036 Y5.500 F800
G0 Z5.000
G0 X149.036 Y7.500 Z5.000
G1 Z-287.000 F400
G1 X150.964 Y7.500 F800
G0 Z5.000
G0 X199.036 Y7.500 Z5.000
G1 Z-287.000 F400
G1 X200.964 Y7.500 F800
G0 Z5.000
G0 X320.500 Y9.500 Z5.000
G1 Z-287.000 F400
G1 X320.000 Y9.500 F800
G0 Z5.000
G0 X320.000 Y9.500 Z5.000
G1 Z-287.000 F400
G1 X282.500 Y9.500 F800
G0 Z5.000
G0 X200.964 Y9.500 Z5.000
G1 Z-287.000 F400
G1 X199.036 Y9.500 F800
G0 Z5.000
G0 X150.964 Y9.500 Z5.000
G1 Z-287.000 F400
G1 X149.036 Y9.500 F800
G0 Z5.000
G0 X37.500 Y9.500 Z5.000
G1 Z-287.000 F400
G1 X0.000 Y9.500 F800
G0 Z5.000
G0 X0.000 Y9.500 Z5.000
G1 Z-287.000 F400
G1 X-0.500 Y9.500 F800
G0 Z5.000
G0 X-0.500 Y-0.500 Z5.000
G1 Z-289.000 F400
G1 X320.500 Y-0.500 F800
G0 Z5.000
G0 X148.000 Y1.500 Z5.000
G1 Z-289.000 F400
G1 X-0.500 Y1.500 F800
G0 Z5.000
G0 X-0.500 Y3.500 Z5.000
G1 Z-289.000 F400
G1 X147.500 Y3.500 F800
G0 Z5.000
G0 X147.500 Y5.500 Z5.000
G1 Z-289.000 F400
G1 X-0.500 Y5.500 F800
G0 Z5.000
G0 X-0.500 Y7.500 Z5.000
G1 Z-289.000 F400
G1 X147.500 Y7.500 F800
G0 Z5.000
G0 X320.500 Y9.500 Z5.000
G1 Z-289.000 F400
G1 X320.000 Y9.500 F800
G0 Z5.000
G0 X147.558 Y9.500 Z5.000
G1 Z-289.000 F400
G1 X-0.500 Y9.500 F800
G0 Z5.000
G0 X7.449 Y-0.500 Z5.000
G1 Z-291.000 F400
G1 X320.500 Y-0.500 F800
G0 Z5.000
G0 X320.500 Y9.500 Z5.000
G1 Z-291.000 F400
G1 X320.000 Y9.500 F800
G0 Z5.000
G0 X320.000 Y9.500 Z5.000
G1 Z-291.000 F400
G1 X282.500 Y9.500 F800
G0 Z5.000
G0 X37.500 Y9.500 Z5.000
G1 Z-291.000 F400
G1 X0.000 Y9.500 F800
G0 Z5.000
G0 X0.000 Y9.500 Z5.000
G1 Z-291.000 F400
G1 X-0.500 Y9.500 F800
G0 Z5.000
G0 X7.449 Y-0.500 Z5.000
G1 Z-293.000 F400
G1 X320.500 Y-0.500 F800
G0 Z5.000
G0 X320.500 Y9.500 Z5.000
G1 Z-293.000 F400
G1 X320.000 Y9.500 F800
G0 Z5.000
G0 X320.000 Y9.500 Z5.000
G1 Z-293.000 F400
G1 X282.500 Y9.500 F800
G0 Z5.000
G0 X37.500 Y9.500 Z5.000
G1 Z-293.000 F400
G1 X0.000 Y9.500 F800
G0 Z5.000
G0 X0.000 Y9.500 Z5.000
G1 Z-293.000 F400
G1 X-0.500 Y9.500 F800
G0 Z5.000
G0 X320.000 Y-0.500 Z5.000
G1 Z-295.000 F400
G1 X320.500 Y-0.500 F800
G0 Z5.000
G0 X320.500 Y9.500 Z5.000
G1 Z-295.000 F400
G1 X320.000 Y9.500 F800
G0 Z5.000
G0 X320.000 Y9.500 Z5.000
G1 Z-295.000 F400
G1 X282.500 Y9.500 F800
G0 Z5.000
G0 X37.500 Y9.500 Z5.000
G1 Z-295.000 F400
G1 X0.000 Y9.500 F800
G0 Z5.000
G0 X0.000 Y9.500 Z5.000
G1 Z-295.000 F400
G1 X-0.500 Y9.500 F800
G0 Z5.000
G0 X127.627 Y7.500 Z5.000
G1 Z-299.000 F400
G1 X132.373 Y7.500 F800
G0 Z5.000
G0 X212.627 Y7.500 Z5.000
G1 Z-299.000 F400
G1 X217.371 Y7.500 F800
G0 Z5.000
G0 X320.500 Y9.500 Z5.000
G1 Z-299.000 F400
G1 X320.000 Y9.500 F800
G0 Z5.000
G0 X320.000 Y9.500 Z5.000
G1 Z-299.000 F400
G1 X282.500 Y9.500 F800
G0 Z5.000
G0 X217.373 Y9.500 Z5.000
G1 Z-299.000 F400
G1 X212.627 Y9.500 F800
G0 Z5.000
G0 X132.373 Y9.500 Z5.000
G1 Z-299.000 F400
G1 X127.627 Y9.500 F800
G0 Z5.000
G0 X37.500 Y9.500 Z5.000
G1 Z-299.000 F400
G1 X0.000 Y9.500 F800
G0 Z5.000
G0 X0.000 Y9.500 Z5.000
G1 Z-299.000 F400
G1 X-0.500 Y9.500 F800
G0 Z5.000
G0 X126.692 Y8.496 Z5.000
G1 Z-301.000 F400
G1 X133.308 Y8.496 F800
G0 Z5.000
G0 X211.692 Y8.496 Z5.000
G1 Z-301.000 F400
G1 X218.308 Y8.496 F800
G0 Z5.000
G0 X320.500 Y10.496 Z5.000
G1 Z-301.000 F400
G1 X282.450 Y10.496 F800
G0 Z5.000
G0 X218.358 Y10.496 Z5.000
G1 Z-301.000 F400
G1 X211.642 Y10.496 F800
G0 Z5.000
G0 X133.358 Y10.496 Z5.000
G1 Z-301.000 F400
G1 X126.642 Y10.496 F800
G0 Z5.000
G0 X37.550 Y10.496 Z5.000
G1 Z-301.000 F400
G1 X-0.500 Y10.496 F800
G0 Z5.000
G0 X126.522 Y7.501 Z5.000
G1 Z-303.000 F400
G1 X133.478 Y7.501 F800
G0 Z5.000
G0 X211.522 Y7.501 Z5.000
G1 Z-303.000 F400
G1 X218.478 Y7.501 F800
G0 Z5.000
G0 X320.500 Y9.501 Z5.000
G1 Z-303.000 F400
G1 X282.500 Y9.501 F800
G0 Z5.000
G0 X218.478 Y9.501 Z5.000
G1 Z-303.000 F400
G1 X211.522 Y9.501 F800
G0 Z5.000
G0 X133.478 Y9.501 Z5.000
G1 Z-303.000 F400
G1 X126.522 Y9.501 F800
G0 Z5.000
G0 X37.500 Y9.501 Z5.000
G1 Z-303.000 F400
G1 X-0.500 Y9.501 F800
G0 Z5.000
G0 X127.047 Y7.500 Z5.000
G1 Z-305.000 F400
G1 X132.953 Y7.500 F800
G0 Z5.000
G0 X212.047 Y7.500 Z5.000
G1 Z-305.000 F400
G1 X217.953 Y7.500 F800
G0 Z5.000
G0 X320.500 Y9.500 Z5.000
G1 Z-305.000 F400
G1 X320.000 Y9.500 F800
G0 Z5.000
G0 X320.000 Y9.500 Z5.000
G1 Z-305.000 F400
G1 X282.500 Y9.500 F800
G0 Z5.000
G0 X217.953 Y9.500 Z5.000
G1 Z-305.000 F400
G1 X212.047 Y9.500 F800
G0 Z5.000
G0 X132.953 Y9.500 Z5.000
G1 Z-305.000 F400
G1 X127.047 Y9.500 F800
G0 Z5.000
G0 X37.500 Y9.500 Z5.000
G1 Z-305.000 F400
G1 X0.000 Y9.500 F800
G0 Z5.000
G0 X0.000 Y9.500 Z5.000
G1 Z-305.000 F400
G1 X-0.500 Y9.500 F800
G0 Z5.000
G0 X128.534 Y7.500 Z5.000
G1 Z-307.000 F400
G1 X131.466 Y7.500 F800
G0 Z5.000
G0 X213.534 Y7.500 Z5.000
G1 Z-307.000 F400
G1 X216.466 Y7.500 F800
G0 Z5.000
G0 X320.500 Y9.500 Z5.000
G1 Z-307.000 F400
G1 X320.000 Y9.500 F800
G0 Z5.000
G0 X320.000 Y9.500 Z5.000
G1 Z-307.000 F400
G1 X282.500 Y9.500 F800
G0 Z5.000
G0 X216.466 Y9.500 Z5.000
G1 Z-307.000 F400
G1 X213.534 Y9.500 F800
G0 Z5.000
G0 X131.466 Y9.500 Z5.000
G1 Z-307.000 F400
G1 X128.534 Y9.500 F800
G0 Z5.000
G0 X37.500 Y9.500 Z5.000
G1 Z-307.000 F400
G1 X0.000 Y9.500 F800
G0 Z5.000
G0 X0.000 Y9.500 Z5.000
G1 Z-307.000 F400
G1 X-0.500 Y9.500 F800
G0 Z5.000
G0 X128.534 Y7.500 Z5.000
G1 Z-373.000 F400
G1 X131.466 Y7.500 F800
G0 Z5.000
G0 X213.534 Y7.500 Z5.000
G1 Z-373.000 F400
G1 X216.466 Y7.500 F800
G0 Z5.000
G0 X320.500 Y9.500 Z5.000
G1 Z-373.000 F400
G1 X320.000 Y9.500 F800
G0 Z5.000
G0 X320.000 Y9.500 Z5.000
G1 Z-373.000 F400
G1 X282.500 Y9.500 F800
G0 Z5.000
G0 X216.466 Y9.500 Z5.000
G1 Z-373.000 F400
G1 X213.534 Y9.500 F800
G0 Z5.000
G0 X131.466 Y9.500 Z5.000
G1 Z-373.000 F400
G1 X128.534 Y9.500 F800
G0 Z5.000
G0 X37.500 Y9.500 Z5.000
G1 Z-373.000 F400
G1 X0.000 Y9.500 F800
G0 Z5.000
G0 X0.000 Y9.500 Z5.000
G1 Z-373.000 F400
G1 X-0.500 Y9.500 F800
G0 Z5.000
G0 X127.047 Y7.500 Z5.000
G1 Z-375.000 F400
G1 X132.953 Y7.500 F800
G0 Z5.000
G0 X212.047 Y7.500 Z5.000
G1 Z-375.000 F400
G1 X217.953 Y7.500 F800
G0 Z5.000
G0 X320.500 Y9.500 Z5.000
G1 Z-375.000 F400
G1 X320.000 Y9.500 F800
G0 Z5.000
G0 X320.000 Y9.500 Z5.000
G1 Z-375.000 F400
G1 X282.500 Y9.500 F800
G0 Z5.000
G0 X217.953 Y9.500 Z5.000
G1 Z-375.000 F400
G1 X212.047 Y9.500 F800
G0 Z5.000
G0 X132.953 Y9.500 Z5.000
G1 Z-375.000 F400
G1 X127.047 Y9.500 F800
G0 Z5.000
G0 X37.500 Y9.500 Z5.000
G1 Z-375.000 F400
G1 X0.000 Y9.500 F800
G0 Z5.000
G0 X0.000 Y9.500 Z5.000
G1 Z-375.000 F400
G1 X-0.500 Y9.500 F800
G0 Z5.000
G0 X126.522 Y7.501 Z5.000
G1 Z-377.000 F400
G1 X133.478 Y7.501 F800
G0 Z5.000
G0 X211.522 Y7.501 Z5.000
G1 Z-377.000 F400
G1 X218.478 Y7.501 F800
G0 Z5.000
G0 X320.500 Y9.501 Z5.000
G1 Z-377.000 F400
G1 X282.500 Y9.501 F800
G0 Z5.000
G0 X218.478 Y9.501 Z5.000
G1 Z-377.000 F400
G1 X211.522 Y9.501 F800
G0 Z5.000
G0 X133.478 Y9.501 Z5.000
G1 Z-377.000 F400
G1 X126.522 Y9.501 F800
G0 Z5.000
G0 X37.500 Y9.501 Z5.000
G1 Z-377.000 F400
G1 X-0.500 Y9.501 F800
G0 Z5.000
G0 X126.692 Y8.496 Z5.000
G1 Z-379.000 F400
G1 X133.308 Y8.496 F800
G0 Z5.000
G0 X211.692 Y8.496 Z5.000
G1 Z-379.000 F400
G1 X218.308 Y8.496 F800
G0 Z5.000
G0 X320.500 Y10.496 Z5.000
G1 Z-379.000 F400
G1 X282.450 Y10.496 F800
G0 Z5.000
G0 X218.358 Y10.496 Z5.000
G1 Z-379.000 F400
G1 X211.642 Y10.496 F800
G0 Z5.000
G0 X133.358 Y10.496 Z5.000
G1 Z-379.000 F400
G1 X126.642 Y10.496 F800
G0 Z5.000
G0 X37.550 Y10.496 Z5.000
G1 Z-379.000 F400
G1 X-0.500 Y10.496 F800
G0 Z5.000
G0 X-0.500 Y-0.500 Z5.000
G1 Z-381.000 F400
G1 X-0.447 Y-0.500 F800
G0 Z5.000
G0 X320.447 Y-0.500 Z5.000
G1 Z-381.000 F400
G1 X320.500 Y-0.500 F800
G0 Z5.000
G0 X320.500 Y1.500 Z5.000
G1 Z-381.000 F400
G1 X320.499 Y1.500 F800
G0 Z5.000
G0 X-0.499 Y1.500 Z5.000
G1 Z-381.000 F400
G1 X-0.500 Y1.500 F800
G0 Z5.000
G0 X-0.500 Y3.500 Z5.000
G1 Z-381.000 F400
G1 X-0.499 Y3.500 F800
G0 Z5.000
G0 X320.499 Y3.500 Z5.000
G1 Z-381.000 F400
G1 X320.500 Y3.500 F800
G0 Z5.000
G0 X320.500 Y5.500 Z5.000
G1 Z-381.000 F400
G1 X320.499 Y5.500 F800
G0 Z5.000
G0 X-0.499 Y5.500 Z5.000
G1 Z-381.000 F400
G1 X-0.500 Y5.500 F800
G0 Z5.000
G0 X-0.500 Y7.500 Z5.000
G1 Z-381.000 F400
G1 X-0.447 Y7.500 F800
G0 Z5.000
G0 X127.627 Y7.500 Z5.000
G1 Z-381.000 F400
G1 X132.371 Y7.500 F800
G0 Z5.000
G0 X212.627 Y7.500 Z5.000
G1 Z-381.000 F400
G1 X217.371 Y7.500 F800
G0 Z5.000
G0 X320.447 Y7.500 Z5.000
G1 Z-381.000 F400
G1 X320.500 Y7.500 F800
G0 Z5.000
G0 X320.500 Y9.500 Z5.000
G1 Z-381.000 F400
G1 X317.999 Y9.500 F800
G0 Z5.000
G0 X317.999 Y9.500 Z5.000
G1 Z-381.000 F400
G1 X314.000 Y9.500 F800
G0 Z5.000
G0 X314.000 Y9.500 Z5.000
G1 Z-381.000 F400
G1 X296.000 Y9.500 F800
G0 Z5.000
G0 X296.000 Y9.500 Z5.000
G1 Z-381.000 F400
G1 X282.500 Y9.500 F800
G0 Z5.000
G0 X217.373 Y9.500 Z5.000
G1 Z-381.000 F400
G1 X212.627 Y9.500 F800
G0 Z5.000
G0 X132.373 Y9.500 Z5.000
G1 Z-381.000 F400
G1 X127.627 Y9.500 F800
G0 Z5.000
G0 X37.500 Y9.500 Z5.000
G1 Z-381.000 F400
G1 X2.001 Y9.500 F800
G0 Z5.000
G0 X2.001 Y9.500 Z5.000
G1 Z-381.000 F400
G1 X-0.500 Y9.500 F800
G0 Z5.000
G0 X-0.500 Y-0.500 Z5.000
G1 Z-383.000 F400
G1 X1.553 Y-0.500 F800
G0 Z5.000
G0 X318.447 Y-0.500 Z5.000
G1 Z-383.000 F400
G1 X320.500 Y-0.500 F800
G0 Z5.000
G0 X320.500 Y1.500 Z5.000
G1 Z-383.000 F400
G1 X318.498 Y1.500 F800
G0 Z5.000
G0 X1.502 Y1.500 Z5.000
G1 Z-383.000 F400
G1 X-0.500 Y1.500 F800
G0 Z5.000
G0 X-0.500 Y3.500 Z5.000
G1 Z-383.000 F400
G1 X1.502 Y3.500 F800
G0 Z5.000
G0 X318.498 Y3.500 Z5.000
G1 Z-383.000 F400
G1 X320.500 Y3.500 F800
G0 Z5.000
G0 X320.500 Y5.500 Z5.000
G1 Z-383.000 F400
G1 X318.498 Y5.500 F800
G0 Z5.000
G0 X1.502 Y5.500 Z5.000
G1 Z-383.000 F400
G1 X-0.500 Y5.500 F800
G0 Z5.000
G0 X-0.500 Y7.500 Z5.000
G1 Z-383.000 F400
G1 X1.553 Y7.500 F800
G0 Z5.000
G0 X318.447 Y7.500 Z5.000
G1 Z-383.000 F400
G1 X320.500 Y7.500 F800
G0 Z5.000
G0 X320.500 Y9.500 Z5.000
G1 Z-383.000 F400
G1 X315.998 Y9.500 F800
G0 Z5.000
G0 X315.998 Y9.500 Z5.000
G1 Z-383.000 F400
G1 X288.002 Y9.500 F800
G0 Z5.000
G0 X37.500 Y9.500 Z5.000
G1 Z-383.000 F400
G1 X4.002 Y9.500 F800
G0 Z5.000
G0 X4.002 Y9.500 Z5.000
G1 Z-383.000 F400
G1 X-0.500 Y9.500 F800
G0 Z5.000
G0 X-0.500 Y-0.500 Z5.000
G1 Z-385.000 F400
G1 X320.500 Y-0.500 F800
G0 Z5.000
G0 X320.500 Y1.500 Z5.000
G1 Z-385.000 F400
G1 X-0.500 Y1.500 F800
G0 Z5.000
G0 X-0.500 Y3.500 Z5.000
G1 Z-385.000 F400
G1 X320.500 Y3.500 F800
G0 Z5.000
G0 X320.500 Y5.500 Z5.000
G1 Z-385.000 F400
G1 X-0.500 Y5.500 F800
G0 Z5.000
G0 X-0.500 Y7.500 Z5.000
G1 Z-385.000 F400
G1 X320.500 Y7.500 F800
G0 Z5.000
G0 X320.500 Y9.500 Z5.000
G1 Z-385.000 F400
G1 X-0.500 Y9.500 F800
G0 Z5.000
G0 X0 Y0
M5
M30
